; generated by PrusaSlicer 2.4.0 on 2026-06-19 at 08:23:58 UTC

; 

; external perimeters extrusion width = 0.45mm
; perimeters extrusion width = 0.45mm
; infill extrusion width = 0.45mm
; solid infill extrusion width = 0.45mm
; top infill extrusion width = 0.40mm
; first layer extrusion width = 0.70mm

M107
M104 S200 ; set temperature
;TYPE:Custom
G28 ; home all axes
G1 Z5 F5000 ; lift nozzle
M109 S200 ; set temperature and wait for it to be reached
G21 ; set units to millimeters
G90 ; use absolute coordinates
M82 ; use absolute distances for extrusion
G92 E0
; Filament gcode
M107
;LAYER_CHANGE
;Z:0.35
;HEIGHT:0.35
G1 Z.35 F7800
G1 E-2 F2400
G92 E0
G1 X43.375 Y0 F7800
G1 E2 F2400
;TYPE:Skirt/Brim
;WIDTH:0.7
G1 F1800
G1 X43.772 Y-2.259 E2.20854
G1 X44.915 Y-4.247 E2.41708
G1 X46.668 Y-5.726 E2.62563
G1 X48.82 Y-6.519 E2.83417
G1 X50 Y-6.625 E2.94188
G1 X150 Y-6.625 E12.03484
G1 X152.259 Y-6.228 E12.24338
G1 X154.247 Y-5.085 E12.45192
G1 X155.726 Y-3.332 E12.66046
G1 X156.519 Y-1.18 E12.86901
G1 X156.625 Y0 E12.97672
G1 X156.625 Y200 E31.16263
G1 X156.228 Y202.259 E31.37117
G1 X155.085 Y204.247 E31.57972
G1 X153.332 Y205.726 E31.78826
G1 X151.18 Y206.519 E31.9968
G1 X150 Y206.625 E32.10451
G1 X50 Y206.625 E41.19747
G1 X47.741 Y206.228 E41.40601
G1 X45.753 Y205.085 E41.61455
G1 X44.274 Y203.332 E41.82309
G1 X43.481 Y201.18 E42.03164
G1 X43.375 Y200 E42.13935
G1 X43.375 Y.06 E60.31981
G1 E58.31981 F2400
G92 E0
G1 X51.6 Y1.6 F7800
G1 E2 F2400
;TYPE:Perimeter
G1 F1800
G1 X148.4 Y1.6 E10.80202
G1 X148.4 Y198.4 E28.69701
G1 X51.6 Y198.4 E37.49903
G1 X51.6 Y1.66 E55.38856
G1 X50.975 Y1.66 F7800
G1 F1800
G1 X50.975 Y.975 E55.45083
G1 X149.025 Y.975 E64.3665
G1 X149.025 Y199.025 E82.37512
G1 X50.975 Y199.025 E91.29079
G1 X50.975 Y1.72 E109.23168
G1 X50.35 Y.35 F7800
;TYPE:External perimeter
G1 F1800
G1 X149.65 Y.35 E118.26099
G1 X149.65 Y199.65 E136.38325
G1 X50.35 Y199.65 E145.41256
G1 X50.35 Y.41 E163.52937
G1 X50.723 Y.494 F7800
G1 E161.52937 F2400
G92 E0
G1 X148.213 Y3.052 F7800
G1 E2 F2400
;TYPE:Solid infill
;WIDTH:0.700988
G1 F1800
G1 X147.229 Y2.068 E2.12675
G1 X146.344 Y2.068 E2.20736
G1 X147.932 Y3.656 E2.41189
G1 X147.932 Y4.542 E2.4925
G1 X145.458 Y2.068 E2.81103
G1 X144.573 Y2.068 E2.89164
G1 X147.932 Y5.427 E3.32417
G1 X147.932 Y6.312 E3.40478
G1 X143.688 Y2.068 E3.95131
G1 X142.803 Y2.068 E4.03192
G1 X147.932 Y7.197 E4.69246
G1 X147.932 Y8.082 E4.77307
G1 X141.918 Y2.068 E5.54761
G1 X141.033 Y2.068 E5.62822
G1 X147.932 Y8.967 E6.51675
G1 X147.932 Y9.852 E6.59736
G1 X140.148 Y2.068 E7.5999
G1 X139.263 Y2.068 E7.68051
G1 X147.932 Y10.737 E8.79705
G1 X147.932 Y11.623 E8.87766
G1 X138.377 Y2.068 E10.10821
G1 X137.492 Y2.068 E10.18882
G1 X147.932 Y12.508 E11.53336
G1 X147.932 Y13.393 E11.61397
G1 X136.607 Y2.068 E13.07251
G1 X135.722 Y2.068 E13.15312
G1 X147.932 Y14.278 E14.72567
G1 X147.932 Y15.163 E14.80628
G1 X134.837 Y2.068 E16.49283
G1 X133.952 Y2.068 E16.57344
G1 X147.932 Y16.048 E18.37399
G1 X147.932 Y16.933 E18.4546
G1 X133.067 Y2.068 E20.36915
G1 X132.182 Y2.068 E20.44976
G1 X147.932 Y17.818 E22.47831
G1 X147.932 Y18.704 E22.55892
G1 X131.296 Y2.068 E24.70147
G1 X130.411 Y2.068 E24.78208
G1 X147.932 Y19.589 E27.03864
G1 X147.932 Y20.474 E27.11925
G1 X129.526 Y2.068 E29.4898
G1 X128.641 Y2.068 E29.57041
G1 X147.932 Y21.359 E32.05497
G1 X147.932 Y22.244 E32.13558
G1 X127.756 Y2.068 E34.73414
G1 X126.871 Y2.068 E34.81475
G1 X147.932 Y23.129 E37.52731
G1 X147.932 Y24.014 E37.60792
G1 X125.986 Y2.068 E40.43448
G1 X125.101 Y2.068 E40.51509
G1 X147.932 Y24.899 E43.45565
G1 X147.932 Y25.785 E43.53626
G1 X124.215 Y2.068 E46.59083
G1 X123.33 Y2.068 E46.67144
G1 X147.932 Y26.67 E49.84
G1 X147.932 Y27.555 E49.92061
G1 X122.445 Y2.068 E53.20318
G1 X121.56 Y2.068 E53.28379
G1 X147.932 Y28.44 E56.68035
G1 X147.932 Y29.325 E56.76097
G1 X120.675 Y2.068 E60.27153
G1 X119.79 Y2.068 E60.35215
G1 X147.932 Y30.21 E63.97671
G1 X147.932 Y31.095 E64.05733
G1 X118.905 Y2.068 E67.7959
G1 X118.02 Y2.068 E67.87651
G1 X147.932 Y31.98 E71.72908
G1 X147.932 Y32.866 E71.80969
G1 X117.134 Y2.068 E75.77627
G1 X116.249 Y2.068 E75.85688
G1 X147.932 Y33.751 E79.93745
G1 X147.932 Y34.636 E80.01806
G1 X115.364 Y2.068 E84.21264
G1 X114.479 Y2.068 E84.29325
G1 X147.932 Y35.521 E88.60183
G1 X147.932 Y36.406 E88.68244
G1 X113.594 Y2.068 E93.10502
G1 X112.709 Y2.068 E93.18563
G1 X147.932 Y37.291 E97.72221
G1 X147.932 Y38.176 E97.80282
G1 X111.824 Y2.068 E102.4534
G1 X110.939 Y2.068 E102.53401
G1 X147.932 Y39.061 E107.2986
G1 X147.932 Y39.946 E107.37921
G1 X110.054 Y2.068 E112.25779
G1 X109.168 Y2.068 E112.3384
G1 X147.932 Y40.832 E117.33099
G1 X147.932 Y41.717 E117.4116
G1 X108.283 Y2.068 E122.51819
G1 X107.398 Y2.068 E122.5988
G1 X147.932 Y42.602 E127.81939
G1 X147.932 Y43.487 E127.9
G1 X106.513 Y2.068 E133.23459
G1 X105.628 Y2.068 E133.3152
G1 X147.932 Y44.372 E138.76379
G1 X147.932 Y45.257 E138.8444
G1 X104.743 Y2.068 E144.40699
G1 X103.858 Y2.068 E144.48761
G1 X147.932 Y46.142 E150.1642
G1 X147.932 Y47.027 E150.24481
G1 X102.973 Y2.068 E156.03541
G1 X102.087 Y2.068 E156.11602
G1 X147.932 Y47.913 E162.02061
G1 X147.932 Y48.798 E162.10123
G1 X101.202 Y2.068 E168.11982
G1 X100.317 Y2.068 E168.20044
G1 X147.932 Y49.683 E174.33303
G1 X147.932 Y50.568 E174.41365
G1 X99.432 Y2.068 E180.66025
G1 X98.547 Y2.068 E180.74086
G1 X147.932 Y51.453 E187.10146
G1 X147.932 Y52.338 E187.18207
G1 X97.662 Y2.068 E193.65668
G1 X96.777 Y2.068 E193.73729
G1 X147.932 Y53.223 E200.32589
G1 X147.932 Y54.108 E200.4065
G1 X95.892 Y2.068 E207.10911
G1 X95.006 Y2.068 E207.18972
G1 X147.932 Y54.994 E214.00633
G1 X147.932 Y55.879 E214.08694
G1 X94.121 Y2.068 E221.01755
G1 X93.236 Y2.068 E221.09816
G1 X147.932 Y56.764 E228.14277
G1 X147.932 Y57.649 E228.22338
G1 X92.351 Y2.068 E235.38199
G1 X91.466 Y2.068 E235.4626
G1 X147.932 Y58.534 E242.73522
G1 X147.932 Y59.419 E242.81583
G1 X90.581 Y2.068 E250.20244
G1 X89.696 Y2.068 E250.28305
G1 X147.932 Y60.304 E257.78367
G1 X147.932 Y61.189 E257.86428
G1 X88.811 Y2.068 E265.4789
G1 X87.925 Y2.068 E265.55951
G1 X147.932 Y62.075 E273.28813
G1 X147.932 Y62.96 E273.36874
G1 X87.04 Y2.068 E281.21136
G1 X86.155 Y2.068 E281.29197
G1 X147.932 Y63.845 E289.24859
G1 X147.932 Y64.73 E289.3292
G1 X85.27 Y2.068 E297.39983
G1 X84.385 Y2.068 E297.48044
G1 X147.932 Y65.615 E305.66506
G1 X147.932 Y66.5 E305.74567
G1 X83.5 Y2.068 E314.0443
G1 X82.615 Y2.068 E314.12491
G1 X147.932 Y67.385 E322.53754
G1 X147.932 Y68.27 E322.61815
G1 X81.73 Y2.068 E331.14478
G1 X80.844 Y2.068 E331.22539
G1 X147.932 Y69.156 E339.86602
G1 X147.932 Y70.041 E339.94663
G1 X79.959 Y2.068 E348.70126
G1 X79.074 Y2.068 E348.78187
G1 X147.932 Y70.926 E357.6505
G1 X147.932 Y71.811 E357.73111
G1 X78.189 Y2.068 E366.71375
G1 X77.304 Y2.068 E366.79436
G1 X147.932 Y72.696 E375.89099
G1 X147.932 Y73.581 E375.9716
G1 X76.419 Y2.068 E385.18224
G1 X75.534 Y2.068 E385.26285
G1 X147.932 Y74.466 E394.58749
G1 X147.932 Y75.351 E394.6681
G1 X74.649 Y2.068 E404.10674
G1 X73.763 Y2.068 E404.18735
G1 X147.932 Y76.237 E413.73999
G1 X147.932 Y77.122 E413.8206
G1 X72.878 Y2.068 E423.48724
G1 X71.993 Y2.068 E423.56786
G1 X147.932 Y78.007 E433.3485
G1 X147.932 Y78.892 E433.42911
G1 X71.108 Y2.068 E443.32375
G1 X70.223 Y2.068 E443.40437
G1 X147.932 Y79.777 E453.41301
G1 X147.932 Y80.662 E453.49362
G1 X69.338 Y2.068 E463.61627
G1 X68.453 Y2.068 E463.69688
G1 X147.932 Y81.547 E473.93353
G1 X147.932 Y82.432 E474.01414
G1 X67.568 Y2.068 E484.36479
G1 X66.682 Y2.068 E484.4454
G1 X147.932 Y83.318 E494.91005
G1 X147.932 Y84.203 E494.99066
G1 X65.797 Y2.068 E505.56932
G1 X64.912 Y2.068 E505.64993
G1 X147.932 Y85.088 E516.34258
G1 X147.932 Y85.973 E516.42319
G1 X64.027 Y2.068 E527.22985
G1 X63.142 Y2.068 E527.31046
G1 X147.932 Y86.858 E538.23112
G1 X147.932 Y87.743 E538.31173
G1 X62.257 Y2.068 E549.34639
G1 X61.372 Y2.068 E549.427
G1 X147.932 Y88.628 E560.57566
G1 X147.932 Y89.513 E560.65627
G1 X60.487 Y2.068 E571.91893
G1 X59.601 Y2.068 E571.99954
G1 X147.932 Y90.399 E583.3762
G1 X147.932 Y91.284 E583.45681
G1 X58.716 Y2.068 E594.94748
G1 X57.831 Y2.068 E595.02809
G1 X147.932 Y92.169 E606.63275
G1 X147.932 Y93.054 E606.71337
G1 X56.946 Y2.068 E618.43203
G1 X56.061 Y2.068 E618.51264
G1 X147.932 Y93.939 E630.34531
G1 X147.932 Y94.824 E630.42592
G1 X55.176 Y2.068 E642.37259
G1 X54.291 Y2.068 E642.4532
G1 X147.932 Y95.709 E654.51387
G1 X147.932 Y96.594 E654.59448
G1 X53.406 Y2.068 E666.76915
G1 X52.52 Y2.068 E666.84977
G1 X147.932 Y97.48 E679.13844
G1 X147.932 Y98.365 E679.21905
G1 X52.068 Y2.502 E691.56594
G1 X52.068 Y3.387 E691.64656
G1 X147.932 Y99.25 E703.99345
G1 X147.932 Y100.135 E704.07406
G1 X52.068 Y4.272 E716.42095
G1 X52.068 Y5.157 E716.50156
G1 X147.932 Y101.02 E728.84846
G1 X147.932 Y101.905 E728.92907
G1 X52.068 Y6.042 E741.27596
G1 X52.068 Y6.927 E741.35657
G1 X147.932 Y102.79 E753.70347
G1 X147.932 Y103.675 E753.78408
G1 X52.068 Y7.812 E766.13097
G1 X52.068 Y8.697 E766.21158
G1 X147.932 Y104.561 E778.55848
G1 X147.932 Y105.446 E778.63909
G1 X52.068 Y9.583 E790.98598
G1 X52.068 Y10.468 E791.06659
G1 X147.932 Y106.331 E803.41349
G1 X147.932 Y107.216 E803.4941
G1 X52.068 Y11.353 E815.84099
G1 X52.068 Y12.238 E815.9216
G1 X147.932 Y108.101 E828.2685
G1 X147.932 Y108.986 E828.34911
G1 X52.068 Y13.123 E840.696
G1 X52.068 Y14.008 E840.77661
G1 X147.932 Y109.871 E853.12351
G1 X147.932 Y110.756 E853.20412
G1 X52.068 Y14.893 E865.55101
G1 X52.068 Y15.778 E865.63162
G1 X147.932 Y111.642 E877.97852
G1 X147.932 Y112.527 E878.05913
G1 X52.068 Y16.664 E890.40602
G1 X52.068 Y17.549 E890.48663
G1 X147.932 Y113.412 E902.83353
G1 X147.932 Y114.297 E902.91414
G1 X52.068 Y18.434 E915.26103
G1 X52.068 Y19.319 E915.34164
G1 X147.932 Y115.182 E927.68854
G1 X147.932 Y116.067 E927.76915
G1 X52.068 Y20.204 E940.11604
G1 X52.068 Y21.089 E940.19665
G1 X147.932 Y116.952 E952.54355
G1 X147.932 Y117.837 E952.62416
G1 X52.068 Y21.974 E964.97105
G1 X52.068 Y22.859 E965.05166
G1 X147.932 Y118.723 E977.39856
G1 X147.932 Y119.608 E977.47917
G1 X52.068 Y23.744 E989.82606
G1 X52.068 Y24.63 E989.90667
G1 X147.932 Y120.493 E1002.25357
G1 X147.932 Y121.378 E1002.33418
G1 X52.068 Y25.515 E1014.68107
G1 X52.068 Y26.4 E1014.76168
G1 X147.932 Y122.263 E1027.10858
G1 X147.932 Y123.148 E1027.18919
G1 X52.068 Y27.285 E1039.53608
G1 X52.068 Y28.17 E1039.61669
G1 X147.932 Y124.033 E1051.96359
G1 X147.932 Y124.918 E1052.0442
G1 X52.068 Y29.055 E1064.39109
G1 X52.068 Y29.94 E1064.4717
G1 X147.932 Y125.803 E1076.8186
G1 X147.932 Y126.689 E1076.89921
G1 X52.068 Y30.825 E1089.2461
G1 X52.068 Y31.711 E1089.32671
G1 X147.932 Y127.574 E1101.67361
G1 X147.932 Y128.459 E1101.75422
G1 X52.068 Y32.596 E1114.10111
G1 X52.068 Y33.481 E1114.18172
G1 X147.932 Y129.344 E1126.52862
G1 X147.932 Y130.229 E1126.60923
G1 X52.068 Y34.366 E1138.95612
G1 X52.068 Y35.251 E1139.03673
G1 X147.932 Y131.114 E1151.38362
G1 X147.932 Y131.999 E1151.46424
G1 X52.068 Y36.136 E1163.81113
G1 X52.068 Y37.021 E1163.89174
G1 X147.932 Y132.884 E1176.23863
G1 X147.932 Y133.77 E1176.31925
G1 X52.068 Y37.906 E1188.66614
G1 X52.068 Y38.792 E1188.74675
G1 X147.932 Y134.655 E1201.09364
G1 X147.932 Y135.54 E1201.17426
G1 X52.068 Y39.677 E1213.52115
G1 X52.068 Y40.562 E1213.60176
G1 X147.932 Y136.425 E1225.94865
G1 X147.932 Y137.31 E1226.02927
G1 X52.068 Y41.447 E1238.37616
G1 X52.068 Y42.332 E1238.45677
G1 X147.932 Y138.195 E1250.80366
G1 X147.932 Y139.08 E1250.88428
G1 X52.068 Y43.217 E1263.23117
G1 X52.068 Y44.102 E1263.31178
G1 X147.932 Y139.965 E1275.65867
G1 X147.932 Y140.851 E1275.73929
G1 X52.068 Y44.987 E1288.08618
G1 X52.068 Y45.873 E1288.16679
G1 X147.932 Y141.736 E1300.51368
G1 X147.932 Y142.621 E1300.5943
G1 X52.068 Y46.758 E1312.94119
G1 X52.068 Y47.643 E1313.0218
G1 X147.932 Y143.506 E1325.36869
G1 X147.932 Y144.391 E1325.4493
G1 X52.068 Y48.528 E1337.7962
G1 X52.068 Y49.413 E1337.87681
G1 X147.932 Y145.276 E1350.2237
G1 X147.932 Y146.161 E1350.30431
G1 X52.068 Y50.298 E1362.65121
G1 X52.068 Y51.183 E1362.73182
G1 X147.932 Y147.046 E1375.07871
G1 X147.932 Y147.932 E1375.15932
G1 X52.068 Y52.068 E1387.50622
G1 X52.068 Y52.954 E1387.58683
G1 X147.932 Y148.817 E1399.93372
G1 X147.932 Y149.702 E1400.01433
G1 X52.068 Y53.839 E1412.36123
G1 X52.068 Y54.724 E1412.44184
G1 X147.932 Y150.587 E1424.78873
G1 X147.932 Y151.472 E1424.86934
G1 X52.068 Y55.609 E1437.21624
G1 X52.068 Y56.494 E1437.29685
G1 X147.932 Y152.357 E1449.64374
G1 X147.932 Y153.242 E1449.72435
G1 X52.068 Y57.379 E1462.07125
G1 X52.068 Y58.264 E1462.15186
G1 X147.932 Y154.127 E1474.49875
G1 X147.932 Y155.013 E1474.57936
G1 X52.068 Y59.149 E1486.92626
G1 X52.068 Y60.035 E1487.00687
G1 X147.932 Y155.898 E1499.35376
G1 X147.932 Y156.783 E1499.43437
G1 X52.068 Y60.92 E1511.78127
G1 X52.068 Y61.805 E1511.86188
G1 X147.932 Y157.668 E1524.20877
G1 X147.932 Y158.553 E1524.28938
G1 X52.068 Y62.69 E1536.63628
G1 X52.068 Y63.575 E1536.71689
G1 X147.932 Y159.438 E1549.06378
G1 X147.932 Y160.323 E1549.14439
G1 X52.068 Y64.46 E1561.49129
G1 X52.068 Y65.345 E1561.5719
G1 X147.932 Y161.208 E1573.91879
G1 X147.932 Y162.094 E1573.9994
G1 X52.068 Y66.23 E1586.3463
G1 X52.068 Y67.116 E1586.42691
G1 X147.932 Y162.979 E1598.7738
G1 X147.932 Y163.864 E1598.85441
G1 X52.068 Y68.001 E1611.20131
G1 X52.068 Y68.886 E1611.28192
G1 X147.932 Y164.749 E1623.62881
G1 X147.932 Y165.634 E1623.70942
G1 X52.068 Y69.771 E1636.05632
G1 X52.068 Y70.656 E1636.13693
G1 X147.932 Y166.519 E1648.48382
G1 X147.932 Y167.404 E1648.56443
G1 X52.068 Y71.541 E1660.91133
G1 X52.068 Y72.426 E1660.99194
G1 X147.932 Y168.289 E1673.33883
G1 X147.932 Y169.175 E1673.41944
G1 X52.068 Y73.311 E1685.76634
G1 X52.068 Y74.197 E1685.84695
G1 X147.932 Y170.06 E1698.19384
G1 X147.932 Y170.945 E1698.27445
G1 X52.068 Y75.082 E1710.62135
G1 X52.068 Y75.967 E1710.70196
G1 X147.932 Y171.83 E1723.04885
G1 X147.932 Y172.715 E1723.12946
G1 X52.068 Y76.852 E1735.47636
G1 X52.068 Y77.737 E1735.55697
G1 X147.932 Y173.6 E1747.90386
G1 X147.932 Y174.485 E1747.98447
G1 X52.068 Y78.622 E1760.33137
G1 X52.068 Y79.507 E1760.41198
G1 X147.932 Y175.37 E1772.75887
G1 X147.932 Y176.256 E1772.83948
G1 X52.068 Y80.392 E1785.18637
G1 X52.068 Y81.278 E1785.26699
G1 X147.932 Y177.141 E1797.61388
G1 X147.932 Y178.026 E1797.69449
G1 X52.068 Y82.163 E1810.04138
G1 X52.068 Y83.048 E1810.122
G1 X147.932 Y178.911 E1822.46889
G1 X147.932 Y179.796 E1822.5495
G1 X52.068 Y83.933 E1834.89639
G1 X52.068 Y84.818 E1834.97701
G1 X147.932 Y180.681 E1847.3239
G1 X147.932 Y181.566 E1847.40451
G1 X52.068 Y85.703 E1859.7514
G1 X52.068 Y86.588 E1859.83202
G1 X147.932 Y182.451 E1872.17891
G1 X147.932 Y183.337 E1872.25952
G1 X52.068 Y87.473 E1884.60641
G1 X52.068 Y88.359 E1884.68703
G1 X147.932 Y184.222 E1897.03392
G1 X147.932 Y185.107 E1897.11453
G1 X52.068 Y89.244 E1909.46142
G1 X52.068 Y90.129 E1909.54203
G1 X147.932 Y185.992 E1921.88893
G1 X147.932 Y186.877 E1921.96954
G1 X52.068 Y91.014 E1934.31643
G1 X52.068 Y91.899 E1934.39704
G1 X147.932 Y187.762 E1946.74394
G1 X147.932 Y188.647 E1946.82455
G1 X52.068 Y92.784 E1959.17144
G1 X52.068 Y93.669 E1959.25205
G1 X147.932 Y189.532 E1971.59895
G1 X147.932 Y190.418 E1971.67956
G1 X52.068 Y94.554 E1984.02645
G1 X52.068 Y95.44 E1984.10706
G1 X147.932 Y191.303 E1996.45396
G1 X147.932 Y192.188 E1996.53457
G1 X52.068 Y96.325 E2008.88146
G1 X52.068 Y97.21 E2008.96207
G1 X147.932 Y193.073 E2021.30897
G1 X147.932 Y193.958 E2021.38958
G1 X52.068 Y98.095 E2033.73647
G1 X52.068 Y98.98 E2033.81708
G1 X147.932 Y194.843 E2046.16398
G1 X147.932 Y195.728 E2046.24459
G1 X52.068 Y99.865 E2058.59148
G1 X52.068 Y100.75 E2058.67209
G1 X147.932 Y196.613 E2071.01899
G1 X147.932 Y197.499 E2071.0996
G1 X52.068 Y101.635 E2083.44649
G1 X52.068 Y102.521 E2083.5271
G1 X147.479 Y197.932 E2095.81577
G1 X146.594 Y197.932 E2095.89638
G1 X52.068 Y103.406 E2108.07105
G1 X52.068 Y104.291 E2108.15166
G1 X145.709 Y197.932 E2120.21232
G1 X144.824 Y197.932 E2120.29294
G1 X52.068 Y105.176 E2132.2396
G1 X52.068 Y106.061 E2132.32021
G1 X143.939 Y197.932 E2144.15287
G1 X143.054 Y197.932 E2144.23348
G1 X52.068 Y106.946 E2155.95214
G1 X52.068 Y107.831 E2156.03276
G1 X142.169 Y197.932 E2167.63742
