; generated by PrusaSlicer 2.4.0 on 2026-06-18 at 08:21:46 UTC

; 

; external perimeters extrusion width = 0.45mm
; perimeters extrusion width = 0.45mm
; infill extrusion width = 0.45mm
; solid infill extrusion width = 0.45mm
; top infill extrusion width = 0.40mm
; first layer extrusion width = 0.70mm

M107
M104 S200 ; set temperature
;TYPE:Custom
G28 ; home all axes
G1 Z5 F5000 ; lift nozzle
M109 S200 ; set temperature and wait for it to be reached
G21 ; set units to millimeters
G90 ; use absolute coordinates
M82 ; use absolute distances for extrusion
G92 E0
; Filament gcode
M107
;LAYER_CHANGE
;Z:0.35
;HEIGHT:0.35
G1 Z.35 F7800
G1 E-2 F2400
G92 E0
G1 X89.915 Y90.753 F7800
G1 E2 F2400
;TYPE:Skirt/Brim
;WIDTH:0.7
G1 F1800
G1 X91.668 Y89.274 E2.20854
G1 X93.82 Y88.481 E2.41708
G1 X95 Y88.375 E2.52479
G1 X105 Y88.375 E3.43409
G1 X107.259 Y88.772 E3.64263
G1 X109.247 Y89.915 E3.85117
G1 X110.726 Y91.668 E4.05972
G1 X111.519 Y93.82 E4.26826
G1 X111.625 Y95 E4.37597
G1 X111.625 Y105 E5.28526
G1 X111.228 Y107.259 E5.49381
G1 X110.085 Y109.247 E5.70235
G1 X108.332 Y110.726 E5.91089
G1 X106.18 Y111.519 E6.11943
G1 X105 Y111.625 E6.22714
G1 X95 Y111.625 E7.13644
G1 X92.741 Y111.228 E7.34498
G1 X90.753 Y110.085 E7.55352
G1 X89.274 Y108.332 E7.76207
G1 X88.481 Y106.18 E7.97061
G1 X88.375 Y105 E8.07832
G1 X88.375 Y95 E8.98761
G1 X88.772 Y92.741 E9.19615
G1 X89.886 Y90.805 E9.39924
G1 E7.39924 F2400
G92 E0
G1 X96.6 Y96.6 F7800
G1 E2 F2400
;TYPE:Perimeter
G1 F1800
G1 X103.4 Y96.6 E2.61836
G1 X103.4 Y103.4 E3.23672
G1 X96.6 Y103.4 E3.85509
G1 X96.6 Y96.66 E4.46799
G1 X95.975 Y96.66 F7800
G1 F1800
G1 X95.975 Y95.975 E4.53027
G1 X104.025 Y95.975 E5.26227
G1 X104.025 Y104.025 E5.99428
G1 X95.975 Y104.025 E6.72628
G1 X95.975 Y96.72 E7.39055
G1 X95.35 Y95.35 F7800
;TYPE:External perimeter
G1 F1800
G1 X104.65 Y95.35 E8.2362
G1 X104.65 Y104.65 E9.08184
G1 X95.35 Y104.65 E9.92749
G1 X95.35 Y95.41 E10.76768
G1 X95.736 Y95.454 F7800
G1 E8.76768 F2400
G92 E0
G1 X103.213 Y98.115 F7800
G1 E2 F2400
;TYPE:Solid infill
;WIDTH:0.7305
G1 F1800
G1 X102.166 Y97.068 E2.14116
G1 X101.239 Y97.068 E2.22956
G1 X102.932 Y98.761 E2.4578
G1 X102.932 Y99.688 E2.5462
G1 X100.312 Y97.068 E2.89945
G1 X99.386 Y97.068 E2.98784
G1 X102.932 Y100.614 E3.4661
G1 X102.932 Y101.541 E3.55449
G1 X98.459 Y97.068 E4.15775
G1 X97.532 Y97.068 E4.24614
G1 X102.932 Y102.468 E4.97441
G1 X102.932 Y102.932 E5.0186
G1 X102.468 Y102.932 E5.06281
G1 X97.068 Y97.532 E5.79106
G1 X97.068 Y98.459 E5.87945
G1 X101.541 Y102.932 E6.4827
G1 X100.614 Y102.932 E6.57109
G1 X97.068 Y99.386 E7.04933
G1 X97.068 Y100.313 E7.13772
G1 X99.687 Y102.932 E7.49096
G1 X98.761 Y102.932 E7.57935
G1 X97.068 Y101.239 E7.80758
G1 X97.068 Y102.166 E7.89597
G1 X98.115 Y103.213 E8.03712
;LAYER_CHANGE
;Z:0.65
;HEIGHT:0.3
G1 Z.65 F7800
G1 E6.03712 F2400
G92 E0
G1 X96.796 Y95.996 F7800
G1 E2 F2400
;TYPE:Perimeter
;WIDTH:0.45
G1 F900
G1 X104.004 Y95.996 E2.34666
G1 X104.004 Y104.004 E2.73179
G1 X95.996 Y104.004 E3.11693
G1 X95.996 Y95.996 E3.50206
G1 X96.736 Y95.996 E3.53765
G1 X96.011 Y95.611 F7800
G1 F900
G1 X104.389 Y95.611 E3.94064
G1 X104.389 Y104.389 E4.36287
G1 X95.611 Y104.389 E4.7851
G1 X95.611 Y95.611 E5.20733
G1 X95.951 Y95.611 E5.22368
G1 X95.225 Y95.35 F7800
;TYPE:External perimeter
G1 F900
G1 X95.225 Y95.225 E5.22969
G1 X104.775 Y95.225 E5.68902
G1 X104.775 Y104.775 E6.14834
G1 X95.225 Y104.775 E6.60766
G1 X95.225 Y95.41 E7.05809
G1 X95.313 Y95.261 F7800
G1 E5.05809 F2400
G92 E0
G1 X103.089 Y103.888 F7800
G1 E2 F2400
;TYPE:Solid infill
;WIDTH:0.459085
G1 F1200
G1 X103.715 Y103.263 E2.04353
G1 X103.715 Y102.705 E2.07101
G1 X102.705 Y103.715 E2.14133
G1 X102.146 Y103.715 E2.16881
G1 X103.715 Y102.146 E2.27798
G1 X103.715 Y101.588 E2.30546
G1 X101.588 Y103.715 E2.4535
G1 X101.03 Y103.715 E2.48098
G1 X103.715 Y101.03 E2.66788
G1 X103.715 Y100.472 E2.69536
G1 X100.472 Y103.715 E2.92112
G1 X99.914 Y103.715 E2.9486
G1 X103.715 Y99.914 E3.21323
G1 X103.715 Y99.355 E3.24071
G1 X99.355 Y103.715 E3.54419
G1 X98.797 Y103.715 E3.57167
G1 X103.715 Y98.797 E3.91402
G1 X103.715 Y98.239 E3.9415
G1 X98.239 Y103.715 E4.32271
G1 X97.681 Y103.715 E4.35019
G1 X103.715 Y97.681 E4.77027
G1 X103.715 Y97.123 E4.79775
G1 X97.123 Y103.715 E5.25668
G1 X96.564 Y103.715 E5.28416
G1 X103.715 Y96.564 E5.78196
G1 X103.715 Y96.285 E5.7957
G1 X103.435 Y96.285 E5.80944
G1 X96.285 Y103.435 E6.30723
G1 X96.285 Y102.877 E6.33471
G1 X102.877 Y96.285 E6.79364
G1 X102.319 Y96.285 E6.82112
G1 X96.285 Y102.319 E7.24118
G1 X96.285 Y101.761 E7.26866
G1 X101.761 Y96.285 E7.64986
G1 X101.203 Y96.285 E7.67734
G1 X96.285 Y101.203 E8.01968
G1 X96.285 Y100.644 E8.04716
G1 X100.644 Y96.285 E8.35064
G1 X100.086 Y96.285 E8.37812
G1 X96.285 Y100.086 E8.64273
G1 X96.285 Y99.528 E8.67021
G1 X99.528 Y96.285 E8.89597
G1 X98.97 Y96.285 E8.92345
G1 X96.285 Y98.97 E9.11034
G1 X96.285 Y98.412 E9.13782
G1 X98.412 Y96.285 E9.28584
G1 X97.853 Y96.285 E9.31332
G1 X96.285 Y97.853 E9.42249
G1 X96.285 Y97.295 E9.44997
G1 X97.295 Y96.285 E9.52027
G1 X96.737 Y96.285 E9.54775
G1 X96.112 Y96.911 E9.59128
;LAYER_CHANGE
;Z:0.95
;HEIGHT:0.3
G1 Z.95 F7800
G1 X96.796 Y95.996
;TYPE:Perimeter
;WIDTH:0.45
G1 F900
G1 X104.004 Y95.996 E9.93793
G1 X104.004 Y104.004 E10.32307
G1 X95.996 Y104.004 E10.7082
G1 X95.996 Y95.996 E11.09334
G1 X96.736 Y95.996 E11.12893
G1 X96.011 Y95.611 F7800
G1 F900
G1 X104.389 Y95.611 E11.53192
G1 X104.389 Y104.389 E11.95415
G1 X95.611 Y104.389 E12.37638
G1 X95.611 Y95.611 E12.79861
G1 X95.951 Y95.611 E12.81496
G1 X95.225 Y95.35 F7800
;TYPE:External perimeter
G1 F900
G1 X95.225 Y95.225 E12.82097
G1 X104.775 Y95.225 E13.28029
G1 X104.775 Y104.775 E13.73962
G1 X95.225 Y104.775 E14.19894
G1 X95.225 Y95.41 E14.64936
G1 X95.313 Y95.261 F7800
G1 E12.64936 F2400
G92 E0
G1 X103.888 Y96.911 F7800
G1 E2 F2400
;TYPE:Solid infill
;WIDTH:0.459085
G1 F1200
G1 X103.263 Y96.285 E2.04353
G1 X102.705 Y96.285 E2.07101
G1 X103.715 Y97.295 E2.14133
G1 X103.715 Y97.854 E2.16881
G1 X102.146 Y96.285 E2.27798
G1 X101.588 Y96.285 E2.30546
G1 X103.715 Y98.412 E2.4535
G1 X103.715 Y98.97 E2.48098
G1 X101.03 Y96.285 E2.66788
G1 X100.472 Y96.285 E2.69536
G1 X103.715 Y99.528 E2.92112
G1 X103.715 Y100.086 E2.9486
G1 X99.914 Y96.285 E3.21323
G1 X99.355 Y96.285 E3.24071
G1 X103.715 Y100.645 E3.54419
G1 X103.715 Y101.203 E3.57167
G1 X98.797 Y96.285 E3.91402
G1 X98.239 Y96.285 E3.9415
G1 X103.715 Y101.761 E4.32271
G1 X103.715 Y102.319 E4.35019
G1 X97.681 Y96.285 E4.77027
G1 X97.123 Y96.285 E4.79775
G1 X103.715 Y102.877 E5.25668
G1 X103.715 Y103.436 E5.28416
G1 X96.564 Y96.285 E5.78196
G1 X96.285 Y96.285 E5.7957
G1 X96.285 Y96.565 E5.80944
G1 X103.435 Y103.715 E6.30723
G1 X102.877 Y103.715 E6.33471
G1 X96.285 Y97.123 E6.79364
G1 X96.285 Y97.681 E6.82112
G1 X102.319 Y103.715 E7.24118
G1 X101.761 Y103.715 E7.26866
G1 X96.285 Y98.239 E7.64986
G1 X96.285 Y98.797 E7.67734
G1 X101.203 Y103.715 E8.01968
G1 X100.644 Y103.715 E8.04716
G1 X96.285 Y99.356 E8.35064
G1 X96.285 Y99.914 E8.37812
G1 X100.086 Y103.715 E8.64273
G1 X99.528 Y103.715 E8.67021
G1 X96.285 Y100.472 E8.89597
G1 X96.285 Y101.03 E8.92345
G1 X98.97 Y103.715 E9.11034
G1 X98.412 Y103.715 E9.13782
G1 X96.285 Y101.588 E9.28584
G1 X96.285 Y102.147 E9.31332
G1 X97.853 Y103.715 E9.42249
G1 X97.295 Y103.715 E9.44997
G1 X96.285 Y102.705 E9.52027
G1 X96.285 Y103.263 E9.54775
G1 X96.911 Y103.888 E9.59128
M106 S224.4
;LAYER_CHANGE
;Z:1.25
;HEIGHT:0.3
G1 Z1.25 F7800
G1 E7.59128 F2400
G92 E0
G1 X96.796 Y95.996 F7800
G1 E2 F2400
;TYPE:Perimeter
;WIDTH:0.45
G1 F900
G1 X104.004 Y95.996 E2.34666
G1 X104.004 Y104.004 E2.73179
G1 X95.996 Y104.004 E3.11693
G1 X95.996 Y95.996 E3.50206
G1 X96.736 Y95.996 E3.53765
G1 X96.011 Y95.611 F7800
G1 F900
G1 X104.389 Y95.611 E3.94064
G1 X104.389 Y104.389 E4.36287
G1 X95.611 Y104.389 E4.7851
G1 X95.611 Y95.611 E5.20733
G1 X95.951 Y95.611 E5.22368
G1 X95.225 Y95.35 F7800
;TYPE:External perimeter
G1 F900
G1 X95.225 Y95.225 E5.22969
G1 X104.775 Y95.225 E5.68902
G1 X104.775 Y104.775 E6.14834
G1 X95.225 Y104.775 E6.60766
G1 X95.225 Y95.41 E7.05809
G1 X95.313 Y95.261 F7800
G1 E5.05809 F2400
G92 E0
G1 X103.089 Y103.888 F7800
G1 E2 F2400
;TYPE:Solid infill
;WIDTH:0.459084
G1 F1200
G1 X103.715 Y103.263 E2.04353
G1 X103.715 Y102.705 E2.07101
G1 X102.705 Y103.715 E2.14132
G1 X102.146 Y103.715 E2.1688
G1 X103.715 Y102.146 E2.27798
G1 X103.715 Y101.588 E2.30546
G1 X101.588 Y103.715 E2.4535
G1 X101.03 Y103.715 E2.48098
G1 X103.715 Y101.03 E2.66787
G1 X103.715 Y100.472 E2.69535
G1 X100.472 Y103.715 E2.92112
G1 X99.914 Y103.715 E2.9486
G1 X103.715 Y99.914 E3.21322
G1 X103.715 Y99.355 E3.2407
G1 X99.355 Y103.715 E3.54418
G1 X98.797 Y103.715 E3.57166
G1 X103.715 Y98.797 E3.91401
G1 X103.715 Y98.239 E3.94149
G1 X98.239 Y103.715 E4.3227
G1 X97.681 Y103.715 E4.35018
G1 X103.715 Y97.681 E4.77025
G1 X103.715 Y97.123 E4.79773
G1 X97.123 Y103.715 E5.25666
G1 X96.564 Y103.715 E5.28414
G1 X103.715 Y96.564 E5.78194
G1 X103.715 Y96.285 E5.79568
G1 X103.435 Y96.285 E5.80942
G1 X96.285 Y103.435 E6.30721
G1 X96.285 Y102.877 E6.33469
G1 X102.877 Y96.285 E6.79361
G1 X102.319 Y96.285 E6.82109
G1 X96.285 Y102.319 E7.24115
G1 X96.285 Y101.761 E7.26863
G1 X101.761 Y96.285 E7.64983
G1 X101.203 Y96.285 E7.67731
G1 X96.285 Y101.203 E8.01965
G1 X96.285 Y100.644 E8.04713
G1 X100.644 Y96.285 E8.3506
G1 X100.086 Y96.285 E8.37808
G1 X96.285 Y100.086 E8.6427
G1 X96.285 Y99.528 E8.67018
G1 X99.528 Y96.285 E8.89593
G1 X98.97 Y96.285 E8.92341
G1 X96.285 Y98.97 E9.1103
G1 X96.285 Y98.412 E9.13778
G1 X98.412 Y96.285 E9.28581
G1 X97.853 Y96.285 E9.31329
G1 X96.285 Y97.853 E9.42245
G1 X96.285 Y97.295 E9.44993
G1 X97.295 Y96.285 E9.52023
G1 X96.737 Y96.285 E9.54771
G1 X96.112 Y96.911 E9.59124
;LAYER_CHANGE
;Z:1.55
;HEIGHT:0.3
G1 Z1.55 F7800
G1 X96.796 Y95.996
;TYPE:Perimeter
;WIDTH:0.45
G1 F900
G1 X104.004 Y95.996 E9.93789
G1 X104.004 Y104.004 E10.32303
G1 X95.996 Y104.004 E10.70816
G1 X95.996 Y95.996 E11.0933
G1 X96.736 Y95.996 E11.12889
G1 X96.011 Y95.611 F7800
G1 F900
G1 X104.389 Y95.611 E11.53188
G1 X104.389 Y104.389 E11.95411
G1 X95.611 Y104.389 E12.37634
G1 X95.611 Y95.611 E12.79857
G1 X95.951 Y95.611 E12.81492
G1 X95.225 Y95.35 F7800
;TYPE:External perimeter
G1 F900
G1 X95.225 Y95.225 E12.82093
G1 X104.775 Y95.225 E13.28025
G1 X104.775 Y104.775 E13.73958
G1 X95.225 Y104.775 E14.1989
G1 X95.225 Y95.41 E14.64932
G1 X95.313 Y95.261 F7800
G1 E12.64932 F2400
G92 E0
G1 X103.888 Y96.911 F7800
G1 E2 F2400
;TYPE:Solid infill
;WIDTH:0.459084
G1 F1200
G1 X103.263 Y96.285 E2.04353
G1 X102.705 Y96.285 E2.07101
G1 X103.715 Y97.295 E2.14132
G1 X103.715 Y97.854 E2.1688
G1 X102.146 Y96.285 E2.27798
G1 X101.588 Y96.285 E2.30546
G1 X103.715 Y98.412 E2.4535
G1 X103.715 Y98.97 E2.48098
G1 X101.03 Y96.285 E2.66787
G1 X100.472 Y96.285 E2.69535
G1 X103.715 Y99.528 E2.92112
G1 X103.715 Y100.086 E2.9486
G1 X99.914 Y96.285 E3.21322
G1 X99.355 Y96.285 E3.2407
G1 X103.715 Y100.645 E3.54418
G1 X103.715 Y101.203 E3.57166
G1 X98.797 Y96.285 E3.91401
G1 X98.239 Y96.285 E3.94149
G1 X103.715 Y101.761 E4.3227
G1 X103.715 Y102.319 E4.35018
G1 X97.681 Y96.285 E4.77025
G1 X97.123 Y96.285 E4.79773
G1 X103.715 Y102.877 E5.25666
G1 X103.715 Y103.436 E5.28414
G1 X96.564 Y96.285 E5.78194
G1 X96.285 Y96.285 E5.79568
G1 X96.285 Y96.565 E5.80942
G1 X103.435 Y103.715 E6.30721
G1 X102.877 Y103.715 E6.33469
G1 X96.285 Y97.123 E6.79361
G1 X96.285 Y97.681 E6.82109
G1 X102.319 Y103.715 E7.24115
G1 X101.761 Y103.715 E7.26863
G1 X96.285 Y98.239 E7.64983
G1 X96.285 Y98.797 E7.67731
G1 X101.203 Y103.715 E8.01965
G1 X100.644 Y103.715 E8.04713
G1 X96.285 Y99.356 E8.3506
G1 X96.285 Y99.914 E8.37808
G1 X100.086 Y103.715 E8.6427
G1 X99.528 Y103.715 E8.67018
G1 X96.285 Y100.472 E8.89593
G1 X96.285 Y101.03 E8.92341
G1 X98.97 Y103.715 E9.1103
G1 X98.412 Y103.715 E9.13778
G1 X96.285 Y101.588 E9.28581
G1 X96.285 Y102.147 E9.31328
G1 X97.853 Y103.715 E9.42245
G1 X97.295 Y103.715 E9.44993
G1 X96.285 Y102.705 E9.52023
G1 X96.285 Y103.263 E9.54771
G1 X96.911 Y103.888 E9.59124
;LAYER_CHANGE
;Z:1.85
;HEIGHT:0.3
G1 Z1.85 F7800
G1 E7.59124 F2400
G92 E0
G1 X96.796 Y95.996 F7800
G1 E2 F2400
;TYPE:Perimeter
;WIDTH:0.45
G1 F900
G1 X104.004 Y95.996 E2.34666
G1 X104.004 Y104.004 E2.73179
G1 X95.996 Y104.004 E3.11693
G1 X95.996 Y95.996 E3.50206
G1 X96.736 Y95.996 E3.53765
G1 X96.011 Y95.611 F7800
G1 F900
G1 X104.389 Y95.611 E3.94064
G1 X104.389 Y104.389 E4.36287
G1 X95.611 Y104.389 E4.7851
G1 X95.611 Y95.611 E5.20733
G1 X95.951 Y95.611 E5.22368
G1 X95.225 Y95.35 F7800
;TYPE:External perimeter
G1 F900
G1 X95.225 Y95.225 E5.22969
G1 X104.775 Y95.225 E5.68902
G1 X104.775 Y104.775 E6.14834
G1 X95.225 Y104.775 E6.60766
G1 X95.225 Y95.41 E7.05809
G1 X95.313 Y95.261 F7800
G1 E5.05809 F2400
G92 E0
G1 X103.089 Y103.888 F7800
G1 E2 F2400
;TYPE:Solid infill
;WIDTH:0.459084
G1 F1200
G1 X103.715 Y103.263 E2.04353
G1 X103.715 Y102.705 E2.07101
G1 X102.705 Y103.715 E2.14132
G1 X102.146 Y103.715 E2.1688
G1 X103.715 Y102.146 E2.27798
G1 X103.715 Y101.588 E2.30546
G1 X101.588 Y103.715 E2.4535
G1 X101.03 Y103.715 E2.48098
G1 X103.715 Y101.03 E2.66787
G1 X103.715 Y100.472 E2.69535
G1 X100.472 Y103.715 E2.92112
G1 X99.914 Y103.715 E2.9486
G1 X103.715 Y99.914 E3.21322
G1 X103.715 Y99.355 E3.2407
G1 X99.355 Y103.715 E3.54418
G1 X98.797 Y103.715 E3.57166
G1 X103.715 Y98.797 E3.91401
G1 X103.715 Y98.239 E3.94149
G1 X98.239 Y103.715 E4.3227
G1 X97.681 Y103.715 E4.35018
G1 X103.715 Y97.681 E4.77025
G1 X103.715 Y97.123 E4.79773
G1 X97.123 Y103.715 E5.25666
G1 X96.564 Y103.715 E5.28414
G1 X103.715 Y96.564 E5.78194
G1 X103.715 Y96.285 E5.79568
G1 X103.435 Y96.285 E5.80942
G1 X96.285 Y103.435 E6.30721
G1 X96.285 Y102.877 E6.33469
G1 X102.877 Y96.285 E6.79361
G1 X102.319 Y96.285 E6.82109
G1 X96.285 Y102.319 E7.24115
G1 X96.285 Y101.761 E7.26863
G1 X101.761 Y96.285 E7.64983
G1 X101.203 Y96.285 E7.67731
G1 X96.285 Y101.203 E8.01965
G1 X96.285 Y100.644 E8.04713
G1 X100.644 Y96.285 E8.3506
G1 X100.086 Y96.285 E8.37808
G1 X96.285 Y100.086 E8.6427
G1 X96.285 Y99.528 E8.67018
G1 X99.528 Y96.285 E8.89593
G1 X98.97 Y96.285 E8.92341
G1 X96.285 Y98.97 E9.1103
G1 X96.285 Y98.412 E9.13778
G1 X98.412 Y96.285 E9.28581
G1 X97.853 Y96.285 E9.31329
G1 X96.285 Y97.853 E9.42245
G1 X96.285 Y97.295 E9.44993
G1 X97.295 Y96.285 E9.52023
G1 X96.737 Y96.285 E9.54771
G1 X96.112 Y96.911 E9.59124
;LAYER_CHANGE
;Z:2.15
;HEIGHT:0.3
G1 Z2.15 F7800
G1 X96.796 Y95.996
;TYPE:Perimeter
;WIDTH:0.45
G1 F900
G1 X104.004 Y95.996 E9.93789
G1 X104.004 Y104.004 E10.32303
G1 X95.996 Y104.004 E10.70816
G1 X95.996 Y95.996 E11.0933
G1 X96.736 Y95.996 E11.12889
G1 X96.011 Y95.611 F7800
G1 F900
G1 X104.389 Y95.611 E11.53188
G1 X104.389 Y104.389 E11.95411
G1 X95.611 Y104.389 E12.37634
G1 X95.611 Y95.611 E12.79857
G1 X95.951 Y95.611 E12.81492
G1 X95.225 Y95.35 F7800
;TYPE:External perimeter
G1 F900
G1 X95.225 Y95.225 E12.82093
G1 X104.775 Y95.225 E13.28025
G1 X104.775 Y104.775 E13.73958
G1 X95.225 Y104.775 E14.1989
G1 X95.225 Y95.41 E14.64932
G1 X95.313 Y95.261 F7800
G1 E12.64932 F2400
G92 E0
G1 X103.888 Y96.911 F7800
G1 E2 F2400
;TYPE:Solid infill
;WIDTH:0.459084
G1 F1200
G1 X103.263 Y96.285 E2.04353
G1 X102.705 Y96.285 E2.07101
G1 X103.715 Y97.295 E2.14132
G1 X103.715 Y97.854 E2.1688
G1 X102.146 Y96.285 E2.27798
G1 X101.588 Y96.285 E2.30546
G1 X103.715 Y98.412 E2.4535
G1 X103.715 Y98.97 E2.48098
G1 X101.03 Y96.285 E2.66787
G1 X100.472 Y96.285 E2.69535
G1 X103.715 Y99.528 E2.92112
G1 X103.715 Y100.086 E2.9486
G1 X99.914 Y96.285 E3.21322
G1 X99.355 Y96.285 E3.2407
G1 X103.715 Y100.645 E3.54418
G1 X103.715 Y101.203 E3.57166
G1 X98.797 Y96.285 E3.91401
G1 X98.239 Y96.285 E3.94149
G1 X103.715 Y101.761 E4.3227
G1 X103.715 Y102.319 E4.35018
G1 X97.681 Y96.285 E4.77025
G1 X97.123 Y96.285 E4.79773
G1 X103.715 Y102.877 E5.25666
G1 X103.715 Y103.436 E5.28414
G1 X96.564 Y96.285 E5.78194
G1 X96.285 Y96.285 E5.79568
G1 X96.285 Y96.565 E5.80942
G1 X103.435 Y103.715 E6.30721
G1 X102.877 Y103.715 E6.33469
G1 X96.285 Y97.123 E6.79361
G1 X96.285 Y97.681 E6.82109
G1 X102.319 Y103.715 E7.24115
G1 X101.761 Y103.715 E7.26863
G1 X96.285 Y98.239 E7.64983
G1 X96.285 Y98.797 E7.67731
G1 X101.203 Y103.715 E8.01965
