; generated by PrusaSlicer 2.4.0 on 2026-06-18 at 08:20:41 UTC

; 

; external perimeters extrusion width = 0.45mm
; perimeters extrusion width = 0.45mm
; infill extrusion width = 0.45mm
; solid infill extrusion width = 0.45mm
; top infill extrusion width = 0.40mm
; first layer extrusion width = 0.70mm

M107
M104 S200 ; set temperature
;TYPE:Custom
G28 ; home all axes
G1 Z5 F5000 ; lift nozzle
M109 S200 ; set temperature and wait for it to be reached
G21 ; set units to millimeters
G90 ; use absolute coordinates
M82 ; use absolute distances for extrusion
G92 E0
; Filament gcode
M107
;LAYER_CHANGE
;Z:0.35
;HEIGHT:0.35
G1 Z.35 F7800
G1 E-2 F2400
G92 E0
G1 X94.108 Y90.753 F7800
G1 E2 F2400
;TYPE:Skirt/Brim
;WIDTH:0.7
G1 F1503
G1 X95.86 Y89.274 E2.20854
G1 X98.012 Y88.481 E2.41708
G1 X99.192 Y88.375 E2.52479
G1 X100.808 Y88.375 E2.67173
G1 X103.067 Y88.772 E2.88027
G1 X105.055 Y89.915 E3.08881
G1 X106.534 Y91.668 E3.29735
G1 X107.327 Y93.82 E3.5059
G1 X107.433 Y95 E3.6136
G1 X107.433 Y105 E4.5229
G1 X107.036 Y107.259 E4.73144
G1 X105.892 Y109.247 E4.93999
G1 X104.14 Y110.726 E5.14853
G1 X101.988 Y111.519 E5.35707
G1 X100.808 Y111.625 E5.46478
G1 X99.192 Y111.625 E5.61171
G1 X96.933 Y111.228 E5.82025
G1 X94.945 Y110.085 E6.0288
G1 X93.466 Y108.332 E6.23734
G1 X92.673 Y106.18 E6.44588
G1 X92.567 Y105 E6.55359
G1 X92.567 Y95 E7.46289
G1 X92.964 Y92.741 E7.67143
G1 X94.078 Y90.805 E7.87451
G1 E5.87451 F2400
G92 E0
G1 X99.542 Y95.35 F7800
G1 E2 F2400
;TYPE:External perimeter
G1 F1503
G1 X100.458 Y95.35 E2.08328
G1 X100.458 Y104.65 E2.92893
G1 X99.542 Y104.65 E3.01221
G1 X99.542 Y95.41 E3.8524
G1 X99.895 Y95.539 F7800
G1 X100 Y95.662
;TYPE:Gap fill
;WIDTH:0.366117
G1 F1503
G1 X100 Y104.338 E4.21975
;LAYER_CHANGE
;Z:0.65
;HEIGHT:0.3
G1 Z.65 F7800
G1 E2.21975 F2400
G92 E0
G1 X100.313 Y96.169 F7800
G1 E2 F2400
;TYPE:Perimeter
;WIDTH:0.45
G1 F835
G1 X100.313 Y104.004 E2.37681
G1 X99.687 Y104.004 E2.40696
G1 X99.687 Y95.996 E2.7921
G1 X100.313 Y95.996 E2.82225
G1 X100.313 Y96.109 E2.82769
G1 X99.942 Y95.611 F7800
G1 F835
G1 X100.699 Y95.611 E2.8641
G1 X100.699 Y104.389 E3.28633
G1 X99.301 Y104.389 E3.35357
G1 X99.301 Y95.611 E3.7758
G1 X99.882 Y95.611 E3.80375
G1 X99.542 Y95.225 F7800
;TYPE:External perimeter
G1 F835
G1 X101.008 Y95.225 E3.87425
;TYPE:Overhang perimeter
;WIDTH:0.4
;HEIGHT:0.4
G1 F900
G1 X101.085 Y95.225 E3.87826
G1 X101.085 Y104.775 E4.3772
G1 X101.008 Y104.775 E4.38121
;TYPE:External perimeter
;WIDTH:0.45
;HEIGHT:0.3
G1 F835
G1 X98.992 Y104.775 E4.47817
;TYPE:Overhang perimeter
;WIDTH:0.4
;HEIGHT:0.4
G1 F900
G1 X98.915 Y104.775 E4.48218
G1 X98.915 Y95.225 E4.98112
G1 X98.992 Y95.225 E4.98513
;TYPE:External perimeter
;WIDTH:0.45
;HEIGHT:0.3
G1 F835
G1 X99.482 Y95.225 E5.00869
G1 X100 Y96.189 F7800
;TYPE:Gap fill
;WIDTH:0.305657
G1 F835
G1 X100 Y103.811 E5.23806
;LAYER_CHANGE
;Z:0.95
;HEIGHT:0.3
G1 Z.95 F7800
G1 E3.23806 F2400
G92 E0
G1 X100.342 Y95.996 F7800
G1 E2 F2400
;TYPE:Perimeter
;WIDTH:0.45
G1 F900
G1 X100.594 Y95.996 E2.01211
G1 X100.594 Y104.004 E2.39724
G1 X99.406 Y104.004 E2.45436
G1 X99.406 Y95.996 E2.83949
G1 X100.282 Y95.996 E2.88162
G1 X99.942 Y95.611 F7800
G1 F900
G1 X100.979 Y95.611 E2.93151
G1 X100.979 Y104.389 E3.35374
G1 X99.021 Y104.389 E3.44795
G1 X99.021 Y95.611 E3.87018
G1 X99.882 Y95.611 E3.91161
G1 X99.542 Y95.225 F7800
;TYPE:External perimeter
G1 F900
G1 X101.365 Y95.225 E3.99929
G1 X101.365 Y104.775 E4.45861
G1 X98.635 Y104.775 E4.58992
G1 X98.635 Y95.225 E5.04924
G1 X99.482 Y95.225 E5.08998
G1 X99.882 Y95.436 F7800
G1 X100.478 Y96.899
;TYPE:Solid infill
;WIDTH:0.45371
G1 F1200
G1 X99.864 Y96.285 E5.13214
G1 X99.695 Y96.285 E5.14034
G1 X99.695 Y96.667 E5.15888
G1 X100.305 Y97.276 E5.20071
G1 X100.305 Y97.827 E5.22744
G1 X99.695 Y97.218 E5.26928
G1 X99.695 Y97.768 E5.29601
G1 X100.305 Y98.378 E5.33785
G1 X100.305 Y98.928 E5.36458
G1 X99.695 Y98.319 E5.40641
G1 X99.695 Y98.87 E5.43315
G1 X100.305 Y99.479 E5.47498
G1 X100.305 Y100.029 E5.50172
G1 X99.695 Y99.42 E5.54355
G1 X99.695 Y99.971 E5.57029
G1 X100.305 Y100.58 E5.61212
G1 X100.305 Y101.131 E5.63886
G1 X99.695 Y100.521 E5.68069
G1 X99.695 Y101.072 E5.70743
G1 X100.305 Y101.681 E5.74926
G1 X100.305 Y102.232 E5.77599
G1 X99.695 Y101.623 E5.81783
G1 X99.695 Y102.173 E5.84456
G1 X100.305 Y102.782 E5.8864
G1 X100.305 Y103.333 E5.91313
G1 X99.695 Y102.724 E5.95496
G1 X99.695 Y103.274 E5.9817
G1 X100.309 Y103.888 E6.02385
M106 S249.9
;LAYER_CHANGE
;Z:1.25
;HEIGHT:0.3
G1 Z1.25 F7800
G1 E4.02385 F2400
G92 E0
G1 X100.342 Y95.996 F7800
G1 E2 F2400
;TYPE:Perimeter
;WIDTH:0.45
G1 F900
G1 X100.78 Y95.996 E2.02104
G1 X100.78 Y104.004 E2.40618
G1 X99.22 Y104.004 E2.48117
G1 X99.22 Y95.996 E2.8663
G1 X100.282 Y95.996 E2.91736
G1 X99.942 Y95.611 F7800
G1 F900
G1 X101.165 Y95.611 E2.97619
G1 X101.165 Y104.389 E3.39842
G1 X98.835 Y104.389 E3.5105
G1 X98.835 Y95.611 E3.93273
G1 X99.882 Y95.611 E3.9831
G1 X99.542 Y95.225 F7800
;TYPE:External perimeter
G1 F900
G1 X101.551 Y95.225 E4.07971
G1 X101.551 Y104.775 E4.53903
G1 X98.449 Y104.775 E4.68821
G1 X98.449 Y95.225 E5.14753
G1 X99.482 Y95.225 E5.19721
G1 X99.881 Y95.438 F7800
G1 E3.19721 F2400
G92 E0
G1 X99.842 Y103.888 F7800
G1 E2 F2400
;TYPE:Solid infill
;WIDTH:0.470129
G1 F1200
G1 X100.49 Y103.239 E2.04643
G1 X100.49 Y102.666 E2.07547
G1 X99.51 Y103.646 E2.14565
G1 X99.51 Y103.072 E2.17469
G1 X100.49 Y102.092 E2.24488
G1 X100.49 Y101.518 E2.27392
G1 X99.51 Y102.499 E2.34411
G1 X99.51 Y101.925 E2.37315
G1 X100.49 Y100.944 E2.44333
G1 X100.49 Y100.37 E2.47237
G1 X99.51 Y101.351 E2.54256
G1 X99.51 Y100.777 E2.5716
G1 X100.49 Y99.796 E2.64179
G1 X100.49 Y99.223 E2.67083
G1 X99.51 Y100.203 E2.74101
G1 X99.51 Y99.63 E2.77005
G1 X100.49 Y98.649 E2.84024
G1 X100.49 Y98.075 E2.86928
G1 X99.51 Y99.056 E2.93947
G1 X99.51 Y98.482 E2.96851
G1 X100.49 Y97.501 E3.03869
G1 X100.49 Y96.927 E3.06773
G1 X99.51 Y97.908 E3.13792
G1 X99.51 Y97.334 E3.16696
G1 X100.49 Y96.354 E3.23715
G1 X100.49 Y96.285 E3.2406
G1 X99.985 Y96.285 E3.26619
G1 X99.336 Y96.934 E3.3126
;LAYER_CHANGE
;Z:1.55
;HEIGHT:0.3
G1 Z1.55 F7800
G1 X99.898 Y95.996
;TYPE:Perimeter
;WIDTH:0.45
G1 F900
G1 X100.902 Y95.996 E3.36086
G1 X100.902 Y104.004 E3.746
G1 X99.098 Y104.004 E3.83273
G1 X99.098 Y95.996 E4.21787
G1 X99.838 Y95.996 E4.25346
G1 X99.113 Y95.611 F7800
G1 F900
G1 X101.287 Y95.611 E4.35805
G1 X101.287 Y104.389 E4.78028
G1 X98.713 Y104.389 E4.90411
G1 X98.713 Y95.611 E5.32634
G1 X99.053 Y95.611 E5.34269
G1 X98.327 Y95.225 F7800
;TYPE:External perimeter
G1 F900
G1 X101.673 Y95.225 E5.50362
G1 X101.673 Y104.775 E5.96294
G1 X98.327 Y104.775 E6.12386
G1 X98.327 Y95.285 E6.5803
G1 X98.694 Y95.385 F7800
G1 E4.5803 F2400
G92 E0
G1 X100.786 Y96.905 F7800
G1 E2 F2400
;TYPE:Solid infill
;WIDTH:0.456421
G1 F1200
G1 X100.166 Y96.285 E2.04285
G1 X99.612 Y96.285 E2.06996
G1 X100.612 Y97.286 E2.13915
G1 X100.612 Y97.84 E2.16626
G1 X99.388 Y96.615 E2.25096
G1 X99.388 Y97.17 E2.27807
G1 X100.612 Y98.395 E2.36278
G1 X100.612 Y98.949 E2.38989
G1 X99.388 Y97.724 E2.4746
G1 X99.388 Y98.279 E2.50171
G1 X100.612 Y99.504 E2.58641
G1 X100.612 Y100.058 E2.61352
G1 X99.388 Y98.833 E2.69823
G1 X99.388 Y99.388 E2.72534
G1 X100.612 Y100.613 E2.81005
G1 X100.612 Y101.167 E2.83716
G1 X99.388 Y99.942 E2.92186
G1 X99.388 Y100.496 E2.94897
G1 X100.612 Y101.721 E3.03368
G1 X100.612 Y102.276 E3.06079
G1 X99.388 Y101.051 E3.1455
G1 X99.388 Y101.605 E3.17261
G1 X100.612 Y102.83 E3.25731
G1 X100.612 Y103.385 E3.28442
G1 X99.388 Y102.16 E3.36913
G1 X99.388 Y102.714 E3.39624
G1 X100.388 Y103.715 E3.46542
G1 X99.833 Y103.715 E3.49253
G1 X99.214 Y103.095 E3.53537
;LAYER_CHANGE
;Z:1.85
;HEIGHT:0.3
G1 Z1.85 F7800
G1 E1.53537 F2400
G92 E0
G1 X99.826 Y95.996 F7800
G1 E2 F2400
;TYPE:Perimeter
;WIDTH:0.45
G1 F900
G1 X100.974 Y95.996 E2.05524
G1 X100.974 Y104.004 E2.44037
G1 X99.026 Y104.004 E2.53408
G1 X99.026 Y95.996 E2.91922
G1 X99.766 Y95.996 E2.95481
G1 X99.04 Y95.611 F7800
G1 F900
G1 X101.36 Y95.611 E3.06638
G1 X101.36 Y104.389 E3.48861
G1 X98.64 Y104.389 E3.61941
G1 X98.64 Y95.611 E4.04164
G1 X98.98 Y95.611 E4.058
G1 X98.327 Y95.225 F7800
;TYPE:External perimeter
G1 F900
G1 X101.745 Y95.225 E4.22241
G1 X101.745 Y104.775 E4.68173
G1 X98.255 Y104.775 E4.84963
G1 X98.255 Y95.225 E5.30895
G1 X98.267 Y95.225 E5.30956
G1 X98.673 Y95.426 F7800
G1 E3.30956 F2400
G92 E0
G1 X100.053 Y103.888 F7800
G1 E2 F2400
;TYPE:Solid infill
;WIDTH:0.462455
G1 F1200
G1 X100.685 Y103.256 E2.04441
G1 X100.685 Y102.693 E2.07236
G1 X99.663 Y103.715 E2.14411
G1 X99.315 Y103.715 E2.16139
G1 X99.315 Y103.5 E2.17206
G1 X100.685 Y102.13 E2.26825
G1 X100.685 Y101.567 E2.29621
G1 X99.315 Y102.937 E2.3924
G1 X99.315 Y102.374 E2.42035
G1 X100.685 Y101.004 E2.51655
G1 X100.685 Y100.441 E2.5445
G1 X99.315 Y101.811 E2.6407
G1 X99.315 Y101.248 E2.66865
G1 X100.685 Y99.878 E2.76484
G1 X100.685 Y99.315 E2.79279
G1 X99.315 Y100.685 E2.88899
G1 X99.315 Y100.122 E2.91694
G1 X100.685 Y98.752 E3.01314
G1 X100.685 Y98.189 E3.04109
G1 X99.315 Y99.559 E3.13728
G1 X99.315 Y98.996 E3.16523
G1 X100.685 Y97.626 E3.26143
G1 X100.685 Y97.063 E3.28938
G1 X99.315 Y98.433 E3.38558
G1 X99.315 Y97.87 E3.41353
G1 X100.685 Y96.5 E3.50973
G1 X100.685 Y96.285 E3.52038
G1 X100.337 Y96.285 E3.53768
G1 X99.315 Y97.307 E3.60942
G1 X99.315 Y96.744 E3.63737
G1 X99.947 Y96.112 E3.68176
;LAYER_CHANGE
;Z:2.15
;HEIGHT:0.3
G1 Z2.15 F7800
G1 X99.796 Y95.996
;TYPE:Perimeter
;WIDTH:0.45
G1 F900
G1 X101.004 Y95.996 E3.73984
G1 X101.004 Y104.004 E4.12498
G1 X98.996 Y104.004 E4.22153
G1 X98.996 Y95.996 E4.60667
G1 X99.736 Y95.996 E4.64226
G1 X99.011 Y95.611 F7800
G1 F900
G1 X101.389 Y95.611 E4.75667
G1 X101.389 Y104.389 E5.1789
G1 X98.611 Y104.389 E5.31255
G1 X98.611 Y95.611 E5.73478
G1 X98.951 Y95.611 E5.75113
G1 X98.327 Y95.225 F7800
;TYPE:External perimeter
G1 F900
G1 X101.775 Y95.225 E5.91696
G1 X101.775 Y104.775 E6.37628
G1 X98.225 Y104.775 E6.54703
G1 X98.225 Y95.225 E7.00635
G1 X98.267 Y95.225 E7.00837
G1 X98.673 Y95.426 F7800
G1 E5.00837 F2400
G92 E0
G1 X100.888 Y96.923 F7800
G1 E2 F2400
;TYPE:Solid infill
;WIDTH:0.464913
G1 F1200
G1 X100.25 Y96.285 E2.04505
G1 X99.684 Y96.285 E2.07335
G1 X100.715 Y97.316 E2.14615
G1 X100.715 Y97.882 E2.17445
G1 X99.285 Y96.453 E2.27542
G1 X99.285 Y97.02 E2.30371
G1 X100.715 Y98.449 E2.40468
G1 X100.715 Y99.015 E2.43298
G1 X99.285 Y97.586 E2.53394
G1 X99.285 Y98.153 E2.56224
G1 X100.715 Y99.582 E2.6632
G1 X100.715 Y100.148 E2.6915
G1 X99.285 Y98.719 E2.79247
G1 X99.285 Y99.286 E2.82076
G1 X100.715 Y100.715 E2.92173
G1 X100.715 Y101.281 E2.95002
G1 X99.285 Y99.852 E3.05099
G1 X99.285 Y100.418 E3.07929
G1 X100.715 Y101.847 E3.18025
G1 X100.715 Y102.414 E3.20855
G1 X99.285 Y100.985 E3.30951
G1 X99.285 Y101.551 E3.33781
G1 X100.715 Y102.98 E3.43878
G1 X100.715 Y103.547 E3.46707
G1 X99.285 Y102.118 E3.56804
G1 X99.285 Y102.684 E3.59634
G1 X100.316 Y103.715 E3.66913
G1 X99.749 Y103.715 E3.69743
G1 X99.112 Y103.077 E3.74247
;LAYER_CHANGE
;Z:2.45
;HEIGHT:0.3
G1 Z2.45 F7800
G1 E1.74247 F2400
G92 E0
G1 X99.826 Y95.996 F7800
G1 E2 F2400
;TYPE:Perimeter
;WIDTH:0.45
G1 F900
G1 X100.974 Y95.996 E2.05524
G1 X100.974 Y104.004 E2.44037
G1 X99.026 Y104.004 E2.53408
G1 X99.026 Y95.996 E2.91922
G1 X99.766 Y95.996 E2.95481
G1 X99.04 Y95.611 F7800
G1 F900
G1 X101.36 Y95.611 E3.06638
G1 X101.36 Y104.389 E3.48861
G1 X98.64 Y104.389 E3.61941
G1 X98.64 Y95.611 E4.04164
G1 X98.98 Y95.611 E4.058
G1 X98.327 Y95.225 F7800
;TYPE:External perimeter
G1 F900
G1 X101.745 Y95.225 E4.22241
G1 X101.745 Y104.775 E4.68173
G1 X98.255 Y104.775 E4.84963
G1 X98.255 Y95.225 E5.30895
G1 X98.267 Y95.225 E5.30956
G1 X98.673 Y95.426 F7800
G1 E3.30956 F2400
G92 E0
G1 X100.053 Y103.888 F7800
G1 E2 F2400
;TYPE:Solid infill
;WIDTH:0.462455
G1 F1200
G1 X100.685 Y103.256 E2.04441
G1 X100.685 Y102.693 E2.07236
G1 X99.663 Y103.715 E2.14411
G1 X99.315 Y103.715 E2.16139
G1 X99.315 Y103.5 E2.17206
G1 X100.685 Y102.13 E2.26825
G1 X100.685 Y101.567 E2.29621
G1 X99.315 Y102.937 E2.3924
G1 X99.315 Y102.374 E2.42035
G1 X100.685 Y101.004 E2.51655
G1 X100.685 Y100.441 E2.5445
G1 X99.315 Y101.811 E2.6407
G1 X99.315 Y101.248 E2.66865
G1 X100.685 Y99.878 E2.76484
G1 X100.685 Y99.315 E2.79279
G1 X99.315 Y100.685 E2.88899
G1 X99.315 Y100.122 E2.91694
G1 X100.685 Y98.752 E3.01314
G1 X100.685 Y98.189 E3.04109
G1 X99.315 Y99.559 E3.13728
G1 X99.315 Y98.996 E3.16523
G1 X100.685 Y97.626 E3.26143
G1 X100.685 Y97.063 E3.28938
G1 X99.315 Y98.433 E3.38558
G1 X99.315 Y97.87 E3.41353
G1 X100.685 Y96.5 E3.50973
G1 X100.685 Y96.285 E3.52038
G1 X100.337 Y96.285 E3.53768
G1 X99.315 Y97.307 E3.60942
G1 X99.315 Y96.744 E3.63737
G1 X99.947 Y96.112 E3.68176
;LAYER_CHANGE
;Z:2.75
;HEIGHT:0.3
G1 Z2.75 F7800
G1 X99.898 Y95.996
;TYPE:Perimeter
;WIDTH:0.45
G1 F900
G1 X100.902 Y95.996 E3.73002
G1 X100.902 Y104.004 E4.11516
G1 X99.098 Y104.004 E4.20189
G1 X99.098 Y95.996 E4.58703
G1 X99.838 Y95.996 E4.62262
G1 X99.113 Y95.611 F7800
G1 F900
G1 X101.287 Y95.611 E4.72721
G1 X101.287 Y104.389 E5.14944
G1 X98.713 Y104.389 E5.27327
G1 X98.713 Y95.611 E5.6955
G1 X99.053 Y95.611 E5.71185
G1 X98.327 Y95.225 F7800
;TYPE:External perimeter
G1 F900
G1 X101.673 Y95.225 E5.87278
G1 X101.673 Y104.775 E6.3321
G1 X98.327 Y104.775 E6.49302
G1 X98.327 Y95.285 E6.94946
G1 X98.694 Y95.385 F7800
G1 E4.94946 F2400
G92 E0
G1 X100.786 Y96.905 F7800
G1 E2 F2400
;TYPE:Solid infill
;WIDTH:0.456421
G1 F1200
G1 X100.166 Y96.285 E2.04285
G1 X99.612 Y96.285 E2.06996
G1 X100.612 Y97.286 E2.13915
G1 X100.612 Y97.84 E2.16626
G1 X99.388 Y96.615 E2.25096
G1 X99.388 Y97.17 E2.27807
G1 X100.612 Y98.395 E2.36278
G1 X100.612 Y98.949 E2.38989
G1 X99.388 Y97.724 E2.4746
G1 X99.388 Y98.279 E2.50171
G1 X100.612 Y99.504 E2.58641
G1 X100.612 Y100.058 E2.61352
G1 X99.388 Y98.833 E2.69823
G1 X99.388 Y99.388 E2.72534
G1 X100.612 Y100.613 E2.81005
G1 X100.612 Y101.167 E2.83716
G1 X99.388 Y99.942 E2.92186
G1 X99.388 Y100.496 E2.94897
G1 X100.612 Y101.721 E3.03368
G1 X100.612 Y102.276 E3.06079
G1 X99.388 Y101.051 E3.1455
G1 X99.388 Y101.605 E3.17261
G1 X100.612 Y102.83 E3.25731
G1 X100.612 Y103.385 E3.28442
G1 X99.388 Y102.16 E3.36913
G1 X99.388 Y102.714 E3.39624
G1 X100.388 Y103.715 E3.46542
G1 X99.833 Y103.715 E3.49253
G1 X99.214 Y103.095 E3.53537
;LAYER_CHANGE
;Z:3.05
;HEIGHT:0.3
G1 Z3.05 F7800
G1 E1.53537 F2400
G92 E0
G1 X100.02 Y95.996 F7800
G1 E2 F2400
;TYPE:Perimeter
;WIDTH:0.45
G1 F900
G1 X100.78 Y95.996 E2.03651
G1 X100.78 Y104.004 E2.42165
G1 X99.22 Y104.004 E2.49663
G1 X99.22 Y95.996 E2.88177
G1 X99.96 Y95.996 E2.91736
G1 X99.235 Y95.611 F7800
G1 F900
G1 X101.165 Y95.611 E3.0102
G1 X101.165 Y104.389 E3.43243
G1 X98.835 Y104.389 E3.54452
G1 X98.835 Y95.611 E3.96674
G1 X99.175 Y95.611 E3.9831
G1 X98.449 Y95.225 F7800
;TYPE:External perimeter
G1 F900
G1 X101.551 Y95.225 E4.13227
G1 X101.551 Y104.775 E4.5916
G1 X98.449 Y104.775 E4.74077
G1 X98.449 Y95.285 E5.19721
G1 X98.815 Y95.388 F7800
G1 E3.19721 F2400
G92 E0
G1 X99.842 Y103.888 F7800
G1 E2 F2400
;TYPE:Solid infill
;WIDTH:0.470129
G1 F1200
G1 X100.49 Y103.239 E2.04643
G1 X100.49 Y102.666 E2.07547
G1 X99.51 Y103.646 E2.14565
G1 X99.51 Y103.072 E2.17469
G1 X100.49 Y102.092 E2.24488
G1 X100.49 Y101.518 E2.27392
G1 X99.51 Y102.499 E2.34411
G1 X99.51 Y101.925 E2.37315
G1 X100.49 Y100.944 E2.44333
G1 X100.49 Y100.37 E2.47237
G1 X99.51 Y101.351 E2.54256
G1 X99.51 Y100.777 E2.5716
G1 X100.49 Y99.796 E2.64179
G1 X100.49 Y99.223 E2.67083
G1 X99.51 Y100.203 E2.74101
G1 X99.51 Y99.63 E2.77005
G1 X100.49 Y98.649 E2.84024
G1 X100.49 Y98.075 E2.86928
G1 X99.51 Y99.056 E2.93947
G1 X99.51 Y98.482 E2.96851
G1 X100.49 Y97.501 E3.03869
G1 X100.49 Y96.927 E3.06773
G1 X99.51 Y97.908 E3.13792
G1 X99.51 Y97.334 E3.16696
G1 X100.49 Y96.354 E3.23715
G1 X100.49 Y96.285 E3.2406
G1 X99.985 Y96.285 E3.26619
G1 X99.336 Y96.934 E3.3126
M106 S252.45
;LAYER_CHANGE
;Z:3.35
;HEIGHT:0.3
G1 Z3.35 F7800
G1 X100.206 Y95.996
;TYPE:Perimeter
;WIDTH:0.45
G1 F900
G1 X100.594 Y95.996 E3.33124
G1 X100.594 Y104.004 E3.71638
G1 X99.406 Y104.004 E3.7735
G1 X99.406 Y95.996 E4.15863
G1 X100.146 Y95.996 E4.19422
G1 X99.421 Y95.611 F7800
G1 F900
G1 X100.979 Y95.611 E4.2692
G1 X100.979 Y104.389 E4.69142
G1 X99.021 Y104.389 E4.78564
