; generated by PrusaSlicer 2.4.0 on 2026-06-30 at 07:25:55 UTC

; 

; external perimeters extrusion width = 0.45mm
; perimeters extrusion width = 0.45mm
; infill extrusion width = 0.45mm
; solid infill extrusion width = 0.45mm
; top infill extrusion width = 0.40mm
; first layer extrusion width = 0.70mm

M107
M104 S200 ; set temperature
;TYPE:Custom
G28 ; home all axes
G1 Z5 F5000 ; lift nozzle
M109 S200 ; set temperature and wait for it to be reached
G21 ; set units to millimeters
G90 ; use absolute coordinates
M82 ; use absolute distances for extrusion
G92 E0
; Filament gcode
M107
;LAYER_CHANGE
;Z:0.35
;HEIGHT:0.35
G1 Z.35 F7800
G1 E-2 F2400
G92 E0
G1 X88.012 Y88.488 F7800
G1 E2 F2400
;TYPE:Skirt/Brim
;WIDTH:0.7
G1 F1800
G1 X89.202 Y87.366 E2.14867
G1 X90.498 Y86.364 E2.29765
G1 X91.88 Y85.498 E2.44597
G1 X93.341 Y84.772 E2.59427
G1 X94.865 Y84.193 E2.74258
G1 X96.439 Y83.766 E2.89089
G1 X98.048 Y83.495 E3.03919
G1 X99.675 Y83.383 E3.1875
G1 X101.305 Y83.431 E3.33581
G1 X102.923 Y83.639 E3.48412
G1 X104.513 Y84.004 E3.63243
G1 X106.059 Y84.524 E3.78073
G1 X107.546 Y85.192 E3.92904
G1 X108.962 Y86.003 E4.07735
G1 X110.29 Y86.949 E4.22566
G1 X111.52 Y88.02 E4.37396
G1 X112.639 Y89.207 E4.52228
G1 X113.629 Y90.489 E4.66954
G1 X114.492 Y91.864 E4.81716
G1 X115.224 Y93.334 E4.96651
G1 X115.803 Y94.855 E5.11446
G1 X116.23 Y96.421 E5.26207
G1 X116.502 Y98.029 E5.41037
G1 X116.617 Y99.667 E5.55973
G1 X116.569 Y101.294 E5.70767
G1 X116.364 Y102.904 E5.85529
G1 X116 Y104.494 E6.00359
G1 X115.479 Y106.052 E6.15294
G1 X114.808 Y107.547 E6.30193
G1 X113.997 Y108.962 E6.45023
G1 X113.051 Y110.29 E6.59855
G1 X111.988 Y111.512 E6.7458
G1 X110.798 Y112.634 E6.89448
G1 X109.502 Y113.636 E7.04346
G1 X108.12 Y114.502 E7.19177
G1 X106.659 Y115.228 E7.34007
G1 X105.135 Y115.807 E7.48839
G1 X103.561 Y116.234 E7.63669
G1 X101.952 Y116.505 E7.785
G1 X100.325 Y116.617 E7.93331
G1 X98.695 Y116.569 E8.08161
G1 X97.077 Y116.361 E8.22993
G1 X95.487 Y115.996 E8.37823
G1 X93.941 Y115.476 E8.52654
G1 X92.454 Y114.808 E8.67485
G1 X91.038 Y113.997 E8.82315
G1 X89.71 Y113.051 E8.97147
G1 X88.48 Y111.98 E9.11977
G1 X87.361 Y110.793 E9.26808
G1 X86.371 Y109.511 E9.41534
G1 X85.508 Y108.136 E9.56296
G1 X84.776 Y106.666 E9.71231
G1 X84.197 Y105.145 E9.86026
G1 X83.77 Y103.579 E10.00787
G1 X83.498 Y101.971 E10.15617
G1 X83.383 Y100.333 E10.30553
G1 X83.431 Y98.706 E10.45347
G1 X83.636 Y97.096 E10.60109
G1 X84 Y95.506 E10.74939
G1 X84.521 Y93.948 E10.89874
G1 X85.192 Y92.453 E11.04774
G1 X86.003 Y91.038 E11.19604
G1 X86.949 Y89.71 E11.34435
G1 X87.973 Y88.534 E11.48615
G1 E9.48615 F2400
G92 E0
G1 X94.654 Y93.524 F7800
G1 E2 F2400
;TYPE:Perimeter
G1 F1800
G1 X95.334 Y93.017 E2.07713
G1 X96.041 Y92.593 E2.15207
G1 X96.786 Y92.241 E2.22701
G1 X97.562 Y91.963 E2.30195
G1 X98.362 Y91.763 E2.3769
G1 X99.176 Y91.642 E2.45175
G1 X100.011 Y91.602 E2.52773
G1 X100.823 Y91.642 E2.60171
G1 X101.638 Y91.763 E2.67665
G1 X102.438 Y91.963 E2.7516
G1 X103.214 Y92.241 E2.82654
G1 X103.959 Y92.593 E2.90148
G1 X104.666 Y93.017 E2.97642
G1 X105.328 Y93.508 E3.05136
G1 X105.938 Y94.062 E3.1263
G1 X106.492 Y94.672 E3.20124
G1 X106.983 Y95.334 E3.27619
G1 X107.407 Y96.041 E3.35113
G1 X107.759 Y96.786 E3.42607
G1 X108.037 Y97.562 E3.50101
G1 X108.237 Y98.362 E3.57595
G1 X108.358 Y99.177 E3.65089
G1 X108.398 Y100 E3.72583
G1 X108.358 Y100.823 E3.80078
G1 X108.237 Y101.638 E3.87571
G1 X108.037 Y102.438 E3.95066
G1 X107.759 Y103.214 E4.0256
G1 X107.407 Y103.959 E4.10054
G1 X106.983 Y104.666 E4.17548
G1 X106.492 Y105.328 E4.25042
G1 X105.938 Y105.938 E4.32537
G1 X105.328 Y106.492 E4.40031
G1 X104.666 Y106.983 E4.47525
G1 X103.959 Y107.407 E4.55019
G1 X103.214 Y107.759 E4.62513
G1 X102.438 Y108.037 E4.70007
G1 X101.638 Y108.237 E4.77502
G1 X100.823 Y108.358 E4.84995
G1 X100 Y108.398 E4.9249
G1 X99.177 Y108.358 E4.99984
G1 X98.362 Y108.237 E5.07478
G1 X97.562 Y108.037 E5.14972
G1 X96.786 Y107.759 E5.22466
G1 X96.041 Y107.407 E5.2996
G1 X95.334 Y106.983 E5.37454
G1 X94.672 Y106.492 E5.44949
G1 X94.062 Y105.938 E5.52443
G1 X93.508 Y105.328 E5.59937
G1 X93.017 Y104.666 E5.67431
G1 X92.593 Y103.959 E5.74925
G1 X92.241 Y103.214 E5.82419
G1 X91.963 Y102.438 E5.89913
G1 X91.763 Y101.638 E5.97408
G1 X91.642 Y100.823 E6.04902
G1 X91.602 Y100 E6.12396
G1 X91.642 Y99.177 E6.1989
G1 X91.763 Y98.362 E6.27384
G1 X91.963 Y97.562 E6.34878
G1 X92.241 Y96.786 E6.42372
G1 X92.593 Y96.041 E6.49866
G1 X93.017 Y95.334 E6.57361
G1 X93.508 Y94.672 E6.64855
G1 X94.062 Y94.062 E6.72349
G1 X94.61 Y93.565 E6.79078
G1 X93.898 Y93.366 F7800
G1 F1800
G1 X94.275 Y93.024 E6.83707
G1 X94.987 Y92.497 E6.9176
G1 X95.746 Y92.042 E6.99812
G1 X96.547 Y91.663 E7.07864
G1 X97.38 Y91.365 E7.15917
G1 X98.24 Y91.149 E7.23969
G1 X99.115 Y91.02 E7.32017
G1 X100.011 Y90.977 E7.40173
G1 X100.885 Y91.02 E7.48126
G1 X101.76 Y91.149 E7.56178
G1 X102.62 Y91.365 E7.64231
G1 X103.453 Y91.663 E7.72283
G1 X104.254 Y92.042 E7.80336
G1 X105.013 Y92.497 E7.88388
G1 X105.725 Y93.024 E7.96441
G1 X106.381 Y93.619 E8.04493
G1 X106.976 Y94.275 E8.12545
G1 X107.503 Y94.987 E8.20598
G1 X107.958 Y95.746 E8.2865
G1 X108.337 Y96.547 E8.36703
G1 X108.635 Y97.38 E8.44755
G1 X108.851 Y98.24 E8.52807
G1 X108.98 Y99.115 E8.6086
G1 X109.024 Y100 E8.68912
G1 X108.98 Y100.885 E8.76965
G1 X108.851 Y101.76 E8.85017
G1 X108.635 Y102.62 E8.9307
G1 X108.337 Y103.453 E9.01122
G1 X107.958 Y104.254 E9.09174
G1 X107.503 Y105.013 E9.17227
G1 X106.976 Y105.725 E9.25279
G1 X106.381 Y106.381 E9.33332
G1 X105.725 Y106.976 E9.41384
G1 X105.013 Y107.503 E9.49437
G1 X104.254 Y107.958 E9.57489
G1 X103.453 Y108.337 E9.65541
G1 X102.62 Y108.635 E9.73594
G1 X101.76 Y108.851 E9.81646
G1 X100.885 Y108.98 E9.89699
G1 X100 Y109.024 E9.97751
G1 X99.115 Y108.98 E10.05804
G1 X98.24 Y108.851 E10.13856
G1 X97.38 Y108.635 E10.21908
G1 X96.547 Y108.337 E10.29961
G1 X95.746 Y107.958 E10.38013
G1 X94.987 Y107.503 E10.46066
G1 X94.275 Y106.976 E10.54118
G1 X93.619 Y106.381 E10.6217
G1 X93.024 Y105.725 E10.70223
G1 X92.497 Y105.013 E10.78275
G1 X92.042 Y104.254 E10.86328
G1 X91.663 Y103.453 E10.9438
G1 X91.365 Y102.62 E11.02433
G1 X91.149 Y101.76 E11.10485
G1 X91.02 Y100.885 E11.18537
G1 X90.976 Y100 E11.2659
G1 X91.02 Y99.115 E11.34642
G1 X91.149 Y98.24 E11.42695
G1 X91.365 Y97.38 E11.50747
G1 X91.663 Y96.547 E11.588
G1 X92.042 Y95.746 E11.66852
G1 X92.497 Y94.987 E11.74904
G1 X93.024 Y94.275 E11.82957
G1 X93.619 Y93.619 E11.91009
G1 X93.854 Y93.407 E11.93887
G1 X93.14 Y93.217 F7800
;TYPE:External perimeter
G1 F1800
G1 X93.878 Y92.541 E12.02988
G1 X94.639 Y91.977 E12.11599
G1 X95.451 Y91.49 E12.2021
G1 X96.307 Y91.085 E12.28821
G1 X97.199 Y90.766 E12.37431
G1 X98.117 Y90.536 E12.46042
G1 X99.054 Y90.397 E12.54651
G1 X100.011 Y90.351 E12.63365
G1 X100.946 Y90.397 E12.71874
G1 X101.883 Y90.536 E12.80484
G1 X102.801 Y90.766 E12.89095
G1 X103.693 Y91.085 E12.97706
G1 X104.549 Y91.49 E13.06316
G1 X105.361 Y91.977 E13.14927
G1 X106.122 Y92.541 E13.23538
G1 X106.823 Y93.177 E13.32149
G1 X107.459 Y93.878 E13.40759
G1 X108.023 Y94.639 E13.4937
G1 X108.51 Y95.451 E13.57981
G1 X108.915 Y96.307 E13.66592
G1 X109.234 Y97.199 E13.75202
G1 X109.464 Y98.117 E13.83813
G1 X109.603 Y99.054 E13.92424
G1 X109.65 Y100 E14.01034
G1 X109.603 Y100.946 E14.09645
G1 X109.464 Y101.883 E14.18256
G1 X109.234 Y102.801 E14.26867
G1 X108.915 Y103.693 E14.35477
G1 X108.51 Y104.549 E14.44088
G1 X108.023 Y105.361 E14.52698
G1 X107.459 Y106.122 E14.61309
G1 X106.823 Y106.823 E14.6992
G1 X106.122 Y107.459 E14.78531
G1 X105.361 Y108.023 E14.87142
G1 X104.549 Y108.51 E14.95752
G1 X103.693 Y108.915 E15.04363
G1 X102.801 Y109.234 E15.12974
G1 X101.883 Y109.464 E15.21584
G1 X100.946 Y109.603 E15.30195
G1 X100 Y109.65 E15.38806
G1 X99.054 Y109.603 E15.47416
G1 X98.117 Y109.464 E15.56027
G1 X97.199 Y109.234 E15.64638
G1 X96.307 Y108.915 E15.73249
G1 X95.451 Y108.51 E15.81859
G1 X94.639 Y108.023 E15.9047
G1 X93.878 Y107.459 E15.99081
G1 X93.177 Y106.823 E16.07691
G1 X92.541 Y106.122 E16.16302
G1 X91.977 Y105.361 E16.24913
G1 X91.49 Y104.549 E16.33524
G1 X91.085 Y103.693 E16.42134
G1 X90.766 Y102.801 E16.50745
G1 X90.536 Y101.883 E16.59356
G1 X90.397 Y100.946 E16.67966
G1 X90.35 Y100 E16.76577
G1 X90.397 Y99.054 E16.85188
G1 X90.536 Y98.117 E16.93798
G1 X90.766 Y97.199 E17.02409
G1 X91.085 Y96.307 E17.1102
G1 X91.49 Y95.451 E17.19631
G1 X91.977 Y94.639 E17.28241
G1 X92.541 Y93.878 E17.36852
G1 X93.1 Y93.261 E17.44424
G1 X93.527 Y93.319 F7800
G1 E15.44424 F2400
G92 E0
G1 X104.11 Y92.902 F7800
G1 E2 F2400
;TYPE:Solid infill
;WIDTH:0.709103
G1 F1800
G1 X105.665 Y94.457 E2.20285
G1 X106.129 Y94.97 E2.26669
G1 X106.593 Y95.595 E2.33848
G1 X106.993 Y96.262 E2.41026
G1 X107.353 Y97.042 E2.48949
G1 X102.958 Y92.647 E3.06286
G1 X102.302 Y92.412 E3.12717
G1 X101.668 Y92.254 E3.18746
G1 X107.746 Y98.332 E3.98052
G1 X107.891 Y99.223 E4.06375
G1 X107.899 Y99.381 E4.07837
G1 X100.619 Y92.101 E5.02813
G1 X100.01 Y92.071 E5.08435
G1 X99.707 Y92.086 E5.11236
G1 X107.915 Y100.294 E6.18319
G1 X107.891 Y100.777 E6.22785
G1 X107.841 Y101.116 E6.25947
G1 X98.884 Y92.159 E7.42803
G1 X98.453 Y92.223 E7.4682
G1 X98.132 Y92.304 E7.49877
G1 X107.696 Y101.868 E8.74663
G1 X107.588 Y102.302 E8.78785
G1 X107.494 Y102.563 E8.81344
G1 X97.437 Y92.506 E10.12556
G1 X96.966 Y92.674 E10.17175
G1 X96.792 Y92.757 E10.18952
G1 X107.243 Y103.208 E11.55312
G1 X106.949 Y103.811 E11.61497
G1 X96.189 Y93.051 E13.01877
G1 X95.628 Y93.387 E13.07907
G1 X106.613 Y104.372 E14.51218
G1 X106.234 Y104.889 E14.57136
G1 X95.111 Y93.766 E16.02254
G1 X94.628 Y94.18 E16.0812
G1 X105.82 Y105.372 E17.54131
G1 X105.607 Y105.607 E17.57058
G1 X105.372 Y105.82 E17.59987
G1 X94.18 Y94.628 E19.05997
G1 X93.766 Y95.111 E19.11863
G1 X104.889 Y106.234 E20.56981
G1 X104.371 Y106.613 E20.62899
G1 X93.387 Y95.629 E22.06209
G1 X93.051 Y96.189 E22.12239
G1 X103.811 Y106.949 E23.52619
G1 X103.208 Y107.243 E23.58804
G1 X92.757 Y96.792 E24.95163
G1 X92.674 Y96.966 E24.96939
G1 X92.506 Y97.437 E25.01559
G1 X102.563 Y107.494 E26.3277
G1 X102.302 Y107.588 E26.35329
G1 X101.868 Y107.696 E26.39451
G1 X92.304 Y98.132 E27.64236
G1 X92.223 Y98.453 E27.67293
G1 X92.159 Y98.884 E27.7131
G1 X101.116 Y107.841 E28.88166
G1 X100.777 Y107.891 E28.91326
G1 X100.293 Y107.915 E28.95794
G1 X92.085 Y99.707 E30.02883
G1 X92.071 Y100 E30.05594
G1 X92.101 Y100.619 E30.11312
G1 X99.381 Y107.899 E31.06286
G1 X99.223 Y107.891 E31.07746
G1 X98.332 Y107.746 E31.16072
G1 X92.254 Y101.668 E31.95375
G1 X92.412 Y102.302 E32.01402
G1 X92.647 Y102.958 E32.07834
G1 X97.042 Y107.353 E32.65168
G1 X96.262 Y106.993 E32.73089
G1 X95.595 Y106.593 E32.80267
G1 X94.97 Y106.129 E32.87446
G1 X94.456 Y105.663 E32.93849
G1 X92.903 Y104.11 E33.14111
;LAYER_CHANGE
;Z:0.65
;HEIGHT:0.3
G1 Z.65 F7800
G1 E31.14111 F2400
G92 E0
G1 X94.21 Y93.112 F7800
G1 E2 F2400
;TYPE:Perimeter
;WIDTH:0.45
G1 F3600
G1 X94.998 Y92.515 E2.04757
G1 X95.756 Y92.06 E2.09006
G1 X96.555 Y91.683 E2.13255
G1 X97.387 Y91.385 E2.17504
G1 X98.244 Y91.17 E2.21753
G1 X99.116 Y91.041 E2.25995
G1 X100.031 Y90.999 E2.30401
G1 X100.882 Y91.041 E2.345
G1 X101.756 Y91.17 E2.38749
G1 X102.613 Y91.385 E2.42999
G1 X103.445 Y91.683 E2.47248
G1 X104.244 Y92.06 E2.51497
G1 X105.002 Y92.515 E2.55746
G1 X105.711 Y93.041 E2.59995
G1 X106.366 Y93.634 E2.64245
G1 X106.959 Y94.289 E2.68494
G1 X107.485 Y94.998 E2.72743
G1 X107.94 Y95.756 E2.76992
G1 X108.317 Y96.555 E2.81241
G1 X108.615 Y97.387 E2.8549
G1 X108.83 Y98.244 E2.8974
G1 X108.959 Y99.118 E2.93989
G1 X109.003 Y100 E2.98238
G1 X108.959 Y100.882 E3.02487
G1 X108.83 Y101.756 E3.06736
G1 X108.615 Y102.613 E3.10986
G1 X108.317 Y103.445 E3.15235
G1 X107.94 Y104.244 E3.19484
G1 X107.485 Y105.002 E3.23733
G1 X106.959 Y105.711 E3.27982
G1 X106.366 Y106.366 E3.32231
G1 X105.711 Y106.959 E3.36481
G1 X105.002 Y107.485 E3.4073
G1 X104.244 Y107.94 E3.44979
G1 X103.445 Y108.317 E3.49228
G1 X102.613 Y108.615 E3.53477
G1 X101.756 Y108.83 E3.57727
G1 X100.882 Y108.959 E3.61976
G1 X100 Y109.003 E3.66225
G1 X99.118 Y108.959 E3.70474
G1 X98.244 Y108.83 E3.74723
G1 X97.387 Y108.615 E3.78973
G1 X96.555 Y108.317 E3.83222
G1 X95.756 Y107.94 E3.87471
G1 X94.998 Y107.485 E3.9172
G1 X94.289 Y106.959 E3.95969
G1 X93.634 Y106.366 E4.00218
G1 X93.041 Y105.711 E4.04468
G1 X92.515 Y105.002 E4.08717
G1 X92.06 Y104.244 E4.12966
G1 X91.683 Y103.445 E4.17215
G1 X91.385 Y102.613 E4.21464
G1 X91.17 Y101.756 E4.25714
G1 X91.041 Y100.882 E4.29963
G1 X90.997 Y100 E4.34212
G1 X91.041 Y99.118 E4.38461
G1 X91.17 Y98.244 E4.4271
G1 X91.385 Y97.387 E4.4696
G1 X91.683 Y96.555 E4.51209
G1 X92.06 Y95.756 E4.55458
G1 X92.515 Y94.998 E4.59707
G1 X93.041 Y94.289 E4.63956
G1 X93.634 Y93.634 E4.68205
G1 X94.166 Y93.152 E4.71656
G1 X93.627 Y93.12 F7800
G1 F3600
G1 X94.044 Y92.742 E4.74363
G1 X94.784 Y92.194 E4.78795
G1 X95.574 Y91.72 E4.83226
G1 X96.407 Y91.326 E4.87658
G1 X97.275 Y91.016 E4.92089
G1 X98.168 Y90.792 E4.9652
G1 X99.079 Y90.657 E5.00947
G1 X100.032 Y90.613 E5.05535
G1 X100.92 Y90.657 E5.09814
G1 X101.832 Y90.792 E5.14245
G1 X102.725 Y91.016 E5.18677
G1 X103.593 Y91.326 E5.23108
G1 X104.426 Y91.72 E5.2754
G1 X105.216 Y92.194 E5.31971
G1 X105.956 Y92.742 E5.36402
G1 X106.639 Y93.361 E5.40834
G1 X107.258 Y94.044 E5.45265
G1 X107.806 Y94.784 E5.49697
G1 X108.28 Y95.574 E5.54128
G1 X108.674 Y96.407 E5.58559
G1 X108.984 Y97.275 E5.62991
G1 X109.208 Y98.168 E5.67422
G1 X109.343 Y99.08 E5.71854
G1 X109.389 Y100 E5.76285
G1 X109.343 Y100.92 E5.80717
G1 X109.208 Y101.832 E5.85148
G1 X108.984 Y102.725 E5.89579
G1 X108.674 Y103.593 E5.94011
G1 X108.28 Y104.426 E5.98442
G1 X107.806 Y105.216 E6.02874
G1 X107.258 Y105.956 E6.07305
G1 X106.639 Y106.639 E6.11736
G1 X105.956 Y107.258 E6.16168
G1 X105.216 Y107.806 E6.20599
G1 X104.426 Y108.28 E6.25031
G1 X103.593 Y108.674 E6.29462
G1 X102.725 Y108.984 E6.33894
G1 X101.832 Y109.208 E6.38325
G1 X100.92 Y109.343 E6.42756
G1 X100 Y109.389 E6.47188
G1 X99.08 Y109.343 E6.51619
G1 X98.168 Y109.208 E6.56051
G1 X97.275 Y108.984 E6.60482
G1 X96.407 Y108.674 E6.64913
G1 X95.574 Y108.28 E6.69345
G1 X94.784 Y107.806 E6.73776
G1 X94.044 Y107.258 E6.78208
G1 X93.361 Y106.639 E6.82639
G1 X92.742 Y105.956 E6.87071
G1 X92.194 Y105.216 E6.91502
G1 X91.72 Y104.426 E6.95933
G1 X91.326 Y103.593 E7.00365
G1 X91.016 Y102.725 E7.04796
G1 X90.792 Y101.832 E7.09228
G1 X90.657 Y100.92 E7.13659
G1 X90.611 Y100 E7.1809
G1 X90.657 Y99.08 E7.22522
G1 X90.792 Y98.168 E7.26953
G1 X91.016 Y97.275 E7.31385
G1 X91.326 Y96.407 E7.35816
G1 X91.72 Y95.574 E7.40248
G1 X92.194 Y94.784 E7.44679
G1 X92.742 Y94.044 E7.4911
G1 X93.361 Y93.361 E7.53542
G1 X93.582 Y93.161 E7.54978
G1 X93.048 Y93.133 F7800
;TYPE:External perimeter
G1 F1800
G1 X93.799 Y92.444 E7.59881
G1 X94.569 Y91.873 E7.64494
G1 X95.392 Y91.379 E7.69108
G1 X96.259 Y90.969 E7.73722
G1 X97.163 Y90.646 E7.78335
G1 X98.093 Y90.413 E7.82949
G1 X99.042 Y90.272 E7.87561
G1 X100.032 Y90.227 E7.92331
G1 X100.958 Y90.272 E7.96789
G1 X101.907 Y90.413 E8.01403
G1 X102.837 Y90.646 E8.06016
G1 X103.741 Y90.969 E8.1063
G1 X104.608 Y91.379 E8.15244
G1 X105.431 Y91.873 E8.19857
G1 X106.201 Y92.444 E8.24471
G1 X106.912 Y93.088 E8.29084
G1 X107.556 Y93.799 E8.33698
G1 X108.127 Y94.569 E8.38312
G1 X108.621 Y95.392 E8.42925
G1 X109.031 Y96.259 E8.47539
G1 X109.354 Y97.163 E8.52153
G1 X109.587 Y98.093 E8.56766
G1 X109.728 Y99.042 E8.6138
G1 X109.775 Y100 E8.65994
G1 X109.728 Y100.958 E8.70607
G1 X109.587 Y101.907 E8.75221
G1 X109.354 Y102.837 E8.79835
G1 X109.031 Y103.741 E8.84448
G1 X108.621 Y104.608 E8.89062
G1 X108.127 Y105.431 E8.93676
G1 X107.556 Y106.201 E8.98289
G1 X106.912 Y106.912 E9.02903
G1 X106.201 Y107.556 E9.07517
G1 X105.431 Y108.127 E9.1213
G1 X104.608 Y108.621 E9.16744
G1 X103.741 Y109.031 E9.21357
G1 X102.837 Y109.354 E9.25971
G1 X101.907 Y109.587 E9.30585
G1 X100.958 Y109.728 E9.35198
G1 X100 Y109.775 E9.39812
G1 X99.042 Y109.728 E9.44426
G1 X98.093 Y109.587 E9.49039
G1 X97.163 Y109.354 E9.53653
G1 X96.259 Y109.031 E9.58267
G1 X95.392 Y108.621 E9.6288
G1 X94.569 Y108.127 E9.67494
G1 X93.799 Y107.556 E9.72108
G1 X93.088 Y106.912 E9.76721
G1 X92.444 Y106.201 E9.81335
G1 X91.873 Y105.431 E9.85949
G1 X91.379 Y104.608 E9.90562
