; generated by PrusaSlicer 2.4.0 on 2026-06-19 at 08:23:10 UTC

; 

; external perimeters extrusion width = 0.45mm
; perimeters extrusion width = 0.45mm
; infill extrusion width = 0.45mm
; solid infill extrusion width = 0.45mm
; top infill extrusion width = 0.40mm
; first layer extrusion width = 0.70mm

M107
M104 S200 ; set temperature
;TYPE:Custom
G28 ; home all axes
G1 Z5 F5000 ; lift nozzle
M109 S200 ; set temperature and wait for it to be reached
G21 ; set units to millimeters
G90 ; use absolute coordinates
M82 ; use absolute distances for extrusion
G92 E0
; Filament gcode
M107
;LAYER_CHANGE
;Z:0.35
;HEIGHT:0.35
G1 Z.35 F7800
G1 E-2 F2400
G92 E0
G1 X94.164 Y95.3 F7800
G1 E2 F2400
;TYPE:Skirt/Brim
;WIDTH:0.7
G1 F773
G1 X95.916 Y93.821 E2.20854
G1 X97.201 Y93.246 E2.3365
G1 X98.063 Y92.966 E2.41892
G1 X100.334 Y92.646 E2.62746
G1 X102.578 Y93.119 E2.83601
G1 X104.527 Y94.328 E3.04455
G1 X105.47 Y95.373 E3.17251
G1 X106.003 Y96.106 E3.25493
G1 X107.009 Y98.167 E3.46347
G1 X107.253 Y100.447 E3.67201
G1 X106.704 Y102.674 E3.88056
G1 X106.003 Y103.894 E4.00852
G1 X105.47 Y104.627 E4.09094
G1 X103.821 Y106.221 E4.29948
G1 X101.727 Y107.158 E4.50802
G1 X99.44 Y107.324 E4.71656
G1 X98.063 Y107.034 E4.84452
G1 X97.201 Y106.754 E4.92694
G1 X95.175 Y105.678 E5.13549
G1 X93.638 Y103.976 E5.34403
G1 X92.773 Y101.852 E5.55257
G1 X92.623 Y100.453 E5.68053
G1 X92.623 Y99.547 E5.76295
G1 X93.02 Y97.288 E5.97149
G1 X94.134 Y95.352 E6.17458
G1 E4.17458 F2400
G92 E0
G1 X99.598 Y99.801 F7800
G1 E2 F2400
;TYPE:External perimeter
G1 F773
G1 X99.977 Y99.678 E2.03617
G1 X100.21 Y100 E2.07235
G1 X99.977 Y100.322 E2.10852
G1 X99.598 Y100.199 E2.1447
G1 X99.598 Y99.861 E2.17542
G1 X99.994 Y99.843 F7800
;LAYER_CHANGE
;Z:0.65
;HEIGHT:0.3
G1 Z.65 F7800
G1 X100.029 Y99.936
;TYPE:Perimeter
;WIDTH:0.45
G1 F600
G1 X100.076 Y100 E2.17924
G1 X99.935 Y100.194 E2.19077
G1 X99.707 Y100.12 E2.2023
G1 X99.707 Y99.88 E2.21382
G1 X99.935 Y99.806 E2.22535
G1 X99.994 Y99.887 E2.23018
G1 X99.321 Y99.6 F7800
;TYPE:External perimeter
G1 F600
G1 X100.082 Y99.353 E2.26866
G1 X100.553 Y100 E2.30714
G1 X100.082 Y100.647 E2.34562
G1 X99.321 Y100.4 E2.3841
G1 X99.321 Y99.66 E2.41969
G1 X99.719 Y99.642 F7800
;LAYER_CHANGE
;Z:0.95
;HEIGHT:0.3
G1 Z.95 F7800
G1 X99.947 Y99.655
;TYPE:Perimeter
G1 F600
G1 X99.989 Y99.641 E2.42177
G1 X100.249 Y100 E2.4431
G1 X99.989 Y100.359 E2.46442
G1 X99.567 Y100.222 E2.48574
G1 X99.567 Y99.778 E2.50706
G1 X99.89 Y99.673 E2.52342
G1 X99.278 Y99.467 F7800
;TYPE:External perimeter
G1 F600
G1 X100.136 Y99.188 E2.56679
G1 X100.726 Y100 E2.61506
G1 X100.136 Y100.812 E2.66334
G1 X99.181 Y100.502 E2.71161
G1 X99.181 Y99.498 E2.75988
G1 X99.221 Y99.485 E2.76189
G1 X99.655 Y99.602 F7800
M106 S255
;LAYER_CHANGE
;Z:1.25
;HEIGHT:0.3
G1 Z1.25 F7800
G1 X99.807 Y99.553
;TYPE:Perimeter
G1 F600
G1 X100.042 Y99.477 E2.77377
G1 X100.422 Y100 E2.80489
G1 X100.042 Y100.523 E2.836
G1 X99.427 Y100.323 E2.86712
G1 X99.427 Y99.677 E2.89823
G1 X99.75 Y99.571 E2.91459
G1 X99.041 Y99.396 F7800
;TYPE:External perimeter
G1 F600
G1 X100.189 Y99.023 E2.97265
G1 X100.899 Y100 E3.03072
G1 X100.189 Y100.977 E3.08878
G1 X99.041 Y100.604 E3.14685
G1 X99.041 Y99.456 E3.20203
G1 X99.439 Y99.438 F7800
;LAYER_CHANGE
;Z:1.55
;HEIGHT:0.3
G1 Z1.55 F7800
G1 X99.891 Y99.614
;TYPE:Perimeter
G1 F600
G1 X100.01 Y99.575 E3.20806
G1 X100.319 Y100 E3.23333
G1 X100.01 Y100.425 E3.2586
G1 X99.51 Y100.263 E3.28387
G1 X99.51 Y99.737 E3.30914
G1 X99.834 Y99.632 E3.3255
G1 X99.125 Y99.457 F7800
;TYPE:External perimeter
G1 F600
G1 X100.157 Y99.122 E3.37772
G1 X100.796 Y100 E3.42994
G1 X100.157 Y100.878 E3.48216
G1 X99.125 Y100.543 E3.53438
G1 X99.125 Y99.517 E3.58372
G1 X99.523 Y99.499 F7800
;LAYER_CHANGE
;Z:1.85
;HEIGHT:0.3
G1 Z1.85 F7800
G1 X100.003 Y99.803
;TYPE:Perimeter
G1 F600
G1 X100.146 Y100 E3.59543
G1 X99.957 Y100.26 E3.61091
G1 X99.651 Y100.161 E3.62639
G1 X99.651 Y99.839 E3.64186
G1 X99.957 Y99.74 E3.65734
G1 X99.967 Y99.754 E3.65822
G1 X99.265 Y99.559 F7800
;TYPE:External perimeter
G1 F600
G1 X100.104 Y99.286 E3.70064
G1 X100.622 Y100 E3.74307
G1 X100.104 Y100.714 E3.7855
G1 X99.265 Y100.441 E3.82793
G1 X99.265 Y99.619 E3.86747
G1 X99.663 Y99.601 F7800
;LAYER_CHANGE
;Z:2.15
;HEIGHT:0.3
G1 Z2.15 F7800
G1 X100.449 Y100
G1 F600
G1 X100.05 Y100.549 E3.9001
G1 X99.405 Y100.339 E3.93274
G1 X99.405 Y99.661 E3.96537
G1 X100.05 Y99.451 E3.998
G1 X100.414 Y99.951 E4.02775
G1 X100.103 Y100.2 F7800
;LAYER_CHANGE
;Z:2.45
;HEIGHT:0.3
G1 Z2.45 F7800
G1 X100.276 Y100
G1 F600
G1 X99.997 Y100.384 E4.05059
G1 X99.545 Y100.237 E4.07344
G1 X99.545 Y99.763 E4.09628
G1 X99.997 Y99.616 E4.11912
G1 X100.241 Y99.951 E4.13907
G1 X99.93 Y100.2 F7800
G1 E2.13907 F2400
G92 E0
M107
;TYPE:Custom
; Filament-specific end gcode 
;END gcode for filament
M104 S0 ; turn off temperature
G28 X0  ; home X axis
M84     ; disable motors
; filament used [mm] = 6.31
; filament used [cm3] = 0.02
; total filament used [g] = 0.00
; total filament cost = 0.00
; estimated printing time (normal mode) = 13s

; prusaslicer_config = begin
; avoid_crossing_perimeters = 0
; avoid_crossing_perimeters_max_detour = 0
; bed_shape = 0x0,200x0,200x200,0x200
; bed_temperature = 0
; before_layer_gcode = 
; between_objects_gcode = 
; bottom_fill_pattern = monotonic
; bottom_solid_layers = 3
; bottom_solid_min_thickness = 0
; bridge_acceleration = 0
; bridge_angle = 0
; bridge_fan_speed = 100
; bridge_flow_ratio = 1
; bridge_speed = 60
; brim_separation = 0
; brim_type = outer_only
; brim_width = 0
; clip_multipart_objects = 1
; color_change_gcode = M600
; complete_objects = 0
; cooling = 1
; cooling_tube_length = 5
; cooling_tube_retraction = 91.5
; default_acceleration = 0
; deretract_speed = 0
; disable_fan_first_layers = 3
; dont_support_bridges = 1
; draft_shield = disabled
; duplicate_distance = 6
; elefant_foot_compensation = 0
; end_filament_gcode = "; Filament-specific end gcode \n;END gcode for filament\n"
; end_gcode = M104 S0 ; turn off temperature\nG28 X0  ; home X axis\nM84     ; disable motors\n
; ensure_vertical_shell_thickness = 0
; external_perimeter_extrusion_width = 0
; external_perimeter_speed = 50%
; external_perimeters_first = 0
; extra_loading_move = -2
; extra_perimeters = 1
; extruder_clearance_height = 20
; extruder_clearance_radius = 20
; extruder_colour = ""
; extruder_offset = 0x0
; extrusion_axis = E
; extrusion_multiplier = 1
; extrusion_width = 0
; fan_always_on = 0
; fan_below_layer_time = 60
; filament_colour = #29B2B2
; filament_cooling_final_speed = 3.4
; filament_cooling_initial_speed = 2.2
; filament_cooling_moves = 4
; filament_cost = 0
; filament_density = 0
; filament_diameter = 1.75
; filament_load_time = 0
; filament_loading_speed = 28
; filament_loading_speed_start = 3
; filament_max_volumetric_speed = 0
; filament_minimal_purge_on_wipe_tower = 15
; filament_notes = ""
; filament_ramming_parameters = "120 100 6.6 6.8 7.2 7.6 7.9 8.2 8.7 9.4 9.9 10.0| 0.05 6.6 0.45 6.8 0.95 7.8 1.45 8.3 1.95 9.7 2.45 10 2.95 7.6 3.45 7.6 3.95 7.6 4.45 7.6 4.95 7.6"
; filament_settings_id = ""
; filament_soluble = 0
; filament_spool_weight = 0
; filament_toolchange_delay = 0
; filament_type = PLA
; filament_unload_time = 0
; filament_unloading_speed = 90
; filament_unloading_speed_start = 100
; fill_angle = 45
; fill_density = 20%
; fill_pattern = stars
; first_layer_acceleration = 0
; first_layer_acceleration_over_raft = 0
; first_layer_bed_temperature = 0
; first_layer_extrusion_width = 200%
; first_layer_height = 0.35
; first_layer_speed = 30
; first_layer_speed_over_raft = 30
; first_layer_temperature = 200
; full_fan_speed_layer = 0
; fuzzy_skin = none
; fuzzy_skin_point_dist = 0.8
; fuzzy_skin_thickness = 0.3
; gap_fill_enabled = 1
; gap_fill_speed = 20
; gcode_comments = 0
; gcode_flavor = reprap
; gcode_label_objects = 0
; gcode_resolution = 0.0125
; high_current_on_filament_swap = 0
; infill_acceleration = 0
; infill_anchor = 600%
; infill_anchor_max = 50
; infill_every_layers = 1
; infill_extruder = 1
; infill_extrusion_width = 0
; infill_first = 0
; infill_only_where_needed = 0
; infill_overlap = 25%
; infill_speed = 80
; interface_shells = 0
; ironing = 0
; ironing_flowrate = 15%
; ironing_spacing = 0.1
; ironing_speed = 15
; ironing_type = top
; layer_gcode = 
; layer_height = 0.3
; machine_limits_usage = emit_to_gcode
; machine_max_acceleration_e = 10000,5000
; machine_max_acceleration_extruding = 1500,1250
; machine_max_acceleration_retracting = 1500,1250
; machine_max_acceleration_travel = 1500,1250
; machine_max_acceleration_x = 9000,1000
; machine_max_acceleration_y = 9000,1000
; machine_max_acceleration_z = 500,200
; machine_max_feedrate_e = 120,120
; machine_max_feedrate_x = 500,200
; machine_max_feedrate_y = 500,200
; machine_max_feedrate_z = 12,12
; machine_max_jerk_e = 2.5,2.5
; machine_max_jerk_x = 10,10
; machine_max_jerk_y = 10,10
; machine_max_jerk_z = 0.2,0.4
; machine_min_extruding_rate = 0,0
; machine_min_travel_rate = 0,0
; max_fan_speed = 100
; max_layer_height = 0
; max_print_height = 200
; max_print_speed = 80
; max_volumetric_speed = 0
; min_fan_speed = 35
; min_layer_height = 0.07
; min_print_speed = 10
; min_skirt_length = 0
; mmu_segmented_region_max_width = 0
; notes = 
; nozzle_diameter = 0.4
; only_retract_when_crossing_perimeters = 0
; ooze_prevention = 0
; output_filename_format = [input_filename_base].gcode
; overhangs = 1
; parking_pos_retraction = 92
; pause_print_gcode = M601
; perimeter_acceleration = 0
; perimeter_extruder = 1
; perimeter_extrusion_width = 0
; perimeter_speed = 60
; perimeters = 3
; physical_printer_settings_id = 
; post_process = 
; print_settings_id = 
; printer_model = 
; printer_notes = 
; printer_settings_id = 
; printer_technology = FFF
; raft_contact_distance = 0.1
; raft_expansion = 1.5
; raft_first_layer_density = 90%
; raft_first_layer_expansion = 3
; raft_layers = 0
; remaining_times = 0
; resolution = 0
; retract_before_travel = 2
; retract_before_wipe = 0%
; retract_layer_change = 0
; retract_length = 2
; retract_length_toolchange = 10
; retract_lift = 0
; retract_lift_above = 0
; retract_lift_below = 0
; retract_restart_extra = 0
; retract_restart_extra_toolchange = 0
; retract_speed = 40
; seam_position = aligned
; silent_mode = 1
; single_extruder_multi_material = 0
; single_extruder_multi_material_priming = 1
; skirt_distance = 6
; skirt_height = 1
; skirts = 1
; slice_closing_radius = 0.049
; slicing_mode = regular
; slowdown_below_layer_time = 5
; small_perimeter_speed = 15
; solid_infill_below_area = 70
; solid_infill_every_layers = 0
; solid_infill_extruder = 1
; solid_infill_extrusion_width = 0
; solid_infill_speed = 20
; spiral_vase = 0
; standby_temperature_delta = -5
; start_filament_gcode = "; Filament gcode\n"
; start_gcode = G28 ; home all axes\nG1 Z5 F5000 ; lift nozzle\n
; support_material = 0
; support_material_angle = 0
; support_material_auto = 1
; support_material_bottom_contact_distance = 0
; support_material_bottom_interface_layers = -1
; support_material_buildplate_only = 0
; support_material_closing_radius = 2
; support_material_contact_distance = 0.2
; support_material_enforce_layers = 0
; support_material_extruder = 1
; support_material_extrusion_width = 0
; support_material_interface_contact_loops = 0
; support_material_interface_extruder = 1
; support_material_interface_layers = 3
; support_material_interface_pattern = rectilinear
; support_material_interface_spacing = 0
; support_material_interface_speed = 100%
; support_material_pattern = rectilinear
; support_material_spacing = 2.5
; support_material_speed = 60
; support_material_style = grid
; support_material_synchronize_layers = 0
; support_material_threshold = 0
; support_material_with_sheath = 1
; support_material_xy_spacing = 50%
; temperature = 200
; template_custom_gcode = 
; thick_bridges = 1
; thin_walls = 1
; threads = 4
; toolchange_gcode = 
; top_fill_pattern = monotonic
; top_infill_extrusion_width = 0
; top_solid_infill_speed = 15
; top_solid_layers = 3
; top_solid_min_thickness = 0
; travel_speed = 130
; travel_speed_z = 0
; use_firmware_retraction = 0
; use_relative_e_distances = 0
; use_volumetric_e = 0
; variable_layer_height = 1
; wipe = 0
; wipe_into_infill = 0
; wipe_into_objects = 0
; wipe_tower = 0
; wipe_tower_bridging = 10
; wipe_tower_brim_width = 2
; wipe_tower_no_sparse_layers = 0
; wipe_tower_rotation_angle = 0
; wipe_tower_width = 60
; wipe_tower_x = 180
; wipe_tower_y = 140
; wiping_volumes_extruders = 70,70,70,70,70,70,70,70,70,70
; wiping_volumes_matrix = 0,140,140,140,140,140,0,140,140,140,140,140,0,140,140,140,140,140,0,140,140,140,140,140,0
; xy_size_compensation = 0
; z_offset = 0
; prusaslicer_config = end
