; generated by PrusaSlicer 2.4.0 on 2026-06-19 at 12:07:09 UTC

; 

; external perimeters extrusion width = 0.45mm
; perimeters extrusion width = 0.45mm
; infill extrusion width = 0.45mm
; solid infill extrusion width = 0.45mm
; top infill extrusion width = 0.40mm
; first layer extrusion width = 0.70mm

M107
M104 S200 ; set temperature
;TYPE:Custom
G28 ; home all axes
G1 Z5 F5000 ; lift nozzle
M109 S200 ; set temperature and wait for it to be reached
G21 ; set units to millimeters
G90 ; use absolute coordinates
M82 ; use absolute distances for extrusion
G92 E0
; Filament gcode
M107
;LAYER_CHANGE
;Z:0.35
;HEIGHT:0.35
G1 Z.35 F7800
G1 E-2 F2400
G92 E0
G1 X93.351 Y93.65 F7800
G1 E2 F2400
;TYPE:Skirt/Brim
;WIDTH:0.7
G1 F1513
G1 X94.816 Y92.407 E2.17478
G1 X96.508 Y91.495 E2.34955
G1 X98.353 Y90.955 E2.52432
G1 X100.27 Y90.81 E2.69909
G1 X101.647 Y90.955 E2.82503
G1 X103.492 Y91.495 E2.9998
G1 X105.184 Y92.407 E3.17457
G1 X106.649 Y93.65 E3.34934
G1 X107.824 Y95.171 E3.52412
G1 X108.657 Y96.904 E3.6989
G1 X109.112 Y98.771 E3.87366
G1 X109.168 Y99.307 E3.92269
G1 X109.112 Y101.229 E4.09748
G1 X108.657 Y103.096 E4.27224
G1 X107.824 Y104.829 E4.44702
G1 X106.649 Y106.35 E4.62179
G1 X105.184 Y107.593 E4.79657
G1 X103.492 Y108.505 E4.97134
G1 X101.647 Y109.045 E5.14611
G1 X99.73 Y109.19 E5.32088
G1 X98.353 Y109.045 E5.44682
G1 X96.508 Y108.505 E5.62159
G1 X94.816 Y107.593 E5.79636
G1 X93.351 Y106.35 E5.97114
G1 X92.176 Y104.829 E6.14591
G1 X91.343 Y103.096 E6.32069
G1 X90.888 Y101.229 E6.49545
G1 X90.832 Y100.693 E6.54449
G1 X90.888 Y98.771 E6.71927
G1 X91.343 Y96.904 E6.89403
G1 X92.176 Y95.171 E7.06881
G1 X93.314 Y93.698 E7.23813
G1 E5.23813 F2400
G92 E0
G1 X100.09 Y99.035 F7800
G1 E2 F2400
;TYPE:Perimeter
G1 F1513
G1 X100.3 Y99.077 E2.0195
G1 X100.485 Y99.159 E2.03795
G1 X100.65 Y99.279 E2.0564
G1 X100.785 Y99.429 E2.07486
G1 X100.887 Y99.605 E2.09331
G1 X100.949 Y99.798 E2.11176
G1 X100.971 Y100 E2.13021
G1 X100.949 Y100.202 E2.14867
G1 X100.887 Y100.395 E2.16712
G1 X100.785 Y100.571 E2.18557
G1 X100.65 Y100.721 E2.20402
G1 X100.485 Y100.841 E2.22248
G1 X100.3 Y100.923 E2.24093
G1 X100.101 Y100.965 E2.25938
G1 X99.899 Y100.965 E2.27783
G1 X99.7 Y100.923 E2.29629
G1 X99.515 Y100.841 E2.31474
G1 X99.35 Y100.721 E2.33319
G1 X99.215 Y100.571 E2.35165
G1 X99.113 Y100.395 E2.3701
G1 X99.051 Y100.202 E2.38855
G1 X99.029 Y100 E2.407
G1 X99.051 Y99.798 E2.42546
G1 X99.113 Y99.605 E2.44391
G1 X99.215 Y99.429 E2.46236
G1 X99.35 Y99.279 E2.48081
G1 X99.515 Y99.159 E2.49927
G1 X99.7 Y99.077 E2.51772
G1 X99.899 Y99.035 E2.53617
G1 X100.03 Y99.035 E2.5481
G1 X99.261 Y98.588 F7800
G1 F1513
G1 X99.506 Y98.479 E2.57252
G1 X99.833 Y98.41 E2.60292
G1 X100.167 Y98.41 E2.63332
G1 X100.494 Y98.479 E2.66371
G1 X100.8 Y98.615 E2.69411
G1 X101.07 Y98.812 E2.72451
G1 X101.294 Y99.06 E2.7549
G1 X101.461 Y99.35 E2.7853
G1 X101.564 Y99.668 E2.8157
G1 X101.599 Y100 E2.8461
G1 X101.564 Y100.332 E2.87649
G1 X101.461 Y100.65 E2.90689
G1 X101.294 Y100.94 E2.93729
G1 X101.07 Y101.188 E2.96768
G1 X100.8 Y101.385 E2.99808
G1 X100.494 Y101.521 E3.02848
G1 X100.167 Y101.59 E3.05887
G1 X99.833 Y101.59 E3.08927
G1 X99.506 Y101.521 E3.11967
G1 X99.2 Y101.385 E3.15006
G1 X98.93 Y101.188 E3.18046
G1 X98.706 Y100.94 E3.21086
G1 X98.539 Y100.65 E3.24125
G1 X98.436 Y100.332 E3.27165
G1 X98.401 Y100 E3.30205
G1 X98.436 Y99.668 E3.33245
G1 X98.539 Y99.35 E3.36284
G1 X98.706 Y99.06 E3.39324
G1 X98.93 Y98.812 E3.42364
G1 X99.206 Y98.613 E3.45454
G1 X98.494 Y98.362 F7800
;TYPE:External perimeter
G1 F1513
G1 X98.886 Y98.071 E3.49893
G1 X99.312 Y97.882 E3.54127
G1 X99.767 Y97.785 E3.58361
G1 X100.233 Y97.785 E3.62595
G1 X100.688 Y97.882 E3.6683
G1 X101.114 Y98.071 E3.71064
G1 X101.49 Y98.345 E3.75298
G1 X101.802 Y98.691 E3.79532
G1 X102.035 Y99.094 E3.83766
G1 X102.179 Y99.537 E3.88
G1 X102.227 Y100 E3.92234
G1 X102.179 Y100.463 E3.96468
G1 X102.035 Y100.906 E4.00702
G1 X101.802 Y101.309 E4.04937
G1 X101.49 Y101.655 E4.09171
G1 X101.114 Y101.929 E4.13405
G1 X100.688 Y102.118 E4.17639
G1 X100.233 Y102.215 E4.21873
G1 X99.767 Y102.215 E4.26107
G1 X99.312 Y102.118 E4.30341
G1 X98.886 Y101.929 E4.34575
G1 X98.51 Y101.655 E4.38809
G1 X98.198 Y101.309 E4.43044
G1 X97.965 Y100.906 E4.47278
G1 X97.821 Y100.463 E4.51512
G1 X97.773 Y100 E4.55746
G1 X97.821 Y99.537 E4.5998
G1 X97.965 Y99.094 E4.64214
G1 X98.198 Y98.691 E4.68448
G1 X98.454 Y98.406 E4.71927
G1 X98.876 Y98.483 F7800
G1 E2.71927 F2400
G92 E0
G1 X100.767 Y100.148 F7800
G1 E2 F2400
;TYPE:Solid infill
;WIDTH:0.824978
G1 F1513
G1 X100.141 Y99.522 E2.09657
G1 X99.948 Y99.503 E2.11773
G1 X99.846 Y99.525 E2.12913
G1 X99.75 Y99.567 E2.14053
G1 X99.596 Y99.706 E2.16319
G1 X99.544 Y99.797 E2.17458
G1 X99.506 Y99.948 E2.19155
G1 X100.284 Y100.725 E2.31154
;LAYER_CHANGE
;Z:0.65
;HEIGHT:0.3
G1 Z.65 F7800
G1 E.31154 F2400
G92 E0
G1 X101.224 Y102.837 F7800
G1 E2 F2400
;TYPE:Overhang perimeter
;WIDTH:0.4
;HEIGHT:0.4
G1 F900
G1 X100.96 Y102.954 E2.01509
G1 X100.325 Y103.089 E2.04902
G1 X99.675 Y103.089 E2.08294
G1 X99.04 Y102.954 E2.11687
G1 X98.447 Y102.69 E2.1508
G1 X97.921 Y102.309 E2.18473
G1 X97.487 Y101.826 E2.21866
G1 X97.162 Y101.263 E2.25259
G1 X96.961 Y100.646 E2.28652
G1 X96.894 Y100 E2.32045
G1 X96.961 Y99.354 E2.35437
G1 X97.162 Y98.737 E2.3883
G1 X97.487 Y98.174 E2.42223
G1 X97.921 Y97.691 E2.45616
G1 X98.447 Y97.31 E2.49009
G1 X99.04 Y97.046 E2.52402
G1 X99.675 Y96.911 E2.55795
G1 X100.325 Y96.911 E2.59187
G1 X100.96 Y97.046 E2.6258
G1 X101.553 Y97.31 E2.65973
G1 X102.079 Y97.691 E2.69366
G1 X102.513 Y98.174 E2.72759
G1 X102.838 Y98.737 E2.76152
G1 X103.039 Y99.354 E2.79545
G1 X103.106 Y100 E2.82938
G1 X103.039 Y100.646 E2.8633
G1 X102.838 Y101.264 E2.89723
G1 X102.513 Y101.826 E2.93116
G1 X102.079 Y102.309 E2.96509
G1 X101.553 Y102.69 E2.99902
G1 X101.279 Y102.813 E3.01473
G1 X101.435 Y103.165 F7800
G1 F900
G1 X101.08 Y103.323 E3.03506
G1 X100.365 Y103.475 E3.07323
G1 X99.635 Y103.475 E3.11139
G1 X98.92 Y103.323 E3.14956
G1 X98.253 Y103.026 E3.18772
G1 X97.662 Y102.597 E3.22588
G1 X97.173 Y102.054 E3.26405
G1 X96.808 Y101.421 E3.30221
G1 X96.582 Y100.726 E3.34037
G1 X96.506 Y100 E3.37854
G1 X96.582 Y99.274 E3.4167
G1 X96.808 Y98.579 E3.45487
G1 X97.173 Y97.946 E3.49303
G1 X97.662 Y97.403 E3.53119
G1 X98.253 Y96.974 E3.56936
G1 X98.92 Y96.677 E3.60752
G1 X99.635 Y96.525 E3.64568
G1 X100.365 Y96.525 E3.68385
G1 X101.08 Y96.677 E3.72201
G1 X101.747 Y96.974 E3.76017
G1 X102.338 Y97.403 E3.79834
G1 X102.827 Y97.946 E3.8365
G1 X103.192 Y98.579 E3.87467
G1 X103.418 Y99.274 E3.91283
G1 X103.494 Y100 E3.95099
G1 X103.418 Y100.726 E3.98916
G1 X103.192 Y101.421 E4.02732
G1 X102.827 Y102.054 E4.06548
G1 X102.338 Y102.597 E4.10365
G1 X101.747 Y103.026 E4.14181
G1 X101.49 Y103.14 E4.1565
G1 X101.647 Y103.493 F7800
G1 F900
G1 X101.2 Y103.692 E4.18209
G1 X100.406 Y103.861 E4.22449
G1 X99.594 Y103.861 E4.26689
G1 X98.8 Y103.692 E4.30929
G1 X98.059 Y103.362 E4.35169
G1 X97.403 Y102.885 E4.39409
G1 X96.859 Y102.282 E4.43648
G1 X96.454 Y101.579 E4.47888
G1 X96.203 Y100.807 E4.52128
G1 X96.118 Y100 E4.56368
G1 X96.203 Y99.193 E4.60608
G1 X96.454 Y98.421 E4.64848
G1 X96.859 Y97.718 E4.69088
G1 X97.403 Y97.115 E4.73327
G1 X98.059 Y96.638 E4.77567
G1 X98.8 Y96.308 E4.81807
G1 X99.594 Y96.139 E4.86047
G1 X100.406 Y96.139 E4.90287
G1 X101.2 Y96.308 E4.94527
G1 X101.941 Y96.638 E4.98767
G1 X102.597 Y97.115 E5.03006
G1 X103.141 Y97.718 E5.07246
G1 X103.546 Y98.421 E5.11486
G1 X103.797 Y99.193 E5.15726
G1 X103.882 Y100 E5.19966
G1 X103.797 Y100.807 E5.24206
G1 X103.546 Y101.579 E5.28446
G1 X103.141 Y102.282 E5.32686
G1 X102.597 Y102.885 E5.36925
G1 X101.941 Y103.362 E5.41165
G1 X101.702 Y103.468 E5.42533
G1 E3.42533 F2400
G92 E0
G1 X102.778 Y101.063 F7800
G1 E2 F2400
;TYPE:Bridge infill
;WIDTH:0.412997
G1 F3600
G1 X102.778 Y99.949 E2.06202
G1 X102.722 Y99.421 E2.0916
G1 X102.543 Y98.868 E2.12401
G1 X102.315 Y98.474 E2.14937
G1 X102.315 Y101.526 E2.31939
G1 X102.252 Y101.636 E2.32644
G1 X101.852 Y102.076 E2.35955
G1 X101.852 Y97.924 E2.59079
G1 X101.389 Y97.588 E2.62263
G1 X101.389 Y102.412 E2.89126
G1 X100.926 Y102.618 E2.91949
G1 X100.926 Y97.382 E3.21107
G1 X100.86 Y97.353 E3.21509
G1 X100.463 Y97.269 E3.2377
G1 X100.463 Y102.731 E3.54195
G1 X100.291 Y102.768 E3.55175
G1 X100 Y102.768 E3.56795
G1 X100 Y97.232 E3.87628
G1 X99.709 Y97.232 E3.89248
G1 X99.537 Y97.269 E3.90228
G1 X99.537 Y102.731 E4.20654
G1 X99.14 Y102.647 E4.22914
G1 X99.074 Y102.618 E4.23317
G1 X99.074 Y97.382 E4.52475
G1 X98.611 Y97.588 E4.55297
G1 X98.611 Y102.412 E4.82159
G1 X98.148 Y102.076 E4.85344
G1 X98.148 Y97.924 E5.08467
G1 X97.748 Y98.364 E5.11777
G1 X97.685 Y98.474 E5.12483
G1 X97.685 Y101.526 E5.29484
G1 X97.457 Y101.132 E5.32019
G1 X97.278 Y100.579 E5.35259
G1 X97.222 Y100.05 E5.38222
G1 X97.222 Y98.937 E5.44418
;LAYER_CHANGE
;Z:0.95
;HEIGHT:0.3
G1 Z.95 F7800
G1 X95.936 Y98.519
;TYPE:Overhang perimeter
;WIDTH:0.4
;HEIGHT:0.4
G1 F900
G1 X96.029 Y98.232 E5.45996
G1 X96.484 Y97.445 E5.50743
G1 X97.092 Y96.77 E5.5549
G1 X97.827 Y96.236 E5.60237
G1 X98.657 Y95.866 E5.64984
G1 X99.546 Y95.677 E5.69731
G1 X100.454 Y95.677 E5.74478
G1 X101.343 Y95.866 E5.79225
G1 X102.173 Y96.236 E5.83972
G1 X102.908 Y96.77 E5.8872
G1 X103.516 Y97.445 E5.93467
G1 X103.971 Y98.232 E5.98214
G1 X104.251 Y99.096 E6.02961
G1 X104.346 Y100 E6.07708
G1 X104.251 Y100.904 E6.12455
G1 X103.971 Y101.768 E6.17202
G1 X103.516 Y102.555 E6.21949
G1 X102.908 Y103.23 E6.26696
G1 X102.173 Y103.764 E6.31444
G1 X101.343 Y104.134 E6.36191
G1 X100.454 Y104.323 E6.40938
G1 X99.546 Y104.323 E6.45685
G1 X98.657 Y104.134 E6.50432
G1 X97.827 Y103.764 E6.55179
G1 X97.092 Y103.23 E6.59926
G1 X96.484 Y102.555 E6.64673
G1 X96.029 Y101.768 E6.6942
G1 X95.749 Y100.904 E6.74168
G1 X95.654 Y100 E6.78915
G1 X95.749 Y99.096 E6.83662
G1 X95.918 Y98.576 E6.86518
G1 X95.551 Y98.457 F7800
G1 F900
G1 X95.675 Y98.074 E6.88621
G1 X96.17 Y97.217 E6.93791
G1 X96.832 Y96.482 E6.98962
G1 X97.633 Y95.9 E7.04133
G1 X98.537 Y95.498 E7.09303
G1 X99.505 Y95.292 E7.14474
G1 X100.495 Y95.292 E7.19644
G1 X101.463 Y95.498 E7.24815
G1 X102.367 Y95.9 E7.29986
G1 X103.168 Y96.482 E7.35156
G1 X103.83 Y97.217 E7.40327
G1 X104.325 Y98.074 E7.45497
G1 X104.631 Y99.016 E7.50668
G1 X104.734 Y100 E7.55839
G1 X104.631 Y100.984 E7.61009
G1 X104.325 Y101.926 E7.6618
G1 X103.83 Y102.783 E7.71351
G1 X103.168 Y103.518 E7.76521
G1 X102.367 Y104.1 E7.81692
G1 X101.463 Y104.502 E7.86862
G1 X100.495 Y104.708 E7.92033
G1 X99.505 Y104.708 E7.97204
G1 X98.537 Y104.502 E8.02374
G1 X97.633 Y104.1 E8.07545
G1 X96.832 Y103.518 E8.12715
G1 X96.17 Y102.783 E8.17886
G1 X95.675 Y101.926 E8.23057
G1 X95.369 Y100.984 E8.28227
G1 X95.266 Y100 E8.33398
G1 X95.369 Y99.016 E8.38568
G1 X95.532 Y98.514 E8.41323
G1 X95.166 Y98.395 F7800
G1 F900
G1 X95.321 Y97.917 E8.43951
G1 X95.856 Y96.989 E8.49545
G1 X96.573 Y96.194 E8.55139
G1 X97.439 Y95.564 E8.60733
G1 X98.417 Y95.129 E8.66327
G1 X99.465 Y94.906 E8.71921
G1 X100.535 Y94.906 E8.77515
G1 X101.583 Y95.129 E8.8311
G1 X102.561 Y95.564 E8.88704
G1 X103.427 Y96.194 E8.94298
G1 X104.144 Y96.989 E8.99892
G1 X104.679 Y97.917 E9.05486
G1 X105.01 Y98.935 E9.1108
G1 X105.122 Y100 E9.16674
G1 X105.01 Y101.065 E9.22268
G1 X104.679 Y102.083 E9.27862
G1 X104.144 Y103.011 E9.33457
G1 X103.427 Y103.806 E9.39051
G1 X102.561 Y104.436 E9.44645
G1 X101.583 Y104.871 E9.50239
G1 X100.535 Y105.094 E9.55833
G1 X99.465 Y105.094 E9.61427
G1 X98.417 Y104.871 E9.67021
G1 X97.439 Y104.436 E9.72615
G1 X96.573 Y103.806 E9.78209
G1 X95.856 Y103.011 E9.83804
G1 X95.321 Y102.083 E9.89398
G1 X94.99 Y101.065 E9.94992
G1 X94.878 Y100 E10.00586
G1 X94.99 Y98.935 E10.0618
G1 X95.147 Y98.452 E10.08833
G1 E8.08833 F2400
G92 E0
G1 X101.053 Y99.82 F7800
G1 E2 F2400
;TYPE:Solid infill
;WIDTH:0.500429
;HEIGHT:0.3
G1 F1200
G1 X100.449 Y99.223 E2.04623
G1 X100.277 Y99.146 E2.05643
G1 X100.094 Y99.107 E2.06664
G1 X99.906 Y99.107 E2.07685
G1 X99.756 Y99.139 E2.08521
G1 X100.86 Y100.243 E2.17013
G1 X100.82 Y100.365 E2.1771
G1 X100.726 Y100.528 E2.18731
G1 X100.632 Y100.632 E2.19496
G1 X99.368 Y99.368 E2.29221
G1 X99.274 Y99.472 E2.29985
G1 X99.18 Y99.635 E2.31006
G1 X99.14 Y99.757 E2.31704
G1 X100.244 Y100.861 E2.40195
G1 X100.094 Y100.893 E2.41031
G1 X99.906 Y100.893 E2.42051
G1 X99.723 Y100.854 E2.43072
G1 X99.551 Y100.777 E2.44093
G1 X98.947 Y100.18 E2.48715
G1 E.48715 F2400
G92 E0
G1 X104.013 Y98.748 F7800
G1 E2 F2400
;TYPE:Bridge infill
;WIDTH:0.422154
;HEIGHT:0.4
G1 F3600
G1 X104.013 Y100.094 E2.07831
G1 X103.935 Y100.836 E2.12175
G1 X103.675 Y101.636 E2.17069
G1 X103.541 Y101.869 E2.18631
G1 X103.541 Y98.131 E2.40382
G1 X103.255 Y97.635 E2.43714
G1 X103.069 Y97.429 E2.4533
G1 X103.069 Y102.571 E2.75254
G1 X102.692 Y102.99 E2.78532
G1 X102.597 Y103.059 E2.79217
G1 X102.597 Y96.941 E3.14819
G1 X102.125 Y96.598 E3.18215
G1 X102.125 Y103.402 E3.57809
G1 X102.012 Y103.484 E3.58622
G1 X101.652 Y103.644 E3.6091
G1 X101.652 Y96.356 E4.0332
G1 X101.18 Y96.16 E4.06294
G1 X101.18 Y104.047 E4.52186
G1 E2.52186 F2400
G92 E0
G1 X100.708 Y100.855 F7800
G1 E2 F2400
G1 F3600
G1 X100.708 Y103.94 E2.17951
G1 X100.421 Y104.001 E2.19662
G1 X100.236 Y104.001 E2.20736
G1 X100.236 Y101.29 E2.36514
G1 X100.138 Y101.311 E2.37098
G1 X99.862 Y101.311 E2.38702
G1 X99.764 Y101.29 E2.39287
G1 X99.764 Y104.001 E2.55065
G1 X99.579 Y104.001 E2.56138
G1 X99.292 Y103.94 E2.5785
G1 X99.292 Y100.855 E2.75801
G1 E.75801 F2400
G92 E0
G1 X100.708 Y99.145 F7800
G1 E2 F2400
G1 F3600
G1 X100.708 Y96.06 E2.17951
G1 X100.421 Y95.999 E2.19662
G1 X100.236 Y95.999 E2.20736
G1 X100.236 Y98.71 E2.36514
G1 X100.138 Y98.689 E2.37099
G1 X99.862 Y98.689 E2.38702
G1 X99.764 Y98.71 E2.39287
G1 X99.764 Y95.999 E2.55065
G1 X99.579 Y95.999 E2.56138
G1 X99.292 Y96.06 E2.5785
G1 X99.292 Y99.145 E2.75801
G1 E.75801 F2400
G92 E0
G1 X98.82 Y95.953 F7800
G1 E2 F2400
G1 F3600
G1 X98.82 Y103.84 E2.45892
G1 X98.347 Y103.644 E2.48866
G1 X98.347 Y96.356 E2.91276
G1 X97.988 Y96.516 E2.93563
G1 X97.875 Y96.598 E2.94377
G1 X97.875 Y103.402 E3.3397
G1 X97.403 Y103.059 E3.37366
G1 X97.403 Y96.941 E3.72967
G1 X97.308 Y97.01 E3.73651
G1 X96.931 Y97.429 E3.7693
G1 X96.931 Y102.571 E4.06853
G1 X96.745 Y102.365 E4.08468
G1 X96.459 Y101.869 E4.11802
G1 X96.459 Y98.131 E4.3355
G1 X96.325 Y98.364 E4.35111
G1 X96.065 Y99.164 E4.40006
G1 X95.987 Y99.907 E4.44355
G1 X95.987 Y101.251 E4.52179
M106 S219.3
;LAYER_CHANGE
;Z:1.25
;HEIGHT:0.3
G1 Z1.25 F7800
G1 X95.236 Y101.495
;TYPE:Perimeter
;WIDTH:0.45
G1 F900
G1 X95.09 Y101.044 E4.54462
G1 X94.98 Y100 E4.59509
G1 X95.09 Y98.956 E4.64557
G1 X95.414 Y97.958 E4.69605
G1 X95.939 Y97.049 E4.74652
G1 X96.641 Y96.269 E4.797
G1 X97.49 Y95.652 E4.84748
G1 X98.449 Y95.226 E4.89796
G1 X99.475 Y95.007 E4.94843
G1 X100.525 Y95.007 E4.99891
G1 X101.551 Y95.226 E5.04939
G1 X102.51 Y95.652 E5.09986
G1 X103.359 Y96.269 E5.15034
G1 X104.061 Y97.049 E5.20082
G1 X104.586 Y97.958 E5.2513
G1 X104.91 Y98.956 E5.30177
G1 X105.02 Y100 E5.35225
G1 X104.91 Y101.044 E5.40273
G1 X104.586 Y102.042 E5.4532
G1 X104.061 Y102.951 E5.50368
G1 X103.359 Y103.731 E5.55416
G1 X102.51 Y104.348 E5.60463
G1 X101.551 Y104.774 E5.65511
G1 X100.525 Y104.993 E5.70559
G1 X99.475 Y104.993 E5.75607
G1 X98.449 Y104.774 E5.80654
G1 X97.49 Y104.348 E5.85702
G1 X96.641 Y103.731 E5.9075
G1 X95.939 Y102.951 E5.95797
G1 X95.414 Y102.042 E6.00845
G1 X95.255 Y101.552 E6.03321
G1 X94.888 Y101.671 F7800
G1 F900
G1 X94.71 Y101.124 E6.06088
G1 X94.592 Y100 E6.11525
G1 X94.71 Y98.876 E6.16963
G1 X95.06 Y97.8 E6.22401
G1 X95.625 Y96.821 E6.27838
G1 X96.381 Y95.981 E6.33276
G1 X97.296 Y95.317 E6.38713
G1 X98.329 Y94.857 E6.44151
G1 X99.435 Y94.622 E6.49588
G1 X100.565 Y94.622 E6.55026
G1 X101.671 Y94.857 E6.60464
G1 X102.704 Y95.317 E6.65901
G1 X103.619 Y95.981 E6.71339
G1 X104.375 Y96.821 E6.76776
G1 X104.94 Y97.8 E6.82214
G1 X105.29 Y98.876 E6.87651
G1 X105.408 Y100 E6.93089
G1 X105.29 Y101.124 E6.98527
G1 X104.94 Y102.2 E7.03964
G1 X104.375 Y103.179 E7.09402
G1 X103.619 Y104.019 E7.14839
G1 X102.704 Y104.683 E7.20277
G1 X101.671 Y105.143 E7.25715
G1 X100.565 Y105.378 E7.31152
G1 X99.435 Y105.378 E7.3659
G1 X98.329 Y105.143 E7.42027
