; generated by PrusaSlicer 2.4.0 on 2026-06-17 at 10:21:25 UTC

; 

; external perimeters extrusion width = 0.45mm
; perimeters extrusion width = 0.45mm
; infill extrusion width = 0.45mm
; solid infill extrusion width = 0.45mm
; top infill extrusion width = 0.40mm
; first layer extrusion width = 0.70mm

M107
M104 S200 ; set temperature
;TYPE:Custom
G28 ; home all axes
G1 Z5 F5000 ; lift nozzle
M109 S200 ; set temperature and wait for it to be reached
G21 ; set units to millimeters
G90 ; use absolute coordinates
M82 ; use absolute distances for extrusion
G92 E0
; Filament gcode
M107
;LAYER_CHANGE
;Z:0.35
;HEIGHT:0.35
G1 Z.35 F7800
G1 E-2 F2400
G92 E0
G1 X94.475 Y94.475 F7800
G1 E2 F2400
;TYPE:Skirt/Brim
;WIDTH:0.7
G1 F985
G1 X95.315 Y93.635 E2.10807
G1 X97.193 Y92.318 E2.31661
G1 X99.408 Y91.721 E2.52515
G1 X101.693 Y91.914 E2.7337
G1 X103.775 Y92.875 E2.94224
G1 X104.684 Y93.635 E3.04995
G1 X106.461 Y95.412 E3.27843
G1 X107.778 Y97.29 E3.48698
G1 X108.375 Y99.504 E3.69552
G1 X108.182 Y101.789 E3.90406
G1 X107.221 Y103.871 E4.1126
G1 X106.461 Y104.781 E4.22031
G1 X104.685 Y106.557 E4.4488
G1 X102.807 Y107.874 E4.65734
G1 X100.592 Y108.471 E4.86588
G1 X98.307 Y108.278 E5.07443
G1 X96.225 Y107.317 E5.28297
G1 X95.316 Y106.557 E5.39068
G1 X93.539 Y104.781 E5.61916
G1 X92.222 Y102.903 E5.82771
G1 X91.625 Y100.688 E6.03625
G1 X91.818 Y98.403 E6.24479
G1 X92.779 Y96.321 E6.45333
G1 X93.539 Y95.412 E6.56104
G1 X94.433 Y94.518 E6.676
G1 E4.676 F2400
G92 E0
G1 X99.807 Y99.891 F7800
G1 E2 F2400
;TYPE:Perimeter
G1 F985
G1 X100 Y99.698 E2.02488
G1 X100.398 Y100.096 E2.07607
G1 X100 Y100.494 E2.12727
G1 X99.602 Y100.096 E2.17846
G1 X99.764 Y99.934 E2.19932
G1 X100 Y98.814 F7800
;TYPE:External perimeter
G1 F985
G1 X101.282 Y100.096 E2.36415
G1 X100 Y101.378 E2.52899
G1 X98.718 Y100.096 E2.69383
G1 X99.958 Y98.857 E2.85321
G1 X100.2 Y99.161 F7800
;LAYER_CHANGE
;Z:0.65
;HEIGHT:0.3
G1 Z.65 F7800
G1 X99.791 Y98.246
;TYPE:Perimeter
;WIDTH:0.45
G1 F600
G1 X100 Y98.178 E2.86379
G1 X100.209 Y98.246 E2.87437
;TYPE:Overhang perimeter
;WIDTH:0.4
;HEIGHT:0.4
G1 F900
G1 X101.364 Y98.621 E2.93781
G1 X101.441 Y98.695 E2.94338
G1 X101.84 Y99.877 E3.00856
;TYPE:Perimeter
;WIDTH:0.45
;HEIGHT:0.3
G1 F600
G1 X101.914 Y100.096 E3.0197
G1 X101.84 Y100.316 E3.03084
;TYPE:Overhang perimeter
;WIDTH:0.4
;HEIGHT:0.4
G1 F900
G1 X101.441 Y101.498 E3.09602
G1 X101.364 Y101.571 E3.10159
G1 X100.209 Y101.946 E3.16503
;TYPE:Perimeter
;WIDTH:0.45
;HEIGHT:0.3
G1 F600
G1 X100 Y102.014 E3.17561
G1 X99.791 Y101.946 E3.1862
;TYPE:Overhang perimeter
;WIDTH:0.4
;HEIGHT:0.4
G1 F900
G1 X98.636 Y101.571 E3.24964
G1 X98.559 Y101.498 E3.25521
G1 X98.16 Y100.316 E3.32039
;TYPE:Perimeter
;WIDTH:0.45
;HEIGHT:0.3
G1 F600
G1 X98.086 Y100.096 E3.33153
G1 X98.16 Y99.877 E3.34267
;TYPE:Overhang perimeter
;WIDTH:0.4
;HEIGHT:0.4
G1 F900
G1 X98.559 Y98.695 E3.40785
G1 X98.636 Y98.621 E3.41342
G1 X99.734 Y98.264 E3.47373
G1 X99.615 Y97.897 F7800
G1 F900
G1 X100 Y97.772 E3.4949
G1 X101.568 Y98.281 E3.581
G1 X101.776 Y98.482 E3.59613
G1 X102.321 Y100.096 E3.68514
G1 X101.776 Y101.71 E3.77415
G1 X101.568 Y101.911 E3.78927
G1 X100 Y102.42 E3.87538
G1 X98.432 Y101.911 E3.96148
G1 X98.224 Y101.71 E3.9766
G1 X97.679 Y100.096 E4.06561
G1 X98.224 Y98.482 E4.15463
G1 X98.432 Y98.281 E4.16975
G1 X99.558 Y97.916 E4.23155
G1 X99.438 Y97.549 F7800
G1 F900
G1 X100 Y97.367 E4.2624
G1 X101.771 Y97.942 E4.35968
G1 X102.111 Y98.269 E4.38435
G1 X102.728 Y100.096 E4.48509
G1 X102.111 Y101.923 E4.58582
G1 X101.771 Y102.25 E4.6105
G1 X100 Y102.825 E4.70778
G1 X98.229 Y102.25 E4.80506
G1 X97.889 Y101.923 E4.82973
G1 X97.272 Y100.096 E4.93047
G1 X97.889 Y98.269 E5.03121
G1 X98.229 Y97.942 E5.05588
G1 X99.381 Y97.568 E5.11918
G1 E3.11918 F2400
G92 E0
G1 X100.83 Y101.62 F7800
G1 E2 F2400
;TYPE:Bridge infill
;WIDTH:0.428165
G1 F3600
G1 X101.171 Y101.291 E2.02839
G1 X101.503 Y100.309 E2.09045
G1 X100.122 Y101.637 E2.20511
G1 X100 Y101.676 E2.21281
G1 X99.545 Y101.529 E2.24146
G1 X101.443 Y99.704 E2.39906
G1 X101.274 Y99.203 E2.4307
G1 X99.029 Y101.361 E2.61709
G1 X98.83 Y101.297 E2.62959
G1 X98.726 Y100.989 E2.64904
G1 X100.971 Y98.831 E2.83542
G1 X100.455 Y98.663 E2.86789
G1 X98.557 Y100.488 E3.02548
G1 X98.425 Y100.096 E3.05025
G1 X98.497 Y99.883 E3.06373
G1 X99.878 Y98.555 E3.17837
G1 X98.836 Y98.894 E3.24393
G1 X98.512 Y99.205 E3.27082
;LAYER_CHANGE
;Z:0.95
;HEIGHT:0.3
G1 Z.95 F7800
G1 X97.805 Y98.469
;TYPE:Perimeter
;WIDTH:0.45
G1 F900
G1 X98.695 Y97.612 E3.33026
G1 X99.851 Y97.237 E3.38871
G1 X100 Y97.21 E3.39598
G1 X100.149 Y97.237 E3.40326
G1 X101.305 Y97.612 E3.46171
G1 X102.43 Y98.695 E3.5368
G1 X102.848 Y99.931 E3.59959
G1 X102.882 Y100.096 E3.60768
G1 X102.848 Y100.261 E3.61577
G1 X102.43 Y101.498 E3.67856
G1 X101.305 Y102.58 E3.75365
G1 X100.149 Y102.955 E3.8121
G1 X100 Y102.982 E3.81937
G1 X99.851 Y102.955 E3.82665
G1 X98.695 Y102.58 E3.88509
G1 X97.57 Y101.498 E3.96019
G1 X97.152 Y100.261 E4.02298
G1 X97.118 Y100.096 E4.03107
G1 X97.152 Y99.931 E4.03916
G1 X97.57 Y98.695 E4.10195
G1 X97.761 Y98.511 E4.11471
G1 X97.494 Y98.233 F7800
G1 F900
G1 X98.277 Y97.479 E4.16698
;TYPE:Overhang perimeter
;WIDTH:0.4
;HEIGHT:0.4
G1 X98.492 Y97.273 E4.18254
G1 X99.756 Y96.862 E4.25199
G1 X100 Y96.818 E4.26493
G1 X100.244 Y96.862 E4.27787
G1 X101.508 Y97.273 E4.34732
G1 X101.723 Y97.479 E4.36288
;TYPE:Perimeter
;WIDTH:0.45
;HEIGHT:0.3
G1 X102.568 Y98.292 E4.41927
;TYPE:Overhang perimeter
;WIDTH:0.4
;HEIGHT:0.4
G1 X102.765 Y98.482 E4.43358
G1 X103.22 Y99.83 E4.50793
G1 X103.276 Y100.096 E4.52212
G1 X103.22 Y100.362 E4.53631
G1 X102.765 Y101.71 E4.61066
G1 X102.568 Y101.9 E4.62497
;TYPE:Perimeter
;WIDTH:0.45
;HEIGHT:0.3
G1 X101.723 Y102.713 E4.68136
;TYPE:Overhang perimeter
;WIDTH:0.4
;HEIGHT:0.4
G1 X101.508 Y102.919 E4.69692
G1 X100.244 Y103.33 E4.76637
G1 X100 Y103.375 E4.77931
G1 X99.756 Y103.33 E4.79225
G1 X98.492 Y102.919 E4.8617
G1 X98.277 Y102.713 E4.87726
;TYPE:Perimeter
;WIDTH:0.45
;HEIGHT:0.3
G1 X97.432 Y101.9 E4.93365
;TYPE:Overhang perimeter
;WIDTH:0.4
;HEIGHT:0.4
G1 X97.235 Y101.71 E4.94796
G1 X96.78 Y100.362 E5.02231
G1 X96.724 Y100.096 E5.0365
G1 X96.78 Y99.83 E5.05069
G1 X97.235 Y98.482 E5.12504
G1 X97.432 Y98.292 E5.13935
;TYPE:Perimeter
;WIDTH:0.45
;HEIGHT:0.3
G1 X97.451 Y98.274 E5.14058
G1 X97.183 Y97.996 F7800
;TYPE:Overhang perimeter
;WIDTH:0.4
;HEIGHT:0.4
G1 F900
G1 X98.289 Y96.934 E5.22069
G1 X99.661 Y96.488 E5.29609
G1 X100 Y96.425 E5.31408
G1 X100.339 Y96.488 E5.33206
G1 X101.711 Y96.934 E5.40747
G1 X103.1 Y98.269 E5.50815
G1 X103.593 Y99.729 E5.58863
G1 X103.67 Y100.096 E5.60823
G1 X103.593 Y100.463 E5.62783
G1 X103.1 Y101.923 E5.70831
G1 X101.711 Y103.259 E5.80899
G1 X100.339 Y103.704 E5.8844
G1 X100 Y103.767 E5.90239
G1 X99.661 Y103.704 E5.92037
G1 X98.289 Y103.259 E5.99578
G1 X96.9 Y101.923 E6.09646
G1 X96.407 Y100.463 E6.17694
G1 X96.33 Y100.096 E6.19654
G1 X96.407 Y99.729 E6.21614
G1 X96.9 Y98.269 E6.29662
G1 X97.14 Y98.038 E6.31406
G1 E4.31406 F2400
G92 E0
G1 X100.925 Y97.611 F7800
G1 E2 F2400
;TYPE:Solid infill
;WIDTH:0.466297
;HEIGHT:0.3
G1 F1200
G1 X102.184 Y98.87 E2.08925
G1 X102.474 Y99.728 E2.13465
G1 X100.353 Y97.608 E2.28496
G1 X100 Y97.504 E2.30343
G1 X99.751 Y97.574 E2.31639
G1 X102.516 Y100.339 E2.51241
G1 X102.373 Y100.764 E2.53489
G1 X99.322 Y97.713 E2.75116
G1 X98.893 Y97.852 E2.77377
G1 X102.229 Y101.188 E3.01028
G1 X102.179 Y101.338 E3.0182
G1 X101.991 Y101.519 E3.03126
G1 X98.589 Y98.116 E3.27246
G1 X98.299 Y98.395 E3.29261
G1 X101.701 Y101.797 E3.53381
G1 X101.411 Y102.076 E3.55396
G1 X98.009 Y98.674 E3.79516
G1 X97.821 Y98.854 E3.80821
G1 X97.771 Y99.004 E3.81613
G1 X101.107 Y102.34 E4.05264
G1 X100.678 Y102.479 E4.07526
G1 X97.627 Y99.429 E4.29152
G1 X97.484 Y99.854 E4.314
G1 X100.249 Y102.619 E4.51002
G1 X100 Y102.688 E4.52297
G1 X99.646 Y102.584 E4.54145
G1 X97.526 Y100.465 E4.69174
G1 X97.816 Y101.323 E4.73714
G1 X99.075 Y102.581 E4.82637
M106 S239.7
;LAYER_CHANGE
;Z:1.25
;HEIGHT:0.3
G1 Z1.25 F7800
G1 X98.934 Y103.347
;TYPE:Perimeter
;WIDTH:0.45
G1 F900
G1 X98.567 Y103.28 E4.84431
G1 X98.26 Y103.112 E4.86111
G1 X97.089 Y101.986 E4.93927
G1 X96.883 Y101.664 E4.95764
G1 X96.557 Y100.096 E5.03468
G1 X96.883 Y98.528 E5.11173
G1 X97.089 Y98.206 E5.13009
G1 X98.26 Y97.08 E5.20825
G1 X98.567 Y96.912 E5.22506
G1 X100 Y96.648 E5.29514
G1 X101.433 Y96.912 E5.36523
G1 X101.74 Y97.08 E5.38203
G1 X102.911 Y98.206 E5.46019
G1 X103.117 Y98.528 E5.47856
G1 X103.443 Y100.096 E5.5556
G1 X103.117 Y101.664 E5.63264
G1 X102.911 Y101.986 E5.65101
G1 X101.74 Y103.112 E5.72917
G1 X101.433 Y103.28 E5.74597
G1 X100 Y103.544 E5.81606
G1 X98.993 Y103.358 E5.86532
G1 X98.923 Y103.737 F7800
G1 F900
G1 X98.436 Y103.648 E5.88911
G1 X98.03 Y103.426 E5.91136
G1 X96.789 Y102.232 E5.9942
G1 X96.52 Y101.812 E6.01818
G1 X96.163 Y100.096 E6.1025
G1 X96.52 Y98.38 E6.18682
G1 X96.789 Y97.96 E6.2108
G1 X98.03 Y96.766 E6.29363
G1 X98.436 Y96.544 E6.31589
G1 X100 Y96.256 E6.39236
G1 X101.564 Y96.544 E6.46883
G1 X101.97 Y96.766 E6.49108
G1 X103.211 Y97.96 E6.57392
G1 X103.48 Y98.38 E6.5979
G1 X103.837 Y100.096 E6.68222
G1 X103.48 Y101.812 E6.76654
G1 X103.211 Y102.232 E6.79052
G1 X101.97 Y103.426 E6.87335
G1 X101.564 Y103.648 E6.89561
G1 X100 Y103.936 E6.97208
G1 X98.982 Y103.748 E7.02187
G1 X98.912 Y104.127 F7800
;TYPE:Overhang perimeter
;WIDTH:0.4
;HEIGHT:0.4
M106 S255
G1 F900
G1 X98.306 Y104.016 E7.05407
G1 X97.8 Y103.74 E7.08417
G1 X96.489 Y102.479 E7.17923
G1 X96.157 Y101.961 E7.21137
G1 X95.769 Y100.096 E7.31087
G1 X96.157 Y98.232 E7.41036
G1 X96.489 Y97.713 E7.4425
G1 X97.8 Y96.452 E7.53756
G1 X98.306 Y96.176 E7.56766
G1 X100 Y95.864 E7.65766
G1 X101.694 Y96.176 E7.74766
G1 X102.2 Y96.452 E7.77776
G1 X103.511 Y97.713 E7.87282
G1 X103.843 Y98.232 E7.90496
G1 X104.231 Y100.096 E8.00446
G1 X103.843 Y101.961 E8.10395
G1 X103.511 Y102.479 E8.1361
G1 X102.2 Y103.74 E8.23116
G1 X101.694 Y104.016 E8.26125
G1 X100 Y104.328 E8.35125
G1 X98.971 Y104.138 E8.40592
M106 S239.7
G1 E6.40592 F2400
G92 E0
G1 X101.299 Y103.187 F7800
G1 E2 F2400
;TYPE:Solid infill
;WIDTH:0.452404
;HEIGHT:0.3
G1 F1200
G1 X102.688 Y101.798 E2.09505
G1 X102.845 Y101.553 E2.10911
G1 X102.966 Y100.972 E2.13787
G1 X100.843 Y103.094 E2.28316
G1 X100.17 Y103.218 E2.31626
G1 X103.11 Y100.279 E2.51746
G1 X103.148 Y100.096 E2.52649
G1 X103.078 Y99.762 E2.54302
G1 X99.654 Y103.186 E2.77739
G1 X99.19 Y103.101 E2.80019
G1 X102.984 Y99.307 E3.05981
G1 X102.889 Y98.853 E3.08227
G1 X98.727 Y103.015 E3.36714
G1 X98.665 Y103.004 E3.3702
G1 X98.433 Y102.877 E3.383
G1 X98.374 Y102.82 E3.38698
G1 X102.731 Y98.462 E3.68525
G1 X102.686 Y98.391 E3.68933
G1 X102.466 Y98.179 E3.70413
G1 X98.094 Y102.551 E4.00335
G1 X97.814 Y102.282 E4.02213
G1 X102.186 Y97.91 E4.32136
G1 X101.906 Y97.641 E4.34014
G1 X97.534 Y102.013 E4.63936
G1 X97.314 Y101.801 E4.65415
G1 X97.268 Y101.73 E4.65824
G1 X101.626 Y97.372 E4.95651
G1 X101.567 Y97.315 E4.96049
G1 X101.335 Y97.188 E4.97328
G1 X101.273 Y97.177 E4.97635
G1 X97.111 Y101.339 E5.26121
G1 X97.016 Y100.885 E5.28367
G1 X100.809 Y97.092 E5.54328
G1 X100.346 Y97.006 E5.56609
G1 X96.922 Y100.43 E5.80045
G1 X96.852 Y100.096 E5.81698
G1 X96.89 Y99.913 E5.82602
G1 X99.83 Y96.974 E6.0272
G1 X99.157 Y97.098 E6.0603
G1 X97.034 Y99.22 E6.20558
G1 X97.155 Y98.639 E6.23433
G1 X97.312 Y98.394 E6.24841
G1 X98.701 Y97.005 E6.34344
M106 S234.6
;LAYER_CHANGE
;Z:1.55
;HEIGHT:0.3
G1 Z1.55 F7800
G1 X98.404 Y96.462
;TYPE:Perimeter
;WIDTH:0.45
G1 F900
G1 X98.627 Y96.34 E6.35564
G1 X100 Y96.087 E6.42281
G1 X101.373 Y96.34 E6.48997
G1 X102.729 Y97.08 E6.56424
G1 X102.787 Y97.136 E6.56811
G1 X103.678 Y98.528 E6.64762
G1 X104.004 Y100.096 E6.72466
G1 X103.678 Y101.664 E6.80171
G1 X102.787 Y103.056 E6.88121
G1 X102.729 Y103.112 E6.88509
G1 X101.373 Y103.852 E6.95935
G1 X100 Y104.105 E7.02652
G1 X98.627 Y103.852 E7.09368
G1 X97.271 Y103.112 E7.16794
G1 X97.213 Y103.056 E7.17182
G1 X96.322 Y101.664 E7.25133
G1 X95.996 Y100.096 E7.32837
G1 X96.322 Y98.528 E7.40541
G1 X97.213 Y97.136 E7.48492
G1 X97.271 Y97.08 E7.4888
G1 X98.351 Y96.491 E7.54797
G1 X98.166 Y96.152 F7800
G1 F900
G1 X98.496 Y95.972 E7.56603
G1 X100 Y95.695 E7.63958
G1 X101.504 Y95.972 E7.71313
G1 X102.959 Y96.766 E7.79284
G1 X103.087 Y96.889 E7.8014
G1 X104.041 Y98.38 E7.88652
G1 X104.398 Y100.096 E7.97084
G1 X104.041 Y101.812 E8.05515
G1 X103.087 Y103.303 E8.14027
G1 X102.959 Y103.426 E8.14883
G1 X101.504 Y104.22 E8.22854
G1 X100 Y104.497 E8.30209
G1 X98.496 Y104.22 E8.37564
G1 X97.041 Y103.426 E8.45535
G1 X96.913 Y103.303 E8.46391
G1 X95.959 Y101.812 E8.54903
G1 X95.602 Y100.096 E8.63335
G1 X95.959 Y98.38 E8.71766
G1 X96.913 Y96.889 E8.80278
G1 X97.041 Y96.766 E8.81134
G1 X98.114 Y96.181 E8.8701
G1 X97.929 Y95.842 F7800
;TYPE:Overhang perimeter
;WIDTH:0.4
;HEIGHT:0.4
M106 S255
G1 F900
G1 X98.366 Y95.604 E8.89608
G1 X100 Y95.303 E8.98291
G1 X101.634 Y95.604 E9.06974
G1 X103.189 Y96.452 E9.16225
G1 X103.387 Y96.643 E9.17663
G1 X104.404 Y98.232 E9.27518
G1 X104.792 Y100.096 E9.37467
G1 X104.404 Y101.961 E9.47417
G1 X103.387 Y103.549 E9.57272
G1 X103.189 Y103.74 E9.5871
G1 X101.634 Y104.588 E9.67961
G1 X100 Y104.889 E9.76644
G1 X98.366 Y104.588 E9.85327
G1 X96.811 Y103.74 E9.94578
G1 X96.613 Y103.549 E9.96015
G1 X95.596 Y101.961 E10.05871
G1 X95.208 Y100.096 E10.1582
G1 X95.596 Y98.232 E10.25769
G1 X96.613 Y96.643 E10.35625
G1 X96.811 Y96.452 E10.37062
G1 X97.876 Y95.871 E10.43402
M106 S234.6
G1 E8.43402 F2400
G92 E0
G1 X102.105 Y96.871 F7800
G1 E2 F2400
;TYPE:Solid infill
;WIDTH:0.461106
;HEIGHT:0.3
G1 F1200
G1 X102.575 Y97.341 E2.03285
G1 X103.406 Y98.639 E2.10912
G1 X103.431 Y98.758 E2.11514
G1 X101.305 Y96.633 E2.26386
G1 X100.604 Y96.493 E2.29924
G1 X103.578 Y99.466 E2.50733
G1 X103.709 Y100.096 E2.53916
G1 X103.698 Y100.148 E2.54177
G1 X99.943 Y96.392 E2.80459
G1 X99.469 Y96.479 E2.82842
G1 X103.602 Y100.612 E3.11764
G1 X103.505 Y101.077 E3.14111
G1 X98.995 Y96.566 E3.45672
G1 X98.725 Y96.616 E3.47033
G1 X98.569 Y96.701 E3.47911
G1 X103.409 Y101.541 E3.81778
G1 X103.193 Y101.886 E3.83793
G1 X98.206 Y96.899 E4.18691
G1 X97.843 Y97.097 E4.20737
G1 X102.974 Y102.228 E4.56641
G1 X102.755 Y102.57 E4.58651
G1 X97.48 Y97.295 E4.95563
G1 X97.438 Y97.32 E4.95803
G1 X97.245 Y97.622 E4.97574
G1 X102.52 Y102.897 E5.34486
G1 X102.157 Y103.095 E5.36532
G1 X97.026 Y97.964 E5.72437
G1 X96.807 Y98.306 E5.74446
G1 X101.794 Y103.293 E6.09344
G1 X101.431 Y103.491 E6.1139
G1 X96.591 Y98.651 E6.45257
G1 X96.495 Y99.116 E6.47604
G1 X101.005 Y103.626 E6.79165
G1 X100.531 Y103.713 E6.81548
G1 X96.398 Y99.58 E7.10469
G1 X96.302 Y100.045 E7.12817
G1 X100.057 Y103.8 E7.39098
G1 X100 Y103.811 E7.39387
G1 X99.396 Y103.7 E7.42428
G1 X96.422 Y100.726 E7.63236
G1 X96.569 Y101.434 E7.66816
G1 X98.694 Y103.559 E7.81687
G1 X97.459 Y102.885 E7.88649
G1 X96.852 Y102.279 E7.92896
M106 S226.95
;LAYER_CHANGE
;Z:1.85
;HEIGHT:0.3
G1 Z1.85 F7800
G1 X96.357 Y102.596
;TYPE:Perimeter
;WIDTH:0.45
G1 F900
G1 X95.762 Y101.666 E7.98204
G1 X95.443 Y100.096 E8.05911
G1 X95.762 Y98.526 E8.13618
G1 X96.788 Y96.923 E8.22771
G1 X97.138 Y96.613 E8.25022
G1 X98.683 Y95.77 E8.33483
G1 X100.013 Y95.536 E8.39981
G1 X101.316 Y95.769 E8.46346
G1 X102.862 Y96.613 E8.54816
G1 X103.212 Y96.923 E8.57066
G1 X104.238 Y98.526 E8.6622
G1 X104.557 Y100.096 E8.73927
G1 X104.238 Y101.666 E8.81634
G1 X103.212 Y103.269 E8.90787
G1 X102.862 Y103.579 E8.93038
G1 X101.316 Y104.423 E9.01506
G1 X100 Y104.658 E9.07936
G1 X98.684 Y104.423 E9.14367
G1 X97.138 Y103.579 E9.22835
G1 X96.788 Y103.269 E9.25085
G1 X96.389 Y102.646 E9.28642
G1 X96.065 Y102.854 F7800
G1 F900
G1 X95.398 Y101.814 E9.34585
G1 X95.049 Y100.096 E9.43015
G1 X95.398 Y98.378 E9.51445
G1 X96.492 Y96.67 E9.61202
G1 X96.915 Y96.295 E9.63921
G1 X98.554 Y95.401 E9.72897
G1 X100.014 Y95.144 E9.80028
G1 X101.446 Y95.401 E9.87024
G1 X103.085 Y96.295 E9.96005
G1 X103.508 Y96.67 E9.98724
G1 X104.602 Y98.378 E10.08481
G1 X104.951 Y100.096 E10.16911
G1 X104.602 Y101.814 E10.25341
G1 X103.508 Y103.522 E10.35099
G1 X103.085 Y103.897 E10.37817
G1 X101.446 Y104.791 E10.46797
G1 X100 Y105.049 E10.53861
G1 X98.554 Y104.791 E10.60924
G1 X96.915 Y103.897 E10.69904
G1 X96.492 Y103.522 E10.72623
