; generated by PrusaSlicer 2.4.0 on 2026-06-19 at 08:25:36 UTC

; 

; external perimeters extrusion width = 0.45mm
; perimeters extrusion width = 0.45mm
; infill extrusion width = 0.45mm
; solid infill extrusion width = 0.45mm
; top infill extrusion width = 0.40mm
; first layer extrusion width = 0.70mm

M107
M104 S200 ; set temperature
;TYPE:Custom
G28 ; home all axes
G1 Z5 F5000 ; lift nozzle
M109 S200 ; set temperature and wait for it to be reached
G21 ; set units to millimeters
G90 ; use absolute coordinates
M82 ; use absolute distances for extrusion
G92 E0
; Filament gcode
M107
;LAYER_CHANGE
;Z:0.35
;HEIGHT:0.35
G1 Z.35 F7800
G1 E-2 F2400
G92 E0
G1 X77.611 Y78.03 F7800
G1 E2 F2400
;TYPE:Skirt/Brim
;WIDTH:0.7
G1 F1800
G1 X79.965 Y76.379 E2.26143
G1 X97.465 Y69.131 E3.9838
G1 X99.704 Y68.633 E4.19235
G1 X102.535 Y69.131 E4.45377
G1 X120.035 Y76.379 E6.17615
G1 X121.97 Y77.611 E6.38469
G1 X123.621 Y79.965 E6.64612
G1 X130.869 Y97.465 E8.36849
G1 X131.367 Y99.704 E8.57704
G1 X130.869 Y102.535 E8.83846
G1 X123.621 Y120.035 E10.56084
G1 X122.389 Y121.97 E10.76938
G1 X120.035 Y123.621 E11.03081
G1 X102.535 Y130.869 E12.75319
G1 X100.296 Y131.367 E12.96173
G1 X97.465 Y130.869 E13.22315
G1 X79.965 Y123.621 E14.94553
G1 X78.03 Y122.389 E15.15407
G1 X76.379 Y120.035 E15.4155
G1 X69.131 Y102.535 E17.13788
G1 X68.633 Y100.296 E17.34642
G1 X69.131 Y97.465 E17.60784
G1 X76.379 Y79.965 E19.33022
G1 X77.578 Y78.08 E19.5333
G1 E17.5333 F2400
G92 E0
G1 X95.885 Y94.843 F7800
G1 E2 F2400
;TYPE:Perimeter
G1 F1800
G1 X96.332 Y94.511 E2.05065
G1 X96.888 Y94.178 E2.10957
G1 X97.474 Y93.901 E2.16847
G1 X98.084 Y93.683 E2.22739
G1 X98.712 Y93.525 E2.28629
G1 X99.353 Y93.43 E2.3452
G1 X99.961 Y93.4 E2.40052
G1 X100.642 Y93.429 E2.46254
G1 X101.288 Y93.525 E2.52192
G1 X101.916 Y93.683 E2.58083
G1 X102.526 Y93.901 E2.63974
G1 X103.112 Y94.178 E2.69865
G1 X103.668 Y94.511 E2.75756
G1 X104.188 Y94.897 E2.81647
G1 X104.668 Y95.332 E2.87538
G1 X105.103 Y95.812 E2.93429
G1 X105.489 Y96.332 E2.9932
G1 X105.822 Y96.888 E3.05211
G1 X106.099 Y97.474 E3.11102
G1 X106.317 Y98.084 E3.16993
G1 X106.475 Y98.712 E3.22884
G1 X106.57 Y99.353 E3.28775
G1 X106.602 Y100 E3.34666
G1 X106.57 Y100.647 E3.40557
G1 X106.475 Y101.288 E3.46448
G1 X106.317 Y101.916 E3.52338
G1 X106.099 Y102.526 E3.5823
G1 X105.822 Y103.112 E3.6412
G1 X105.489 Y103.668 E3.70011
G1 X105.103 Y104.188 E3.75903
G1 X104.668 Y104.668 E3.81793
G1 X104.188 Y105.103 E3.87684
G1 X103.668 Y105.489 E3.93575
G1 X103.112 Y105.822 E3.99466
G1 X102.526 Y106.099 E4.05357
G1 X101.916 Y106.317 E4.11248
G1 X101.288 Y106.475 E4.17139
G1 X100.647 Y106.57 E4.2303
G1 X100 Y106.602 E4.28921
G1 X99.353 Y106.57 E4.34812
G1 X98.712 Y106.475 E4.40703
G1 X98.084 Y106.317 E4.46594
G1 X97.474 Y106.099 E4.52485
G1 X96.888 Y105.822 E4.58376
G1 X96.332 Y105.489 E4.64267
G1 X95.812 Y105.103 E4.70158
G1 X95.332 Y104.668 E4.76049
G1 X94.897 Y104.188 E4.8194
G1 X94.511 Y103.668 E4.87831
G1 X94.178 Y103.112 E4.93722
G1 X93.901 Y102.526 E4.99613
G1 X93.683 Y101.916 E5.05504
G1 X93.525 Y101.288 E5.11395
G1 X93.43 Y100.647 E5.17286
G1 X93.398 Y100 E5.23177
G1 X93.43 Y99.353 E5.29068
G1 X93.525 Y98.712 E5.34959
G1 X93.683 Y98.084 E5.4085
G1 X93.901 Y97.474 E5.46741
G1 X94.178 Y96.888 E5.52632
G1 X94.511 Y96.332 E5.58522
G1 X94.897 Y95.812 E5.64414
G1 X95.332 Y95.332 E5.70305
G1 X95.837 Y94.878 E5.76474
G1 X96.093 Y95.485 F7800
G1 F1800
G1 X96.68 Y95.031 E5.83217
G1 X97.183 Y94.73 E5.8855
G1 X97.713 Y94.479 E5.93883
G1 X98.265 Y94.281 E5.99216
G1 X98.834 Y94.139 E6.04548
G1 X99.414 Y94.053 E6.09881
G1 X99.963 Y94.026 E6.14873
G1 X100.583 Y94.052 E6.20516
G1 X101.166 Y94.139 E6.25878
G1 X101.735 Y94.281 E6.3121
G1 X102.287 Y94.479 E6.36543
G1 X102.817 Y94.73 E6.41876
G1 X103.32 Y95.031 E6.47209
G1 X103.791 Y95.38 E6.52541
G1 X104.226 Y95.774 E6.57874
G1 X104.62 Y96.209 E6.63206
G1 X104.969 Y96.68 E6.68539
G1 X105.27 Y97.183 E6.73872
G1 X105.521 Y97.713 E6.79205
G1 X105.719 Y98.265 E6.84537
G1 X105.861 Y98.834 E6.8987
G1 X105.947 Y99.414 E6.95203
G1 X105.976 Y100 E7.00535
G1 X105.947 Y100.586 E7.05868
G1 X105.861 Y101.166 E7.11201
G1 X105.719 Y101.735 E7.16533
G1 X105.521 Y102.287 E7.21866
G1 X105.27 Y102.817 E7.27199
G1 X104.969 Y103.32 E7.32531
G1 X104.62 Y103.791 E7.37864
G1 X104.226 Y104.226 E7.43197
G1 X103.791 Y104.62 E7.4853
G1 X103.32 Y104.969 E7.53862
G1 X102.817 Y105.27 E7.59195
G1 X102.287 Y105.521 E7.64527
G1 X101.735 Y105.719 E7.6986
G1 X101.166 Y105.861 E7.75193
G1 X100.586 Y105.947 E7.80526
G1 X100 Y105.976 E7.85858
G1 X99.414 Y105.947 E7.91191
G1 X98.834 Y105.861 E7.96524
G1 X98.265 Y105.719 E8.01856
G1 X97.713 Y105.521 E8.07189
G1 X97.183 Y105.27 E8.12522
G1 X96.68 Y104.969 E8.17855
G1 X96.209 Y104.62 E8.23187
G1 X95.774 Y104.226 E8.2852
G1 X95.38 Y103.791 E8.33852
G1 X95.031 Y103.32 E8.39185
G1 X94.73 Y102.817 E8.44518
G1 X94.479 Y102.287 E8.49851
G1 X94.281 Y101.735 E8.55183
G1 X94.139 Y101.166 E8.60516
G1 X94.053 Y100.586 E8.65849
G1 X94.024 Y100 E8.71181
G1 X94.053 Y99.414 E8.76514
G1 X94.139 Y98.834 E8.81847
G1 X94.281 Y98.265 E8.87179
G1 X94.479 Y97.713 E8.92512
G1 X94.73 Y97.183 E8.97845
G1 X95.031 Y96.68 E9.03177
G1 X95.38 Y96.209 E9.0851
G1 X95.774 Y95.774 E9.13843
G1 X96.049 Y95.525 E9.17213
G1 X96.217 Y96.217 F7800
;TYPE:External perimeter
G1 F1800
G1 X96.606 Y95.864 E9.21988
G1 X97.027 Y95.551 E9.26762
G1 X97.478 Y95.281 E9.31537
G1 X97.952 Y95.057 E9.36311
G1 X98.447 Y94.88 E9.41085
G1 X98.956 Y94.752 E9.4586
G1 X99.476 Y94.675 E9.50634
G1 X99.965 Y94.651 E9.55086
G1 X100.523 Y94.675 E9.60171
G1 X101.044 Y94.752 E9.64956
G1 X101.553 Y94.88 E9.6973
G1 X102.048 Y95.057 E9.74505
G1 X102.522 Y95.281 E9.79279
G1 X102.973 Y95.551 E9.84054
G1 X103.394 Y95.864 E9.88828
G1 X103.783 Y96.217 E9.93602
G1 X104.136 Y96.606 E9.98377
G1 X104.449 Y97.027 E10.03151
G1 X104.719 Y97.478 E10.07926
G1 X104.943 Y97.952 E10.127
G1 X105.12 Y98.447 E10.17474
G1 X105.248 Y98.956 E10.22249
G1 X105.325 Y99.476 E10.27023
G1 X105.35 Y100 E10.31798
G1 X105.325 Y100.524 E10.36572
G1 X105.248 Y101.044 E10.41346
G1 X105.12 Y101.553 E10.46121
G1 X104.943 Y102.048 E10.50895
G1 X104.719 Y102.522 E10.5567
G1 X104.449 Y102.973 E10.60444
G1 X104.136 Y103.394 E10.65218
G1 X103.783 Y103.783 E10.69993
G1 X103.394 Y104.136 E10.74767
G1 X102.973 Y104.449 E10.79541
G1 X102.522 Y104.719 E10.84316
G1 X102.048 Y104.943 E10.8909
G1 X101.553 Y105.12 E10.93865
G1 X101.044 Y105.248 E10.98639
G1 X100.524 Y105.325 E11.03414
G1 X100 Y105.35 E11.08188
G1 X99.476 Y105.325 E11.12962
G1 X98.956 Y105.248 E11.17737
G1 X98.447 Y105.12 E11.22511
G1 X97.952 Y104.943 E11.27286
G1 X97.478 Y104.719 E11.3206
G1 X97.027 Y104.449 E11.36834
G1 X96.606 Y104.136 E11.41609
G1 X96.217 Y103.783 E11.46383
G1 X95.864 Y103.394 E11.51157
G1 X95.551 Y102.973 E11.55932
G1 X95.281 Y102.522 E11.60706
G1 X95.057 Y102.048 E11.65481
G1 X94.88 Y101.553 E11.70255
G1 X94.752 Y101.044 E11.75029
G1 X94.675 Y100.524 E11.79804
G1 X94.65 Y100 E11.84578
G1 X94.675 Y99.476 E11.89353
G1 X94.752 Y98.956 E11.94127
G1 X94.88 Y98.447 E11.98901
G1 X95.057 Y97.952 E12.03676
G1 X95.281 Y97.478 E12.0845
G1 X95.551 Y97.027 E12.13225
G1 X95.864 Y96.606 E12.17999
G1 X96.176 Y96.261 E12.22228
G1 X96.113 Y95.83 F7800
G1 E10.22228 F2400
G92 E0
G1 X94.059 Y108.002 F7800
G1 E2 F2400
;TYPE:Perimeter
G1 F1800
G1 X92.753 Y107.247 E2.13715
G1 X90.1 Y102.653 E2.61957
G1 X90.1 Y97.347 E3.102
G1 X92.753 Y92.753 E3.58443
G1 X97.347 Y90.1 E4.06686
G1 X102.653 Y90.1 E4.54929
G1 X107.247 Y92.753 E5.03172
G1 X109.9 Y97.347 E5.51414
G1 X109.9 Y102.653 E5.99657
G1 X107.247 Y107.247 E6.479
G1 X102.653 Y109.9 E6.96143
G1 X97.347 Y109.9 E7.44386
G1 X94.111 Y108.032 E7.78368
G1 X94.383 Y108.91 F7800
G1 F1800
G1 X92.295 Y107.705 E8.00288
G1 X89.475 Y102.82 E8.51575
G1 X89.475 Y97.18 E9.02863
G1 X92.295 Y92.295 E9.54151
G1 X97.18 Y89.475 E10.05439
G1 X102.82 Y89.475 E10.56727
G1 X107.705 Y92.295 E11.08015
G1 X110.525 Y97.18 E11.59302
G1 X110.525 Y102.82 E12.10591
G1 X107.705 Y107.705 E12.61878
G1 X102.82 Y110.525 E13.13166
G1 X97.18 Y110.525 E13.64454
G1 X94.435 Y108.94 E13.93277
G1 E11.93277 F2400
G92 E0
G1 X110.831 Y96.46 F7800
G1 E2 F2400
;TYPE:External perimeter
G1 F1800
G1 X108.481 Y92.39 E2.42737
G1 X110.697 Y91.11 E2.66005
G1 X114.138 Y94.551 E3.1025
G1 X110.883 Y96.43 E3.44424
G1 X110.577 Y96.769 F7800
G1 E1.44424 F2400
G92 E0
G1 X111.271 Y88.785 F7800
G1 E2 F2400
;TYPE:Perimeter
G1 F1800
G1 X122.486 Y100 E3.44223
G1 X121.92 Y100.566 E3.51501
G1 X117.755 Y96.4 E4.0507
G1 X113.99 Y96.4 E4.39298
G1 X113.916 Y96.122 E4.41914
G1 X116.173 Y94.819 E4.65616
G1 X110.903 Y89.549 E5.3339
G1 X110.316 Y89.887 E5.39552
G1 X110.113 Y89.684 E5.42168
G1 X110.851 Y88.404 E5.55603
G1 X111.227 Y88.744 E5.60207
G1 X111.702 Y88.332 F7800
G1 F1800
G1 X123.37 Y100 E7.10251
G1 X121.92 Y101.45 E7.28893
G1 X117.496 Y97.025 E7.85791
G1 X111.658 Y97.025 E8.38871
G1 X111.584 Y96.747 E8.41487
G1 X115.156 Y94.685 E8.7899
G1 X110.8 Y90.329 E9.35
G1 X108.609 Y91.595 E9.58007
G1 X108.405 Y91.391 E9.60623
G1 X110.697 Y87.421 E10.02304
G1 X111.658 Y88.292 E10.14087
G1 E8.14087 F2400
G92 E0
G1 X111.658 Y84.9 F7800
G1 E2 F2400
G1 F1800
G1 X104.561 Y84.9 E2.64526
G1 X103.878 Y86.084 E2.76957
G1 X103.6 Y86.01 E2.79573
G1 X103.6 Y84.9 E2.89661
G1 X101.6 Y84.9 E3.07847
G1 X101.6 Y84.1 E3.15126
G1 X115.9 Y84.1 E4.45159
G1 X115.9 Y84.9 E4.52437
G1 X111.718 Y84.9 E4.9047
G1 X111.718 Y85.525 F7800
G1 F1800
G1 X104.922 Y85.525 E5.52262
G1 X103.253 Y88.416 E5.82618
G1 X102.975 Y88.342 E5.85234
G1 X102.975 Y85.525 E6.10846
G1 X100.975 Y85.525 E6.29032
G1 X100.975 Y83.475 E6.47674
G1 X116.525 Y83.475 E7.89072
G1 X116.525 Y85.525 E8.07714
G1 X111.778 Y85.525 E8.50884
G1 E6.50884 F2400
G92 E0
G1 X100.566 Y78.08 F7800
G1 E2 F2400
G1 F1800
G1 X96.4 Y82.245 E2.53569
G1 X96.4 Y86.01 E2.87797
G1 X96.122 Y86.084 E2.90413
G1 X94.819 Y83.827 E3.14115
G1 X89.549 Y89.097 E3.8189
G1 X89.887 Y89.684 E3.88051
G1 X89.684 Y89.887 E3.90667
G1 X88.404 Y89.149 E4.04103
G1 X88.785 Y88.729 E4.09251
G1 X100 Y77.514 E5.53474
G1 X100.524 Y78.037 E5.60207
G1 X100.965 Y77.595 F7800
G1 F1800
G1 X101.45 Y78.08 E5.66434
G1 X97.025 Y82.504 E6.23332
G1 X97.025 Y88.342 E6.76412
G1 X96.747 Y88.416 E6.79028
G1 X94.685 Y84.844 E7.16531
G1 X90.329 Y89.2 E7.72541
G1 X91.595 Y91.391 E7.95548
G1 X91.391 Y91.595 E7.98164
G1 X87.421 Y89.303 E8.39845
G1 X88.332 Y88.298 E8.52173
G1 X100 Y76.63 E10.02217
G1 X100.923 Y77.553 E10.14087
G1 E8.14087 F2400
G92 E0
G1 X94.551 Y85.862 F7800
G1 E2 F2400
;TYPE:External perimeter
G1 F1800
G1 X96.46 Y89.169 E2.34719
G1 X92.39 Y91.519 E2.77456
G1 X91.11 Y89.303 E3.00725
G1 X94.509 Y85.905 E3.44423
G1 X94.843 Y85.589 F7800
G1 E1.44423 F2400
G92 E0
G1 X84.9 Y85.905 F7800
G1 E2 F2400
;TYPE:Perimeter
G1 F1800
G1 X84.9 Y95.439 E2.86695
G1 X86.084 Y96.122 E2.99126
G1 X86.01 Y96.4 E3.01741
G1 X84.9 Y96.4 E3.1183
G1 X84.9 Y98.4 E3.30016
G1 X84.1 Y98.4 E3.37294
G1 X84.1 Y84.1 E4.67327
G1 X84.9 Y84.1 E4.74606
G1 X84.9 Y85.845 E4.9047
G1 X85.525 Y85.845 F7800
G1 F1800
G1 X85.525 Y95.078 E5.7443
G1 X88.416 Y96.747 E6.04786
G1 X88.342 Y97.025 E6.07402
G1 X85.525 Y97.025 E6.33014
G1 X85.525 Y99.025 E6.512
G1 X83.475 Y99.025 E6.69843
G1 X83.475 Y83.475 E8.1124
G1 X85.525 Y83.475 E8.29883
G1 X85.525 Y85.785 E8.50884
G1 E6.50884 F2400
G92 E0
G1 X78.08 Y99.434 F7800
G1 E2 F2400
G1 F1800
G1 X82.245 Y103.6 E2.53569
G1 X86.01 Y103.6 E2.87797
G1 X86.084 Y103.878 E2.90413
G1 X83.827 Y105.181 E3.14115
G1 X89.097 Y110.451 E3.8189
G1 X89.684 Y110.113 E3.88051
G1 X89.887 Y110.316 E3.90667
G1 X89.149 Y111.596 E4.04103
G1 X88.729 Y111.215 E4.09251
G1 X77.514 Y100 E5.53474
G1 X78.037 Y99.476 E5.60207
G1 X77.595 Y99.035 F7800
G1 F1800
G1 X78.08 Y98.55 E5.66434
G1 X82.504 Y102.975 E6.23332
G1 X88.342 Y102.975 E6.76412
G1 X88.416 Y103.253 E6.79028
G1 X84.844 Y105.315 E7.16531
G1 X89.2 Y109.671 E7.72541
G1 X91.391 Y108.405 E7.95548
G1 X91.595 Y108.609 E7.98164
G1 X89.303 Y112.579 E8.39845
G1 X88.298 Y111.668 E8.52173
G1 X76.63 Y100 E10.02217
G1 X77.553 Y99.077 E10.14087
G1 E8.14087 F2400
G92 E0
G1 X85.862 Y105.449 F7800
G1 E2 F2400
;TYPE:External perimeter
G1 F1800
G1 X89.169 Y103.54 E2.34719
G1 X91.519 Y107.61 E2.77456
G1 X89.303 Y108.89 E3.00725
G1 X85.905 Y105.491 E3.44424
G1 X85.589 Y105.157 F7800
G1 E1.44424 F2400
G92 E0
G1 X96.401 Y115.9 F7800
G1 E2 F2400
;TYPE:Perimeter
G1 F1800
G1 X84.1 Y115.9 E3.11851
G1 X84.1 Y115.1 E3.1913
G1 X95.439 Y115.1 E4.22235
G1 X96.122 Y113.916 E4.34666
G1 X96.4 Y113.99 E4.37282
G1 X96.4 Y115.1 E4.4737
G1 X98.4 Y115.1 E4.65556
G1 X98.4 Y115.9 E4.72834
G1 X96.461 Y115.9 E4.9047
G1 E2.9047 F2400
G92 E0
G1 X98.675 Y116.525 F7800
G1 E2 F2400
G1 F1800
G1 X83.475 Y116.525 E3.38217
G1 X83.475 Y114.475 E3.5686
G1 X95.078 Y114.475 E4.62366
G1 X96.747 Y111.584 E4.92722
G1 X97.025 Y111.658 E4.95338
G1 X97.025 Y114.475 E5.2095
G1 X99.025 Y114.475 E5.39136
G1 X99.025 Y116.525 E5.57779
G1 X98.735 Y116.525 E5.60413
G1 E3.60413 F2400
G92 E0
G1 X105.449 Y114.138 F7800
G1 E2 F2400
;TYPE:External perimeter
G1 F1800
G1 X103.54 Y110.831 E2.34719
G1 X107.61 Y108.481 E2.77456
G1 X108.89 Y110.697 E3.00725
G1 X105.491 Y114.095 E3.44423
G1 X105.157 Y114.411 F7800
G1 E1.44423 F2400
G92 E0
G1 X111.596 Y110.851 F7800
G1 E2 F2400
;TYPE:Perimeter
G1 F1800
G1 X111.215 Y111.271 E2.05149
G1 X100 Y122.486 E3.49371
G1 X99.434 Y121.92 E3.5665
G1 X103.6 Y117.755 E4.10219
G1 X103.6 Y113.99 E4.44446
G1 X103.878 Y113.916 E4.47062
G1 X105.181 Y116.173 E4.70765
G1 X110.451 Y110.903 E5.38539
G1 X110.113 Y110.316 E5.44701
G1 X110.316 Y110.113 E5.47317
G1 X111.544 Y110.821 E5.60207
G1 X112.579 Y110.697 F7800
G1 F1800
G1 X111.668 Y111.702 E5.72535
G1 X100 Y123.37 E7.2258
G1 X98.55 Y121.92 E7.41222
G1 X102.975 Y117.496 E7.9812
G1 X102.975 Y111.658 E8.512
G1 X103.253 Y111.584 E8.53816
G1 X105.315 Y115.156 E8.91319
G1 X109.671 Y110.8 E9.47328
G1 X108.405 Y108.609 E9.70335
G1 X108.609 Y108.405 E9.72951
G1 X112.527 Y110.667 E10.14087
G1 E8.14087 F2400
G92 E0
G1 X115.9 Y115.9 F7800
G1 E2 F2400
G1 F1800
G1 X115.1 Y115.9 E2.07278
G1 X115.1 Y104.561 E3.10384
G1 X113.916 Y103.878 E3.22814
G1 X113.99 Y103.6 E3.2543
G1 X115.1 Y103.6 E3.35518
G1 X115.1 Y101.6 E3.53704
G1 X115.9 Y101.6 E3.60983
G1 X115.9 Y115.84 E4.9047
G1 X116.525 Y116.525 F7800
G1 F1800
G1 X114.475 Y116.525 E5.09113
G1 X114.475 Y104.922 E6.1462
G1 X111.584 Y103.253 E6.44976
G1 X111.658 Y102.975 E6.47592
G1 X114.475 Y102.975 E6.73203
G1 X114.475 Y100.975 E6.91389
G1 X116.525 Y100.975 E7.10032
G1 X116.525 Y116.465 E8.50884
G1 E6.50884 F2400
G92 E0
G1 X97.65 Y88.85 F7800
G1 E2 F2400
;TYPE:External perimeter
G1 F1800
G1 X102.35 Y88.85 E2.42737
G1 X102.35 Y86.15 E2.67288
G1 X100.35 Y86.15 E2.85474
G1 X100.35 Y82.85 E3.15481
G1 X117.15 Y82.85 E4.68242
G1 X117.15 Y86.15 E4.98249
G1 X105.283 Y86.15 E6.06157
G1 X103.54 Y89.169 E6.37854
G1 X107.61 Y91.519 E6.80591
G1 X110.543 Y86.438 E7.33933
G1 X112.133 Y87.879 E7.53441
G1 X124.254 Y100 E9.09307
G1 X121.92 Y102.333 E9.39313
G1 X117.237 Y97.65 E9.9954
G1 X111.15 Y97.65 E10.54887
G1 X111.15 Y102.35 E10.97624
G1 X113.85 Y102.35 E11.22175
G1 X113.85 Y100.35 E11.40361
G1 X117.15 Y100.35 E11.70368
G1 X117.15 Y117.15 E13.2313
G1 X113.85 Y117.15 E13.53136
G1 X113.85 Y105.283 E14.61045
G1 X110.831 Y103.54 E14.92741
G1 X108.481 Y107.61 E15.35478
G1 X113.562 Y110.543 E15.8882
G1 X112.121 Y112.133 E16.08328
G1 X100 Y124.254 E17.64194
G1 X97.667 Y121.92 E17.94201
G1 X102.35 Y117.237 E18.54427
G1 X102.35 Y111.15 E19.09775
G1 X97.65 Y111.15 E19.52512
G1 X97.65 Y113.85 E19.77063
G1 X99.65 Y113.85 E19.95248
G1 X99.65 Y117.15 E20.25255
G1 X82.85 Y117.15 E21.78017
G1 X82.85 Y113.85 E22.08024
G1 X94.717 Y113.85 E23.15932
G1 X96.46 Y110.831 E23.47628
G1 X92.39 Y108.481 E23.90365
G1 X89.457 Y113.562 E24.43707
G1 X87.867 Y112.121 E24.63216
G1 X75.746 Y100 E26.19082
G1 X78.08 Y97.667 E26.49088
G1 X82.763 Y102.35 E27.09314
G1 X88.85 Y102.35 E27.64662
G1 X88.85 Y97.65 E28.07399
G1 X86.15 Y97.65 E28.3195
G1 X86.15 Y99.65 E28.50136
G1 X82.85 Y99.65 E28.80143
G1 X82.85 Y82.85 E30.32904
G1 X86.15 Y82.85 E30.62911
G1 X86.15 Y94.717 E31.70819
G1 X89.169 Y96.46 E32.02516
G1 X91.519 Y92.39 E32.45253
G1 X86.438 Y89.457 E32.98595
