; generated by PrusaSlicer 2.4.0 on 2026-06-18 at 08:31:16 UTC

; 

; external perimeters extrusion width = 0.45mm
; perimeters extrusion width = 0.45mm
; infill extrusion width = 0.45mm
; solid infill extrusion width = 0.45mm
; top infill extrusion width = 0.40mm
; first layer extrusion width = 0.70mm

M107
M104 S200 ; set temperature
;TYPE:Custom
G28 ; home all axes
G1 Z5 F5000 ; lift nozzle
M109 S200 ; set temperature and wait for it to be reached
G21 ; set units to millimeters
G90 ; use absolute coordinates
M82 ; use absolute distances for extrusion
G92 E0
; Filament gcode
M107
;LAYER_CHANGE
;Z:0.35
;HEIGHT:0.35
G1 Z.35 F7800
G1 E-2 F2400
G92 E0
G1 X88.011 Y88.491 F7800
G1 E2 F2400
;TYPE:Skirt/Brim
;WIDTH:0.7
G1 F1800
G1 X89.203 Y87.365 E2.1491
G1 X90.498 Y86.364 E2.29791
G1 X91.88 Y85.498 E2.44622
G1 X93.341 Y84.772 E2.59453
G1 X94.865 Y84.193 E2.74284
G1 X96.439 Y83.766 E2.89115
G1 X98.048 Y83.495 E3.03945
G1 X99.675 Y83.383 E3.18776
G1 X101.305 Y83.431 E3.33607
G1 X102.923 Y83.639 E3.48438
G1 X104.513 Y84.004 E3.63268
G1 X106.059 Y84.524 E3.78099
G1 X107.546 Y85.192 E3.9293
G1 X108.962 Y86.003 E4.07761
G1 X110.29 Y86.949 E4.22592
G1 X111.52 Y88.02 E4.37422
G1 X112.639 Y89.207 E4.52254
G1 X113.631 Y90.491 E4.67005
G1 X114.494 Y91.868 E4.81785
G1 X115.225 Y93.336 E4.96693
G1 X115.804 Y94.857 E5.11498
G1 X116.231 Y96.426 E5.26276
G1 X116.503 Y98.034 E5.41106
G1 X116.616 Y99.661 E5.55937
G1 X116.569 Y101.291 E5.70767
G1 X116.363 Y102.909 E5.85598
G1 X115.997 Y104.507 E6.00507
G1 X115.479 Y106.051 E6.1531
G1 X114.81 Y107.541 E6.30168
G1 X114.001 Y108.954 E6.44972
G1 X113.06 Y110.279 E6.59751
G1 X111.989 Y111.509 E6.7458
G1 X110.797 Y112.635 E6.89491
G1 X109.502 Y113.636 E7.04371
G1 X108.12 Y114.502 E7.19203
G1 X106.659 Y115.228 E7.34033
G1 X105.135 Y115.807 E7.48864
G1 X103.561 Y116.234 E7.63695
G1 X101.952 Y116.505 E7.78525
G1 X100.325 Y116.617 E7.93357
G1 X98.695 Y116.569 E8.08187
G1 X97.077 Y116.361 E8.23018
G1 X95.487 Y115.996 E8.37849
G1 X93.941 Y115.476 E8.52679
G1 X92.454 Y114.808 E8.67511
G1 X91.038 Y113.997 E8.82341
G1 X89.71 Y113.051 E8.97172
G1 X88.48 Y111.98 E9.12002
G1 X87.361 Y110.793 E9.26834
G1 X86.369 Y109.509 E9.41586
G1 X85.506 Y108.132 E9.56365
G1 X84.775 Y106.664 E9.71274
G1 X84.196 Y105.143 E9.86078
G1 X83.769 Y103.574 E10.00857
G1 X83.497 Y101.966 E10.15687
G1 X83.383 Y100.331 E10.30596
G1 X83.431 Y98.703 E10.454
G1 X83.637 Y97.091 E10.60179
G1 X84.003 Y95.493 E10.75088
G1 X84.521 Y93.949 E10.89891
G1 X85.19 Y92.459 E11.04749
G1 X85.999 Y91.046 E11.19552
G1 X86.94 Y89.721 E11.34332
G1 X87.971 Y88.536 E11.48616
G1 E9.48616 F2400
G92 E0
G1 X94.095 Y94.095 F7800
G1 E2 F2400
;TYPE:External perimeter
G1 F1800
G1 X94.703 Y93.545 E2.07452
G1 X95.361 Y93.057 E2.14903
G1 X96.064 Y92.636 E2.22354
G1 X96.804 Y92.285 E2.29806
G1 X97.576 Y92.009 E2.37257
G1 X98.371 Y91.81 E2.44709
G1 X99.182 Y91.69 E2.5216
G1 X99.986 Y91.65 E2.59484
G1 X100.818 Y91.69 E2.6706
G1 X101.629 Y91.81 E2.74514
G1 X102.424 Y92.009 E2.81965
G1 X103.196 Y92.285 E2.89416
G1 X103.936 Y92.636 E2.96868
G1 X104.639 Y93.057 E3.04319
G1 X105.297 Y93.545 E3.11771
G1 X105.905 Y94.095 E3.19222
G1 X106.455 Y94.703 E3.26673
G1 X106.943 Y95.361 E3.34125
G1 X107.364 Y96.064 E3.41576
G1 X107.715 Y96.804 E3.49028
G1 X107.991 Y97.576 E3.56479
G1 X108.19 Y98.371 E3.63931
G1 X108.31 Y99.182 E3.71382
G1 X108.35 Y100 E3.78833
G1 X108.31 Y100.818 E3.86285
G1 X108.19 Y101.629 E3.93736
G1 X107.991 Y102.424 E4.01188
G1 X107.715 Y103.196 E4.08639
G1 X107.364 Y103.936 E4.16091
G1 X106.943 Y104.639 E4.23542
G1 X106.455 Y105.297 E4.30993
G1 X105.905 Y105.905 E4.38445
G1 X105.297 Y106.455 E4.45896
G1 X104.639 Y106.943 E4.53348
G1 X103.936 Y107.364 E4.60799
G1 X103.196 Y107.715 E4.68251
G1 X102.424 Y107.991 E4.75702
G1 X101.629 Y108.19 E4.83153
G1 X100.818 Y108.31 E4.90605
G1 X100 Y108.35 E4.98056
G1 X99.182 Y108.31 E5.05508
G1 X98.371 Y108.19 E5.12959
G1 X97.576 Y107.991 E5.20411
G1 X96.804 Y107.715 E5.27862
G1 X96.064 Y107.364 E5.35313
G1 X95.361 Y106.943 E5.42765
G1 X94.703 Y106.455 E5.50216
G1 X94.095 Y105.905 E5.57668
G1 X93.545 Y105.297 E5.65119
G1 X93.057 Y104.639 E5.7257
G1 X92.636 Y103.936 E5.80022
G1 X92.285 Y103.196 E5.87473
G1 X92.009 Y102.424 E5.94925
G1 X91.81 Y101.629 E6.02376
G1 X91.69 Y100.818 E6.09827
G1 X91.65 Y100 E6.17279
G1 X91.69 Y99.182 E6.2473
G1 X91.81 Y98.371 E6.32182
G1 X92.009 Y97.576 E6.39633
G1 X92.285 Y96.804 E6.47085
G1 X92.636 Y96.064 E6.54536
G1 X93.057 Y95.361 E6.61987
G1 X93.545 Y94.703 E6.69439
G1 X94.055 Y94.14 E6.76345
G1 X93.992 Y93.709 F7800
G1 X93.134 Y93.224
G1 F1800
G1 X93.878 Y92.541 E6.85532
G1 X94.639 Y91.977 E6.94143
G1 X95.451 Y91.49 E7.02754
G1 X96.307 Y91.085 E7.11365
G1 X97.199 Y90.766 E7.19975
G1 X98.117 Y90.536 E7.28586
G1 X99.054 Y90.397 E7.37195
G1 X100.008 Y90.351 E7.45884
G1 X100.946 Y90.397 E7.54418
G1 X101.883 Y90.536 E7.63029
G1 X102.801 Y90.766 E7.71639
G1 X103.693 Y91.085 E7.8025
G1 X104.549 Y91.49 E7.88861
G1 X105.361 Y91.977 E7.97471
G1 X106.122 Y92.541 E8.06082
G1 X106.823 Y93.177 E8.14693
G1 X107.459 Y93.878 E8.23303
G1 X108.023 Y94.639 E8.31914
G1 X108.51 Y95.451 E8.40525
G1 X108.915 Y96.307 E8.49136
G1 X109.234 Y97.199 E8.57746
G1 X109.464 Y98.117 E8.66357
G1 X109.603 Y99.054 E8.74968
G1 X109.65 Y100 E8.83579
G1 X109.603 Y100.946 E8.92189
G1 X109.464 Y101.883 E9.008
G1 X109.234 Y102.801 E9.09411
G1 X108.915 Y103.693 E9.18021
G1 X108.51 Y104.549 E9.26632
G1 X108.023 Y105.361 E9.35243
G1 X107.459 Y106.122 E9.43854
G1 X106.823 Y106.823 E9.52464
G1 X106.122 Y107.459 E9.61075
G1 X105.361 Y108.023 E9.69686
G1 X104.549 Y108.51 E9.78296
G1 X103.693 Y108.915 E9.86907
G1 X102.801 Y109.234 E9.95518
G1 X101.883 Y109.464 E10.04129
G1 X100.946 Y109.603 E10.12739
G1 X100 Y109.65 E10.2135
G1 X99.054 Y109.603 E10.29961
G1 X98.117 Y109.464 E10.38571
G1 X97.199 Y109.234 E10.47182
G1 X96.307 Y108.915 E10.55793
G1 X95.451 Y108.51 E10.64403
G1 X94.639 Y108.023 E10.73014
G1 X93.878 Y107.459 E10.81625
G1 X93.177 Y106.823 E10.90236
G1 X92.541 Y106.122 E10.98846
G1 X91.977 Y105.361 E11.07457
G1 X91.49 Y104.549 E11.16068
G1 X91.085 Y103.693 E11.24678
G1 X90.766 Y102.801 E11.33289
G1 X90.536 Y101.883 E11.419
G1 X90.397 Y100.946 E11.50511
G1 X90.35 Y100 E11.59121
G1 X90.397 Y99.054 E11.67732
G1 X90.536 Y98.117 E11.76343
G1 X90.766 Y97.199 E11.84953
G1 X91.085 Y96.307 E11.93564
G1 X91.49 Y95.451 E12.02175
G1 X91.977 Y94.639 E12.10785
G1 X92.541 Y93.878 E12.19396
G1 X93.094 Y93.268 E12.26882
G1 X93.521 Y93.326 F7800
G1 X93.574 Y93.704
;TYPE:Gap fill
;WIDTH:0.748221
G1 F1800
G1 X94.291 Y93.043 E12.36428
G1 X95 Y92.517 E12.45079
G1 X95.758 Y92.063 E12.5373
G1 X96.556 Y91.685 E12.6238
G1 X97.387 Y91.388 E12.71031
G1 X98.244 Y91.173 E12.79682
G1 X99.117 Y91.044 E12.88328
G1 X100.002 Y91.001 E12.96999
G1 X100.882 Y91.044 E13.05632
G1 X101.756 Y91.173 E13.14283
G1 X102.613 Y91.388 E13.22934
G1 X103.444 Y91.685 E13.31584
G1 X104.242 Y92.063 E13.40235
G1 X105 Y92.517 E13.48885
G1 X105.709 Y93.043 E13.57536
G1 X106.364 Y93.636 E13.66187
G1 X106.957 Y94.291 E13.74837
G1 X107.483 Y95 E13.83488
G1 X107.937 Y95.758 E13.92138
G1 X108.315 Y96.556 E14.00789
G1 X108.612 Y97.387 E14.09439
G1 X108.827 Y98.244 E14.1809
G1 X108.956 Y99.118 E14.26741
G1 X109 Y100 E14.35391
G1 X108.956 Y100.882 E14.44042
G1 X108.827 Y101.756 E14.52692
G1 X108.612 Y102.613 E14.61343
G1 X108.315 Y103.444 E14.69994
G1 X107.937 Y104.242 E14.78644
G1 X107.483 Y105 E14.87295
G1 X106.957 Y105.709 E14.95946
G1 X106.364 Y106.364 E15.04596
G1 X105.709 Y106.957 E15.13247
G1 X105 Y107.483 E15.21898
G1 X104.242 Y107.937 E15.30548
G1 X103.444 Y108.315 E15.39199
G1 X102.613 Y108.612 E15.47849
G1 X101.756 Y108.827 E15.565
G1 X100.882 Y108.956 E15.65151
G1 X100 Y109 E15.73801
G1 X99.118 Y108.956 E15.82452
G1 X98.244 Y108.827 E15.91102
G1 X97.387 Y108.612 E15.99753
G1 X96.556 Y108.315 E16.08403
G1 X95.758 Y107.937 E16.17054
G1 X95 Y107.483 E16.25705
G1 X94.291 Y106.957 E16.34355
G1 X93.636 Y106.364 E16.43006
G1 X93.043 Y105.709 E16.51656
G1 X92.517 Y105 E16.60307
G1 X92.063 Y104.242 E16.68958
G1 X91.685 Y103.444 E16.77608
G1 X91.388 Y102.613 E16.86259
G1 X91.173 Y101.756 E16.94909
G1 X91.044 Y100.882 E17.0356
G1 X91 Y100 E17.12211
G1 X91.044 Y99.118 E17.20861
G1 X91.173 Y98.244 E17.29512
G1 X91.388 Y97.387 E17.38162
G1 X91.685 Y96.556 E17.46813
G1 X92.063 Y95.758 E17.55464
G1 X92.517 Y95 E17.64114
G1 X93.043 Y94.291 E17.72765
G1 X93.534 Y93.749 E17.79928
;LAYER_CHANGE
;Z:0.65
;HEIGHT:0.3
G1 Z.65 F7800
G1 X94.193 Y93.655
;TYPE:Perimeter
;WIDTH:0.45
G1 F3600
G1 X94.537 Y93.343 E17.8216
G1 X95.216 Y92.84 E17.86224
G1 X95.941 Y92.405 E17.90289
G1 X96.705 Y92.044 E17.94353
G1 X97.5 Y91.759 E17.98418
G1 X98.32 Y91.554 E18.02482
G1 X99.156 Y91.43 E18.06547
G1 X99.96 Y91.391 E18.10417
G1 X100.843 Y91.43 E18.14668
G1 X101.68 Y91.554 E18.1874
G1 X102.5 Y91.759 E18.22804
G1 X103.295 Y92.044 E18.26869
G1 X104.059 Y92.405 E18.30933
G1 X104.784 Y92.84 E18.34998
G1 X105.463 Y93.343 E18.39062
G1 X106.089 Y93.911 E18.43127
G1 X106.657 Y94.537 E18.47192
G1 X107.16 Y95.216 E18.51256
G1 X107.595 Y95.941 E18.55321
G1 X107.956 Y96.705 E18.59385
G1 X108.241 Y97.5 E18.6345
G1 X108.446 Y98.32 E18.67514
G1 X108.57 Y99.156 E18.71579
G1 X108.611 Y100 E18.75643
G1 X108.57 Y100.844 E18.79708
G1 X108.446 Y101.68 E18.83772
G1 X108.241 Y102.5 E18.87837
G1 X107.956 Y103.295 E18.91901
G1 X107.595 Y104.059 E18.95966
G1 X107.16 Y104.784 E19.0003
G1 X106.657 Y105.463 E19.04095
G1 X106.089 Y106.089 E19.0816
G1 X105.463 Y106.657 E19.12224
G1 X104.784 Y107.16 E19.16289
G1 X104.059 Y107.595 E19.20353
G1 X103.295 Y107.956 E19.24418
G1 X102.5 Y108.241 E19.28482
G1 X101.68 Y108.446 E19.32547
G1 X100.844 Y108.57 E19.36611
G1 X100 Y108.611 E19.40676
G1 X99.156 Y108.57 E19.4474
G1 X98.32 Y108.446 E19.48805
G1 X97.5 Y108.241 E19.5287
G1 X96.705 Y107.956 E19.56934
G1 X95.941 Y107.595 E19.60999
G1 X95.216 Y107.16 E19.65063
G1 X94.537 Y106.657 E19.69128
G1 X93.911 Y106.089 E19.73192
G1 X93.343 Y105.463 E19.77257
G1 X92.84 Y104.784 E19.81321
G1 X92.405 Y104.059 E19.85386
G1 X92.044 Y103.295 E19.8945
G1 X91.759 Y102.5 E19.93515
G1 X91.554 Y101.68 E19.97579
G1 X91.43 Y100.844 E20.01644
G1 X91.389 Y100 E20.05708
G1 X91.43 Y99.156 E20.09773
G1 X91.554 Y98.32 E20.13838
G1 X91.759 Y97.5 E20.17902
G1 X92.044 Y96.705 E20.21967
G1 X92.405 Y95.941 E20.26031
G1 X92.84 Y95.216 E20.30096
G1 X93.343 Y94.537 E20.3416
G1 X93.911 Y93.911 E20.38225
G1 X94.149 Y93.695 E20.39769
G1 X94.184 Y94.184 F7800
;TYPE:External perimeter
G1 F1800
G1 X94.782 Y93.642 E20.43651
G1 X95.43 Y93.161 E20.47534
G1 X96.123 Y92.746 E20.51416
G1 X96.852 Y92.401 E20.55298
G1 X97.612 Y92.129 E20.5918
G1 X98.395 Y91.933 E20.63063
G1 X99.194 Y91.814 E20.66945
G1 X99.96 Y91.777 E20.70637
G1 X100.806 Y91.814 E20.74706
G1 X101.605 Y91.933 E20.78591
G1 X102.388 Y92.129 E20.82474
G1 X103.148 Y92.401 E20.86356
G1 X103.877 Y92.746 E20.90238
G1 X104.57 Y93.161 E20.9412
G1 X105.218 Y93.642 E20.98003
G1 X105.816 Y94.184 E21.01885
G1 X106.358 Y94.782 E21.05767
G1 X106.839 Y95.43 E21.0965
G1 X107.254 Y96.123 E21.13532
G1 X107.599 Y96.852 E21.17414
G1 X107.871 Y97.612 E21.21297
G1 X108.067 Y98.395 E21.25179
G1 X108.186 Y99.194 E21.29061
G1 X108.225 Y100 E21.32943
G1 X108.186 Y100.806 E21.36826
G1 X108.067 Y101.605 E21.40708
G1 X107.871 Y102.388 E21.4459
G1 X107.599 Y103.148 E21.48473
G1 X107.254 Y103.877 E21.52355
G1 X106.839 Y104.57 E21.56237
G1 X106.358 Y105.218 E21.6012
G1 X105.816 Y105.816 E21.64002
G1 X105.218 Y106.358 E21.67884
G1 X104.57 Y106.839 E21.71767
G1 X103.877 Y107.254 E21.75649
G1 X103.148 Y107.599 E21.79531
G1 X102.388 Y107.871 E21.83413
G1 X101.605 Y108.067 E21.87296
G1 X100.806 Y108.186 E21.91178
G1 X100 Y108.225 E21.9506
G1 X99.194 Y108.186 E21.98943
G1 X98.395 Y108.067 E22.02825
G1 X97.612 Y107.871 E22.06707
G1 X96.852 Y107.599 E22.1059
G1 X96.123 Y107.254 E22.14472
G1 X95.43 Y106.839 E22.18354
G1 X94.782 Y106.358 E22.22237
G1 X94.184 Y105.816 E22.26119
G1 X93.642 Y105.218 E22.30001
G1 X93.161 Y104.57 E22.33883
G1 X92.746 Y103.877 E22.37766
G1 X92.401 Y103.148 E22.41648
G1 X92.129 Y102.388 E22.4553
G1 X91.933 Y101.605 E22.49413
G1 X91.814 Y100.806 E22.53295
G1 X91.775 Y100 E22.57177
G1 X91.814 Y99.194 E22.6106
G1 X91.933 Y98.395 E22.64942
G1 X92.129 Y97.612 E22.68824
G1 X92.401 Y96.852 E22.72707
G1 X92.746 Y96.123 E22.76589
G1 X93.161 Y95.43 E22.80471
G1 X93.642 Y94.782 E22.84353
G1 X94.144 Y94.228 E22.87947
G1 X94.08 Y93.797 F7800
G1 X93.62 Y93.127
;TYPE:Perimeter
G1 F3600
G1 X94.044 Y92.742 E22.907
G1 X94.784 Y92.194 E22.95131
G1 X95.574 Y91.72 E22.99563
G1 X96.407 Y91.326 E23.03994
G1 X97.275 Y91.016 E23.08425
G1 X98.168 Y90.792 E23.12857
G1 X99.079 Y90.657 E23.17285
G1 X100.024 Y90.613 E23.21834
G1 X100.92 Y90.657 E23.26151
G1 X101.832 Y90.792 E23.30582
G1 X102.725 Y91.016 E23.35013
G1 X103.593 Y91.326 E23.39445
G1 X104.426 Y91.72 E23.43876
G1 X105.216 Y92.194 E23.48308
G1 X105.956 Y92.742 E23.52739
G1 X106.639 Y93.361 E23.57171
G1 X107.258 Y94.044 E23.61602
G1 X107.806 Y94.784 E23.66033
G1 X108.28 Y95.574 E23.70465
G1 X108.674 Y96.407 E23.74896
G1 X108.984 Y97.275 E23.79328
G1 X109.208 Y98.168 E23.83759
G1 X109.343 Y99.08 E23.8819
G1 X109.389 Y100 E23.92622
G1 X109.343 Y100.92 E23.97053
G1 X109.208 Y101.832 E24.01485
G1 X108.984 Y102.725 E24.05916
G1 X108.674 Y103.593 E24.10347
G1 X108.28 Y104.426 E24.14779
G1 X107.806 Y105.216 E24.1921
G1 X107.258 Y105.956 E24.23642
G1 X106.639 Y106.639 E24.28073
G1 X105.956 Y107.258 E24.32505
G1 X105.216 Y107.806 E24.36936
G1 X104.426 Y108.28 E24.41367
G1 X103.593 Y108.674 E24.45799
G1 X102.725 Y108.984 E24.5023
G1 X101.832 Y109.208 E24.54662
G1 X100.92 Y109.343 E24.59093
G1 X100 Y109.389 E24.63525
G1 X99.08 Y109.343 E24.67956
G1 X98.168 Y109.208 E24.72387
G1 X97.275 Y108.984 E24.76819
G1 X96.407 Y108.674 E24.8125
G1 X95.574 Y108.28 E24.85682
G1 X94.784 Y107.806 E24.90113
G1 X94.044 Y107.258 E24.94544
G1 X93.361 Y106.639 E24.98976
G1 X92.742 Y105.956 E25.03407
G1 X92.194 Y105.216 E25.07839
G1 X91.72 Y104.426 E25.1227
G1 X91.326 Y103.593 E25.16702
G1 X91.016 Y102.725 E25.21133
G1 X90.792 Y101.832 E25.25564
G1 X90.657 Y100.92 E25.29996
G1 X90.611 Y100 E25.34427
G1 X90.657 Y99.08 E25.38859
G1 X90.792 Y98.168 E25.4329
G1 X91.016 Y97.275 E25.47721
G1 X91.326 Y96.407 E25.52153
G1 X91.72 Y95.574 E25.56584
G1 X92.194 Y94.784 E25.61016
G1 X92.742 Y94.044 E25.65447
G1 X93.361 Y93.361 E25.69879
G1 X93.575 Y93.167 E25.71269
G1 X93.041 Y93.14 F7800
;TYPE:External perimeter
G1 F1800
G1 X93.799 Y92.444 E25.76217
G1 X94.569 Y91.873 E25.80831
G1 X95.392 Y91.379 E25.85444
G1 X96.259 Y90.969 E25.90058
G1 X97.163 Y90.646 E25.94672
G1 X98.093 Y90.413 E25.99285
G1 X99.042 Y90.272 E26.03898
G1 X100.024 Y90.226 E26.08629
G1 X100.958 Y90.272 E26.13126
G1 X101.907 Y90.413 E26.17739
G1 X102.837 Y90.646 E26.22353
G1 X103.741 Y90.969 E26.26967
G1 X104.608 Y91.379 E26.3158
G1 X105.431 Y91.873 E26.36194
G1 X106.201 Y92.444 E26.40808
G1 X106.912 Y93.088 E26.45421
G1 X107.556 Y93.799 E26.50035
G1 X108.127 Y94.569 E26.54649
G1 X108.621 Y95.392 E26.59262
G1 X109.031 Y96.259 E26.63876
G1 X109.354 Y97.163 E26.68489
G1 X109.587 Y98.093 E26.73103
G1 X109.728 Y99.042 E26.77717
G1 X109.775 Y100 E26.8233
G1 X109.728 Y100.958 E26.86944
G1 X109.587 Y101.907 E26.91558
G1 X109.354 Y102.837 E26.96171
G1 X109.031 Y103.741 E27.00785
G1 X108.621 Y104.608 E27.05399
G1 X108.127 Y105.431 E27.10012
G1 X107.556 Y106.201 E27.14626
G1 X106.912 Y106.912 E27.1924
G1 X106.201 Y107.556 E27.23853
G1 X105.431 Y108.127 E27.28467
G1 X104.608 Y108.621 E27.3308
G1 X103.741 Y109.031 E27.37694
G1 X102.837 Y109.354 E27.42308
G1 X101.907 Y109.587 E27.46921
G1 X100.958 Y109.728 E27.51535
G1 X100 Y109.775 E27.56149
G1 X99.042 Y109.728 E27.60762
G1 X98.093 Y109.587 E27.65376
G1 X97.163 Y109.354 E27.6999
G1 X96.259 Y109.031 E27.74603
G1 X95.392 Y108.621 E27.79217
G1 X94.569 Y108.127 E27.83831
G1 X93.799 Y107.556 E27.88444
G1 X93.088 Y106.912 E27.93058
G1 X92.444 Y106.201 E27.97672
G1 X91.873 Y105.431 E28.02285
G1 X91.379 Y104.608 E28.06899
G1 X90.969 Y103.741 E28.11513
G1 X90.646 Y102.837 E28.16126
G1 X90.413 Y101.907 E28.2074
G1 X90.272 Y100.958 E28.25353
