; generated by PrusaSlicer 2.4.0 on 2026-06-17 at 10:15:19 UTC

; 

; external perimeters extrusion width = 0.45mm
; perimeters extrusion width = 0.45mm
; infill extrusion width = 0.45mm
; solid infill extrusion width = 0.45mm
; top infill extrusion width = 0.40mm
; first layer extrusion width = 0.70mm

M107
M104 S200 ; set temperature
;TYPE:Custom
G28 ; home all axes
G1 Z5 F5000 ; lift nozzle
M109 S200 ; set temperature and wait for it to be reached
G21 ; set units to millimeters
G90 ; use absolute coordinates
M82 ; use absolute distances for extrusion
G92 E0
; Filament gcode
M107
;LAYER_CHANGE
;Z:0.35
;HEIGHT:0.35
G1 Z.35 F7800
G1 E-2 F2400
G92 E0
G1 X94.857 Y90.341 F7800
G1 E2 F2400
;TYPE:Skirt/Brim
;WIDTH:0.7
G1 F1213
G1 X95.207 Y89.991 E2.04501
G1 X97.085 Y88.675 E2.25355
G1 X99.892 Y88.051 E2.51498
G1 X102.367 Y88.448 E2.74292
G1 X104.793 Y89.991 E3.00435
G1 X105.143 Y90.341 E3.04936
G1 X106.459 Y92.219 E3.2579
G1 X107.083 Y95.026 E3.51933
G1 X107.083 Y104.974 E4.42392
G1 X106.686 Y107.233 E4.63247
G1 X105.143 Y109.659 E4.89389
G1 X104.793 Y110.009 E4.9389
G1 X102.915 Y111.325 E5.14744
G1 X99.892 Y111.949 E5.42811
G1 X97.633 Y111.552 E5.63665
G1 X95.207 Y110.009 E5.89808
G1 X94.857 Y109.659 E5.94309
G1 X93.541 Y107.781 E6.15163
G1 X92.917 Y104.974 E6.41305
G1 X92.917 Y95.026 E7.31765
G1 X93.314 Y92.767 E7.52619
G1 X94.825 Y90.392 E7.78216
G1 E5.78216 F2400
G92 E0
G1 X100 Y105.324 F7800
G1 E2 F2400
;TYPE:External perimeter
;WIDTH:0.991425
G1 F1213
G1 X100 Y94.676 E3.4198
;LAYER_CHANGE
;Z:0.65
;HEIGHT:0.3
G1 Z.65 F7800
G1 X100.313 Y95.964
;TYPE:Perimeter
;WIDTH:0.45
G1 F783
G1 X100.313 Y104.036 E3.808
G1 X100 Y104.348 E3.82928
G1 X99.687 Y104.036 E3.85055
G1 X99.687 Y95.964 E4.23875
G1 X100 Y95.652 E4.26003
G1 X100.27 Y95.922 E4.27842
G1 X100.299 Y95.406 F7800
G1 F783
G1 X100.658 Y95.764 E4.30283
;TYPE:Overhang perimeter
;WIDTH:0.4
;HEIGHT:0.4
G1 F900
G1 X100.698 Y95.805 E4.3058
G1 X100.698 Y104.195 E4.74417
G1 X100.658 Y104.236 E4.74715
;TYPE:Perimeter
;WIDTH:0.45
;HEIGHT:0.3
G1 F783
G1 X100.056 Y104.838 E4.7881
G1 X99.944 Y104.838 E4.79349
G1 X99.342 Y104.236 E4.83445
;TYPE:Overhang perimeter
;WIDTH:0.4
;HEIGHT:0.4
G1 F900
G1 X99.302 Y104.195 E4.83742
G1 X99.302 Y95.805 E5.27579
G1 X99.342 Y95.764 E5.27877
;TYPE:Perimeter
;WIDTH:0.45
;HEIGHT:0.3
G1 F783
G1 X99.944 Y95.162 E5.31972
G1 X100.056 Y95.162 E5.32511
G1 X100.257 Y95.363 E5.33877
G1 X100 Y94.777 F7800
;TYPE:External perimeter
G1 F783
G1 X100.216 Y94.777 E5.34915
G1 X100.658 Y95.219 E5.37924
;TYPE:Overhang perimeter
;WIDTH:0.4
;HEIGHT:0.4
G1 F900
G1 X101.084 Y95.645 E5.4107
G1 X101.084 Y104.355 E5.86576
G1 X100.658 Y104.781 E5.89723
;TYPE:External perimeter
;WIDTH:0.45
;HEIGHT:0.3
G1 F783
G1 X100.216 Y105.223 E5.92732
G1 X99.784 Y105.223 E5.94808
G1 X99.342 Y104.781 E5.97816
;TYPE:Overhang perimeter
;WIDTH:0.4
;HEIGHT:0.4
G1 F900
G1 X98.916 Y104.355 E6.00963
G1 X98.916 Y95.645 E6.46469
G1 X99.342 Y95.219 E6.49616
;TYPE:External perimeter
;WIDTH:0.45
;HEIGHT:0.3
G1 F783
G1 X99.784 Y94.777 E6.52624
G1 X99.94 Y94.777 E6.53374
G1 X100.142 Y94.939 F7800
G1 X100 Y95.924
;TYPE:Gap fill
;WIDTH:0.304327
G1 F783
G1 X100 Y104.076 E6.77769
;LAYER_CHANGE
;Z:0.95
;HEIGHT:0.3
G1 Z.95 F7800
G1 E4.77769 F2400
G92 E0
G1 X100.59 Y95.941 F7800
G1 E2 F2400
;TYPE:Perimeter
;WIDTH:0.45
G1 F900
G1 X101.098 Y96.45 E2.03459
G1 X101.098 Y103.55 E2.3761
G1 X100.082 Y104.567 E2.44523
G1 X99.918 Y104.567 E2.4531
G1 X98.902 Y103.55 E2.52224
G1 X98.902 Y96.45 E2.86374
G1 X99.918 Y95.433 E2.93288
G1 X100.082 Y95.433 E2.94075
G1 X100.547 Y95.899 E2.9724
G1 X100.354 Y95.16 F7800
G1 F900
G1 X101.484 Y96.29 E3.04928
G1 X101.484 Y103.71 E3.40615
G1 X100.242 Y104.952 E3.49065
G1 X99.759 Y104.952 E3.51389
G1 X98.516 Y103.71 E3.59839
G1 X98.516 Y96.29 E3.95526
G1 X99.759 Y95.048 E4.03976
G1 X100.242 Y95.048 E4.06299
G1 X100.311 Y95.117 E4.06773
G1 X100 Y94.662 F7800
;TYPE:External perimeter
G1 F900
G1 X100.401 Y94.662 E4.08702
G1 X101.509 Y95.77 E4.16237
;TYPE:Overhang perimeter
;WIDTH:0.4
;HEIGHT:0.4
G1 X101.869 Y96.13 E4.189
G1 X101.869 Y103.87 E4.59335
G1 X101.509 Y104.23 E4.61998
;TYPE:External perimeter
;WIDTH:0.45
;HEIGHT:0.3
G1 X100.401 Y105.338 E4.69533
G1 X99.599 Y105.338 E4.73392
G1 X98.491 Y104.23 E4.80927
;TYPE:Overhang perimeter
;WIDTH:0.4
;HEIGHT:0.4
G1 X98.131 Y103.87 E4.8359
G1 X98.131 Y96.13 E5.24024
G1 X98.491 Y95.77 E5.26687
;TYPE:External perimeter
;WIDTH:0.45
;HEIGHT:0.3
G1 X99.599 Y94.662 E5.34222
G1 X99.94 Y94.662 E5.35864
G1 X100.268 Y94.959 F7800
G1 X99.873 Y95.643
;TYPE:Solid infill
;WIDTH:0.463197
G1 F1200
G1 X100.809 Y96.579 E5.42451
G1 X100.809 Y97.143 E5.45256
G1 X99.713 Y96.047 E5.52964
G1 X99.431 Y96.329 E5.54948
G1 X100.809 Y97.707 E5.6464
G1 X100.809 Y98.271 E5.67445
G1 X99.191 Y96.653 E5.78827
G1 X99.191 Y97.217 E5.81633
G1 X100.809 Y98.835 E5.93014
G1 X100.809 Y99.399 E5.9582
G1 X99.191 Y97.781 E6.07202
G1 X99.191 Y98.345 E6.10007
G1 X100.809 Y99.963 E6.21389
G1 X100.809 Y100.527 E6.24195
G1 X99.191 Y98.909 E6.35577
G1 X99.191 Y99.473 E6.38382
G1 X100.809 Y101.091 E6.49764
G1 X100.809 Y101.655 E6.5257
G1 X99.191 Y100.037 E6.63952
G1 X99.191 Y100.601 E6.66757
G1 X100.809 Y102.219 E6.78139
G1 X100.809 Y102.783 E6.80945
G1 X99.191 Y101.165 E6.92327
G1 X99.191 Y101.729 E6.95132
G1 X100.809 Y103.347 E7.06514
G1 X100.809 Y103.43 E7.06929
G1 X100.569 Y103.671 E7.08619
G1 X99.191 Y102.293 E7.1831
G1 X99.191 Y102.857 E7.21116
G1 X100.287 Y103.953 E7.28823
G1 X100.005 Y104.235 E7.30807
G1 X99.017 Y103.248 E7.37751
M106 S242.25
;LAYER_CHANGE
;Z:1.25
;HEIGHT:0.3
G1 Z1.25 F7800
G1 E5.37751 F2400
G92 E0
G1 X100.644 Y95.696 F7800
G1 E2 F2400
;TYPE:Perimeter
;WIDTH:0.45
G1 F900
G1 X101.884 Y96.935 E2.08432
G1 X101.884 Y103.065 E2.37913
G1 X100.267 Y104.681 E2.48908
G1 X99.733 Y104.681 E2.51478
G1 X98.116 Y103.065 E2.62473
G1 X98.116 Y96.935 E2.91954
G1 X99.733 Y95.319 E3.02949
G1 X100.267 Y95.319 E3.05519
G1 X100.602 Y95.653 E3.07793
G1 X100.4 Y94.933 F7800
G1 F900
G1 X100.427 Y94.933 E3.07923
G1 X102.269 Y96.775 E3.20454
G1 X102.269 Y103.225 E3.51472
G1 X100.427 Y105.067 E3.64003
G1 X99.573 Y105.067 E3.6811
G1 X97.731 Y103.225 E3.80641
G1 X97.731 Y96.775 E4.11659
G1 X99.573 Y94.933 E4.2419
G1 X100.34 Y94.933 E4.27879
G1 X100 Y94.548 F7800
;TYPE:External perimeter
G1 F900
G1 X100.587 Y94.548 E4.307
G1 X102.294 Y96.255 E4.42316
;TYPE:Overhang perimeter
;WIDTH:0.4
;HEIGHT:0.4
M106 S255
G1 X102.655 Y96.616 E4.44979
G1 X102.655 Y103.384 E4.80341
G1 X102.294 Y103.745 E4.83004
M106 S242.25
;TYPE:External perimeter
;WIDTH:0.45
;HEIGHT:0.3
G1 X100.587 Y105.452 E4.94621
G1 X99.413 Y105.452 E5.00264
G1 X97.706 Y103.745 E5.1188
;TYPE:Overhang perimeter
;WIDTH:0.4
;HEIGHT:0.4
M106 S255
G1 X97.345 Y103.384 E5.14543
G1 X97.345 Y96.616 E5.49905
G1 X97.706 Y96.255 E5.52568
M106 S242.25
;TYPE:External perimeter
;WIDTH:0.45
;HEIGHT:0.3
G1 X99.413 Y94.548 E5.64184
G1 X99.94 Y94.548 E5.66717
G1 X100.269 Y94.844 F7800
G1 E3.66717 F2400
G92 E0
G1 X99.963 Y104.566 F7800
G1 E2 F2400
;TYPE:Solid infill
;WIDTH:0.464694
G1 F1200
G1 X101.594 Y102.935 E2.11517
G1 X101.594 Y102.368 E2.14343
G1 X99.712 Y104.251 E2.27637
G1 X99.429 Y103.968 E2.29636
G1 X101.594 Y101.802 E2.44928
G1 X101.594 Y101.236 E2.47755
G1 X99.146 Y103.685 E2.65046
G1 X98.863 Y103.402 E2.67045
G1 X101.594 Y100.67 E2.86335
G1 X101.594 Y100.104 E2.89161
G1 X98.579 Y103.119 E3.1045
G1 X98.406 Y102.945 E3.11678
G1 X98.406 Y102.727 E3.12768
G1 X101.594 Y99.538 E3.35285
G1 X101.594 Y98.972 E3.38111
G1 X98.406 Y102.16 E3.60628
G1 X98.406 Y101.594 E3.63454
G1 X101.594 Y98.406 E3.85971
G1 X101.594 Y97.839 E3.88797
G1 X98.406 Y101.028 E4.11313
G1 X98.406 Y100.462 E4.1414
G1 X101.594 Y97.273 E4.36656
G1 X101.594 Y97.055 E4.37746
G1 X101.42 Y96.881 E4.38974
G1 X98.406 Y99.896 E4.60263
G1 X98.406 Y99.33 E4.63089
G1 X101.137 Y96.598 E4.82379
G1 X100.854 Y96.315 E4.84378
G1 X98.406 Y98.764 E5.01668
G1 X98.406 Y98.198 E5.04495
G1 X100.571 Y96.032 E5.19787
G1 X100.288 Y95.749 E5.21786
G1 X98.406 Y97.631 E5.35079
G1 X98.406 Y97.065 E5.37906
G1 X100.036 Y95.434 E5.49422
M106 S237.15
;LAYER_CHANGE
;Z:1.55
;HEIGHT:0.3
G1 Z1.55 F7800
G1 X100.698 Y95.45
;TYPE:Perimeter
;WIDTH:0.45
G1 F900
G1 X102.669 Y97.421 E5.62827
G1 X102.669 Y102.579 E5.87639
G1 X100.453 Y104.796 E6.02714
G1 X99.547 Y104.796 E6.07068
G1 X97.331 Y102.579 E6.22144
G1 X97.331 Y97.421 E6.46956
G1 X99.547 Y95.204 E6.62032
G1 X100.453 Y95.204 E6.66386
G1 X100.656 Y95.407 E6.67768
G1 X100.4 Y94.819 F7800
G1 F900
G1 X100.612 Y94.819 E6.68789
G1 X103.055 Y97.261 E6.85401
G1 X103.055 Y102.739 E7.1175
G1 X100.612 Y105.181 E7.28362
G1 X99.388 Y105.181 E7.34252
G1 X96.945 Y102.739 E7.50865
G1 X96.945 Y97.261 E7.77213
G1 X99.388 Y94.819 E7.93826
G1 X100.34 Y94.819 E7.98406
G1 X100 Y94.433 F7800
;TYPE:External perimeter
G1 F900
G1 X100.772 Y94.433 E8.02119
G1 X103.08 Y96.741 E8.17817
;TYPE:Overhang perimeter
;WIDTH:0.4
;HEIGHT:0.4
M106 S255
G1 X103.44 Y97.101 E8.2048
G1 X103.44 Y102.899 E8.5077
G1 X103.08 Y103.259 E8.53433
M106 S237.15
;TYPE:External perimeter
;WIDTH:0.45
;HEIGHT:0.3
G1 X100.772 Y105.567 E8.6913
G1 X99.228 Y105.567 E8.76557
G1 X96.92 Y103.259 E8.92254
;TYPE:Overhang perimeter
;WIDTH:0.4
;HEIGHT:0.4
M106 S255
G1 X96.56 Y102.899 E8.94917
G1 X96.56 Y97.101 E9.25207
G1 X96.92 Y96.741 E9.2787
M106 S237.15
;TYPE:External perimeter
;WIDTH:0.45
;HEIGHT:0.3
G1 X99.228 Y94.433 E9.43567
G1 X99.94 Y94.433 E9.46992
G1 X100.269 Y94.729 F7800
G1 X100.148 Y95.32
;TYPE:Solid infill
;WIDTH:0.466025
G1 F1200
G1 X102.38 Y97.552 E9.62804
G1 X102.38 Y98.12 E9.6565
G1 X99.753 Y95.493 E9.84257
G1 X99.667 Y95.493 E9.84688
G1 X99.426 Y95.734 E9.86395
G1 X102.38 Y98.688 E10.07319
G1 X102.38 Y99.256 E10.10165
G1 X99.142 Y96.018 E10.33101
G1 X98.858 Y96.302 E10.35113
G1 X102.38 Y99.824 E10.60062
G1 X102.38 Y100.392 E10.62907
G1 X98.574 Y96.586 E10.89868
G1 X98.29 Y96.87 E10.9188
G1 X102.38 Y100.96 E11.20852
G1 X102.38 Y101.528 E11.23698
G1 X98.006 Y97.154 E11.54682
G1 X97.722 Y97.438 E11.56694
G1 X102.38 Y102.096 E11.89691
G1 X102.38 Y102.46 E11.91513
G1 X102.278 Y102.562 E11.92237
G1 X97.62 Y97.904 E12.25233
G1 X97.62 Y98.472 E12.28078
G1 X101.994 Y102.846 E12.59062
G1 X101.71 Y103.13 E12.61074
G1 X97.62 Y99.04 E12.90046
G1 X97.62 Y99.608 E12.92892
G1 X101.426 Y103.414 E13.19852
G1 X101.142 Y103.698 E13.21864
G1 X97.62 Y100.176 E13.46812
G1 X97.62 Y100.744 E13.49657
G1 X100.858 Y103.982 E13.72593
G1 X100.574 Y104.266 E13.74605
G1 X97.62 Y101.312 E13.95529
G1 X97.62 Y101.88 E13.98374
G1 X100.246 Y104.507 E14.1698
G1 X99.678 Y104.507 E14.19826
G1 X97.447 Y102.275 E14.35637
M106 S232.05
;LAYER_CHANGE
;Z:1.85
;HEIGHT:0.3
G1 Z1.85 F7800
G1 E12.35637 F2400
G92 E0
G1 X100.753 Y95.204 F7800
G1 E2 F2400
;TYPE:Perimeter
;WIDTH:0.45
G1 F900
G1 X103.454 Y97.906 E2.18378
G1 X103.454 Y102.094 E2.38521
G1 X100.638 Y104.91 E2.57678
G1 X99.362 Y104.91 E2.63815
G1 X96.546 Y102.094 E2.82972
G1 X96.546 Y97.906 E3.03115
G1 X99.362 Y95.09 E3.22272
G1 X100.638 Y95.09 E3.28409
G1 X100.71 Y95.162 E3.28899
G1 X100.4 Y94.704 F7800
G1 F900
G1 X100.798 Y94.704 E3.30812
G1 X103.84 Y97.746 E3.51506
G1 X103.84 Y102.254 E3.73185
G1 X100.798 Y105.296 E3.93878
G1 X99.202 Y105.296 E4.01552
G1 X96.16 Y102.254 E4.22245
G1 X96.16 Y97.746 E4.43925
G1 X99.202 Y94.704 E4.64618
G1 X100.34 Y94.704 E4.7009
G1 X100 Y94.318 F7800
;TYPE:External perimeter
G1 F900
G1 X100.957 Y94.318 E4.74695
G1 X103.865 Y97.226 E4.94474
;TYPE:Overhang perimeter
;WIDTH:0.4
;HEIGHT:0.4
M106 S255
G1 X104.226 Y97.587 E4.97137
G1 X104.226 Y102.413 E5.22355
G1 X103.865 Y102.774 E5.25018
M106 S232.05
;TYPE:External perimeter
;WIDTH:0.45
;HEIGHT:0.3
G1 X100.957 Y105.682 E5.44796
G1 X99.043 Y105.682 E5.54006
G1 X96.135 Y102.774 E5.73785
;TYPE:Overhang perimeter
;WIDTH:0.4
;HEIGHT:0.4
M106 S255
G1 X95.774 Y102.413 E5.76448
G1 X95.774 Y97.587 E6.01666
G1 X96.135 Y97.226 E6.04329
M106 S232.05
;TYPE:External perimeter
;WIDTH:0.45
;HEIGHT:0.3
G1 X99.043 Y94.318 E6.24107
G1 X99.94 Y94.318 E6.28424
G1 X100.269 Y94.614 F7800
G1 E4.28424 F2400
G92 E0
G1 X103.339 Y101.788 F7800
G1 E2 F2400
;TYPE:Solid infill
;WIDTH:0.467215
G1 F1200
G1 X100.506 Y104.621 E2.20128
G1 X99.936 Y104.621 E2.22991
G1 X103.165 Y101.392 E2.45934
G1 X103.165 Y100.823 E2.48796
G1 X99.424 Y104.564 E2.75378
G1 X99.139 Y104.279 E2.77402
G1 X103.165 Y100.253 E3.06008
G1 X103.165 Y99.683 E3.08871
G1 X98.854 Y103.994 E3.39501
G1 X98.57 Y103.709 E3.41525
G1 X103.165 Y99.113 E3.74179
G1 X103.165 Y98.544 E3.77041
G1 X98.285 Y103.424 E4.11719
G1 X98 Y103.139 E4.13743
G1 X103.139 Y98 E4.50261
G1 X102.855 Y97.715 E4.52285
G1 X97.715 Y102.855 E4.88803
G1 X97.43 Y102.57 E4.90827
G1 X102.57 Y97.43 E5.27346
G1 X102.285 Y97.145 E5.2937
G1 X97.145 Y102.285 E5.65888
G1 X96.861 Y102 E5.67912
G1 X102 Y96.861 E6.0443
G1 X101.715 Y96.576 E6.06454
G1 X96.835 Y101.456 E6.41132
G1 X96.835 Y100.886 E6.43994
G1 X101.43 Y96.291 E6.76648
G1 X101.145 Y96.006 E6.78672
G1 X96.835 Y100.317 E7.09301
G1 X96.835 Y99.747 E7.12163
G1 X100.861 Y95.721 E7.40769
G1 X100.576 Y95.436 E7.42793
G1 X96.835 Y99.177 E7.69374
G1 X96.835 Y98.608 E7.72237
G1 X100.064 Y95.379 E7.95179
G1 X99.494 Y95.379 E7.98042
G1 X96.661 Y98.211 E8.18169
M106 S226.95
;LAYER_CHANGE
;Z:2.15
;HEIGHT:0.3
G1 Z2.15 F7800
G1 E6.18169 F2400
G92 E0
G1 X100.8 Y94.975 F7800
G1 E2 F2400
;TYPE:Perimeter
;WIDTH:0.45
G1 F900
G1 X100.823 Y94.975 E2.00113
G1 X104.24 Y98.391 E2.23351
G1 X104.24 Y101.609 E2.38824
G1 X100.823 Y105.025 E2.62062
G1 X99.177 Y105.025 E2.69983
G1 X95.76 Y101.609 E2.93221
G1 X95.76 Y98.391 E3.08695
G1 X99.177 Y94.975 E3.31933
G1 X100.74 Y94.975 E3.39452
G1 X100.4 Y94.589 F7800
G1 F900
G1 X100.983 Y94.589 E3.42257
G1 X104.625 Y98.232 E3.67031
G1 X104.625 Y101.768 E3.84041
G1 X100.983 Y105.411 E4.08816
G1 X99.017 Y105.411 E4.18273
G1 X95.375 Y101.768 E4.43048
G1 X95.375 Y98.232 E4.60058
G1 X99.017 Y94.589 E4.84832
G1 X100.34 Y94.589 E4.91196
G1 X100 Y94.204 F7800
;TYPE:External perimeter
G1 F900
G1 X101.143 Y94.204 E4.96693
G1 X104.651 Y97.712 E5.20553
;TYPE:Overhang perimeter
;WIDTH:0.4
;HEIGHT:0.4
M106 S255
G1 X105.011 Y98.072 E5.23215
G1 X105.011 Y101.928 E5.43362
G1 X104.651 Y102.288 E5.46024
M106 S226.95
;TYPE:External perimeter
;WIDTH:0.45
;HEIGHT:0.3
G1 X101.143 Y105.796 E5.69884
G1 X98.857 Y105.796 E5.80878
G1 X95.349 Y102.288 E6.04737
;TYPE:Overhang perimeter
;WIDTH:0.4
;HEIGHT:0.4
M106 S255
G1 X94.989 Y101.928 E6.074
G1 X94.989 Y98.072 E6.27546
G1 X95.349 Y97.712 E6.30209
M106 S226.95
;TYPE:External perimeter
;WIDTH:0.45
;HEIGHT:0.3
G1 X98.857 Y94.204 E6.54069
G1 X99.94 Y94.204 E6.59277
G1 X100.269 Y94.499 F7800
G1 E4.59277 F2400
G92 E0
G1 X104.124 Y98.698 F7800
G1 E2 F2400
;TYPE:Solid infill
;WIDTH:0.468287
G1 F1200
G1 X100.691 Y95.264 E2.24462
G1 X100.119 Y95.264 E2.2734
G1 X103.951 Y99.095 E2.54635
G1 X103.951 Y99.667 E2.57512
G1 X99.548 Y95.264 E2.88877
G1 X99.296 Y95.264 E2.90146
G1 X99.137 Y95.424 E2.91284
G1 X103.951 Y100.238 E3.2558
G1 X103.951 Y100.809 E3.28458
G1 X98.851 Y95.71 E3.64789
G1 X98.565 Y95.995 E3.66824
G1 X103.951 Y101.38 E4.0519
G1 X103.951 Y101.489 E4.05737
G1 X103.719 Y101.72 E4.07385
G1 X98.28 Y96.281 E4.46138
G1 X97.994 Y96.566 E4.48173
G1 X103.434 Y102.006 E4.86925
G1 X103.148 Y102.291 E4.8896
G1 X97.709 Y96.852 E5.27713
G1 X97.423 Y97.138 E5.29748
G1 X102.862 Y102.577 E5.68501
G1 X102.577 Y102.863 E5.70535
G1 X97.137 Y97.423 E6.09288
G1 X96.852 Y97.709 E6.11323
G1 X102.291 Y103.148 E6.50076
G1 X102.006 Y103.434 E6.52111
G1 X96.566 Y97.994 E6.90863
G1 X96.281 Y98.28 E6.92898
G1 X101.72 Y103.719 E7.31651
G1 X101.434 Y104.005 E7.33686
G1 X96.049 Y98.62 E7.72051
G1 X96.049 Y99.191 E7.74929
G1 X101.149 Y104.291 E8.1126
G1 X100.863 Y104.576 E8.13295
G1 X96.049 Y99.762 E8.47591
G1 X96.049 Y100.334 E8.50468
G1 X100.452 Y104.736 E8.81832
G1 X99.88 Y104.736 E8.8471
G1 X96.049 Y100.905 E9.12004
G1 X96.049 Y101.476 E9.14882
G1 X99.483 Y104.909 E9.39343
M106 S221.85
;LAYER_CHANGE
;Z:2.45
;HEIGHT:0.3
G1 Z2.45 F7800
G1 E7.39343 F2400
G92 E0
G1 X100.8 Y94.86 F7800
G1 E2 F2400
;TYPE:Perimeter
;WIDTH:0.45
G1 F900
G1 X101.009 Y94.86 E2.01004
G1 X105.025 Y98.877 E2.28324
G1 X105.025 Y101.123 E2.39128
G1 X101.009 Y105.14 E2.66447
